/* XPM */
static char * adJ_1bpp_xpm[] = {
"256 185 3 1",
" 	c None",
".	c #C61705",
"+	c #FBFBF6",
"                                                                                                  ................                                                                                                                                              ",
"                                                                                             ...........................                                                                                                                                        ",
"                                                                                         ...................................                                                                                                                                    ",
"                                                                                      ..........................................                                                                                                                                ",
"                                                                                   ................................................                                                                                                                             ",
"                                                                                 ....................................................                                                                                                                           ",
"                                                                              ..........................................................                                                                                                                        ",
"                                                                            ..............................................................                                                                                                                      ",
"                                                                          ..................................................................                                                                                                                    ",
"                                                                        ......................................................................                                                                                                                  ",
"                                                                       .........................................................................                                                                                                                ",
"                                                                     .............................................................................                                                                                                              ",
"                                                                   .................................................................................                                                                                                            ",
"                                                                  ...................................................................................                                                                                                           ",
"                                                                .......................................................................................                                                                                                         ",
"                                                               ....................................++++++++++++++++++++++++.............................                                                                                                        ",
"                                                             ................................+++++++++++++++++++++++++++++++++++++........................                                                                                                      ",
"                                                            .............................+++++++++++++++++++++++++++++++++++++++++++++.....................                                                                                                 ... ",
"                                                           ...........................+++++++++++++++++++++++++++++++++++++++++++++++++++....................                                                                                               ... ",
"                                                         ..........................+++++++++++++++++++++++++++++++++++++++++++++++++++++++++..................                                                                                             .....",
"                                                        .........................+++++++++++++++++++++++++++++++++++++++++++++++++++++++++++++.................                                                                                            .....",
"                                                       ........................+++++++++++++++++++++++++++++++++++++++++++++++++++++++++++++++++.................                                                                                         ......",
"                                                      ...................... +++++++++++++++++++++++++++++++++++++++++++++++++++++++++++++++++++++................                                                                                       .......",
"                                                    ...................... ++++++++++++++++++++++++++++++++++++++++++++++++++++++++++++++++++++++++................                                                                                      .......",
"                                                   ..................... ++++++++++++++++++++++++++++++++++++++++++++++++++++++++++++++++++++++++++++...............                                                                                    ....... ",
"                                                  .................... ++++++++++++++++++++++++++++++++++++++++++++++++++++++++++++++++++++++++++++++++...............                                                                                  ....... ",
"                                                 ................... +++++++++++++++++++++++++++++++++++++++++++++++++++++++++++++++++++++++++++++++++++...............                                                                                .......  ",
"                                                ...................+++++++++++++++++++++++++++++++++++++++++++++++++++++++++++++++++++++++++++++++++++++++..............                                                                               .......  ",
"                                               ..................++++++++++++++++++++++++++++++++++++++++++++++++++++++++++++++++++++++++++++++++++++++++++..............                                                                             .......   ",
"                                              .................++++++++++++++++++++++++++++++++++++++++++++++++++++++++++++++++++++++++++++++++++++++++++++++.............                                                                            .......   ",
"                                             .................++++++++++++++++++++++++++++++++++++++++++++++++++++++++++++++++++++++++++++++++++++++++++++++++.............                                                                          .......    ",
"                                            ................+++++++++++++++++++++++++++++++++++++++++++++++++++++++++++++++++++++++++++++++++++++++++++++++++++.............                                                                         .......    ",
"                                           ...............+++++++++++++++++++++++++++++++++++++++++++++++++++++++++++++++++++++++++++++++++++++++++++++++++++++++............                                                                       .......     ",
"                                          ...............+++++++++++++++++++++++++++++++++++++++++++++++++++++++++++++++++++++++++++++++++++++++++++++++++++++++++............                                                                      ......      ",
"                                         ..............++++++++++++++++++++++++++++++++++++++++++++++++++++++++++++++++++++++++++++++++++++++++++++++++++++++++++++............                                                                    .......      ",
"                                        ..............++++++++++++++++++++++++++++++++++++++++++++++++++++++++++++++++++++++++++++++++++++++++++++++++++++++++++++++............                                                                  .......       ",
"                                       ..............+++++++++++++++++++++++++++++++++++++++++++++++++++++++++++++++++++++++++++++++++++++++++++++++++++++++++++++++++...........                                                                 .......       ",
"                                      ..............+++++++++++++++++++++++++++++++++++++++++++++++++++++++++++++++++++++++++++++++++++++++++++++++++++++++++++++++++++...........                                                               .......        ",
"                                     .............++++++++++++++++++++++++++++++++++++++++++++++++++++++++++++++++++++++++++++++++++++++++++++++++++++++++++++++++++++++...........                                                              .......        ",
"                                    .............++++++++++++++++++++++++++++++++++++++++++++++++++++++++++++++++++++++++++++++++++++++++++++++++++++++++++++++++++++++++...........                                                            .......         ",
"                                   .............++++++++++++++++++++++++++++++++++++++++++++++++++++++++++++++++++++++++++++++++++++++++++++++++++++++++++++++++++++++++++...........                                                           .......         ",
"                                  .............++++++++++++++++++++++++++++++++++++++++++++++++++++++++++++++++++++++++++++++++++++++++++++++++++++++++++++++++++++++++++++...........                                                         .......          ",
"                                 .............+++++++++++++++++++++++++++++++++++++++++++++++++++++++++++++++++++++++++++++++++++++++++++++++++++++++++++++++++++++++++++++++..........                                                        .......          ",
"                                .............+++++++++++++++++++++++++++++++++++++++++++++++++++++++++++++++++++++++++++++++++++++++++++++++++++++++++++++++++++++++++++++++++..........                                                      .......           ",
"                                ............+++++++++++++++++++++++++++++++++++++++++++++++++++++++++++++++++++++++++++++++++++++++++++++++++++++++++++++++++++++++++++++++++++..........                                                     .......           ",
"                               ............+++++++++++++++++++++++++++++++++++++++++++++++++++++++++++++++++++++++++++++++++++...++++++++++++++++++++++++++++++++++++++......+++.........                                                    .......            ",
"                              ............++++++++++++++++++++++++++++++++++++++++++++++++++++++++++++++++++++++++++++++++++++....++++++++++++++++++++++++++++++++++++......+++++.........                                                  ........            ",
"                             ............++++++++++++++++++++++++++++++++++++++++++++++++++++++++++++++++++++++++++++++++++++....++++++++++++++++++++++++++++++++++++.......+++++..........                                                 .......             ",
"                            ............+++++++++++++++++++++++++++++++++++++++++++++++++++++++++++++++++++++++++++++++++++++....+++++++++++++++++++++++++++++++++++.......+++++++..........                                               ........             ",
"                           ............+++++++++++++++++++++++++++++++++++++++++++++++++++++++++++++++++++++++++++++++++++++.....++++++++++++++++++++++++++++++++++........++++++++..........                                              .......              ",
"                          ............++++++++++++++++++++++++++++++++++++++++++++++++++++++++++++++++++++++++++++++++++++++....+++++++++++++++++++++++++++++++++..........+++++++++..........                                            ........              ",
"                          ............+++++++++++++++++++++++++++++++++++++++++++++++++++++++++++++++++++++++++++++++++++++.....++++++++++++++++++++++++++++++............+++++++++++.........                                            .......               ",
"                         ............++++++++++++++++++++++++++++++++++++++++++++++++++++++++++++++++++++++++++++++++++++++.....+++++++++++++++++++++++++++...............++++++++++++.........                                          ........               ",
"                        ............+++++++++++++++++++++++++++++++++++++++++++++++++++++++++++++++++++++++++++++++++++++++....+++++++++++++++++++++++++.................++++++++++++++.........                                        ........                ",
"                       ............+++++++++++++++++++++++++++++++++++++++++++++++++++++++++++++++++++++++++++++++++++++++.....++++++++++++++++++++................+.....+++++++++++++++.........                                       ........                ",
"                       ...........++++++++++++++++++++++++++++++++++++++++++++++++++++++++++++++++++++++++++++++++++++++++.....+++++++++++++++++................++++....++++++++++++++++..........                                     ........                 ",
"                      ............+++++++++++++++++++++++++++++++++++++++++++++++++++++++++++++++++++++++++++++++++++++++.....+++++++++++++++................++++++.....+++++++++++++++++.........                                     ........                 ",
"                     ............++++++++++++++++++++++++++++++++++++++++++++++++++++++++++++++++++++++++++++++++++++++++.....+++++++++++++.............+++++++++++.....++++++++++++++++++.........                                   ........                  ",
"                    ............++++++++++++++++++++++++++++++++++++++++++++++++++++++++++++++++++++++++++++++++++++++++......+++++++++++............+++++++++++++.....++++++++++++++++++++.........                                  .......                   ",
"                    ............++++++++++++++++++++++++++++++++++++++++++++++++++++++++++++++++++++++++++++++++++++++++.....+++++++++++..........++++++++++++++++.....++++++++++++++++++++ .........                                ........                   ",
"                   ............+++++++++++++++++++++++++++++++++++++++++++++++++++++++++++++++++++++++++++++++++++++++++.....+++++++++..........+++++++++++++++++.....++++++++++++++++++++++ ........                               ........                    ",
"                  ............+++++++++++++++++++++++++++++++++++++++++++++++++++++++++++++++++++++++++++++++++++++++++.....+++++++++.........+++++++++++++++++++.....+++++++++++++++++++++++.........                              ........                    ",
"                 .............+++++++++++++++++++++++++++++++++++++++++++++++++++++++++++++++++++++++++++++++++++++++++.....++++++++.......++++++++++++++++++++++....+++++++++++++++++++++++++.........                            ........                     ",
"                 ............+++++++++++++++++++++++++++++++++++++++++++++++++++++++++++++++++++++++++++++++++++++++++......+++++++......+++++++++++++++++++++++.....++++++++++++++++++++++++++.........                           ........                     ",
"                ............++++++++++++++++++++++++++++++++++++++++++++++++++++++++++++++++++++++++++++++++++++++++++.....+++++++.....+++++++++++++++++++++++++.....++++++++++++++++++++++++++ ........                          ........                      ",
"               .............++++++++++++++++++++++++++++++++++++++++++++++++++++++++++++++++++++++++++++++++++++++++++.....++++++.....+++++++++++++++++++++++++.....++++++++++++++++++++++++++++ ........                        .........                      ",
"              .............++++++++++++++++++++++++++++++++++++++++++++++++++++++++++++++++++++++++++++++++++++++++++.....+++++++....++++++++++++++++++++++++++.....+++++++++++++++++++++++++++++.........                       ........                       ",
"              ............+++++++++++++++++++++++++++++++++++++++++++++++++++++++++++++++++++++++++++++++++++++++++++.....++++++....++++++++++++++++++++++++++.....+++++++++++++++++++++++++++++++........                      .........                       ",
"             .............++++++++++++++++++++++++++++++++++++++++++++++++++++++++++++++++++++++++++++++++++++++++++......++++++....++++++++++++++++++++++++++.....++++++++++++++++++++++++++++++++........                     ........                        ",
"            .............+++++++++++++++++++++++++++++++++++++++++++++++++++++++++++++++++++++++++++++++++++++++++++.....++++++++..+++++++++++++++++++++++++++....++++++++++++++++++++++++++++++++++........                   .........                        ",
"            .............+++++++++++++++++++++++++++++++++++++++++++++++++++++++++++++++++++++++++++++++++++++++++++.....++++++++++++++++++++++++++++++++++++.....++++++++++++++++++++++++++++++++++.........                 .........                         ",
"           .............+++++++++++++++++++++++++++++++++++++++++++++++++++++++++++++++++++++++++++++++++++++++++++.....+++++++++++++++++++++++++++++++++++++.....+++++++++++++++++++++++++++++++++++........                 .........                         ",
"          .............++++++++++++++++++++++++++++++++++++++++++++++++++++++++++++++++++++++++++++++++++++++++++++.....++++++++++++++++++++++++++++++++++++.....+++++++++++++++++++++++++++++++++++++........               .........                          ",
"          .............+++++++++++++++++++++++++++++++++++++++++++++++++++++++++++++++++++++++++++++++++++++++++++.....+++++++++++++++++++++++++++++++++++++.....++++++++++++++++++++++++++++++++++++++........              ........                           ",
"         .............++++++++++++++++++++++++++++++++++++++++++++++++++++++++++++++++++++++++++++++++++++++++++++.....++++++++++++++++++++++++++++++++++++.....+++++++++++++++++++++++++++++++++++++++........             .........                           ",
"        ..............++++++++++++++++++++++++++++++++++++++++++++++++++++++++++++++++++++++++++++++++++++++++++++.....++++++++++++++++++++++++++++++++++++.....++++++++++++++++++++++++++++++++++++++++........           .........                            ",
"        .............++++++++++++++++++++++++++++++++++++++++++++++++++++++++++++++++++++++++++++++++++++++++++++.....++++++++++++++++++++++++++++++++++++.....++++++++++++++++++++++++++++++++++++++++++........          .........                            ",
"       ..............++++++++++++++++++++++++++++++++++++++++++++++++++++++++++++++++++++++++++++++++++++++++++++.....++++++++++++++++++++++++++++++++++++.....+++++++++++++++++++++++++++++++++++++++++++.......         .........                             ",
"       .............++++++++++++++++++++++++++++++++++++++++++++++++++++++++++++++++++++++++++++++++++++++++++++.....+++++++++++++++++++++++++++++++++++++.....+++++++++++++++++++++++++++++++++++++++++++........       ..........                             ",
"      ..............++++++++++++++++++++++++++++++++++++++++++++++++++++++++++++++++++++++++++++++++++++++++++++.....++++++++++++++++++++++++++++++++++++.....+++++++++++++++++++++++++++++++++++++++++++++........      .........                              ",
"     ..............+++++++++++++++++++++++++++++++++++++++++++++++++++++++++++++++++++++++++++++++++++++++++++++.....++++++++++++++++++++++++++++++++++++.....++++++++++++++++++++++++++++++++++++++++++++++.......     ..........                              ",
"     .............+++++++++++++++++++++++++++++++++++++++++++++++++++++++++++++++++++++++++++++++++++++++++++++.....++++++++++++++++++++++++++++++++++++.....+++++++++++++++++++++++++++++++++++++++++++++++........    .........                               ",
"    ..............+++++++++++++++++++++++++++++++++++++++++++++++++++++++++++++++++++++++++++++++++++++++++++++.....++++++++++++++++++++++++++++++++++++.....++++++++++++++++++++++++++++++++++++++++++++++++.......   .........                                ",
"    .............+++++++++++++++++++++++++++++++++++++++++++++++++++++++++++++++++++++++++++++++++++++++++++++.....++++++++++++++++++++++++++++++++++++.....++++++++++++++++++++++++++++++++++++++++++++++++++....... ..........                                ",
"   ..............+++++++++++++++++++++++++++++++++++++++++++++++++++++++++++++++++++++++++++++++++++++++++++++.....++++++++++++++++++++++++++++++++++++.....++++++++++++++++++++++++++++++++++++++++++++++++++.................                                 ",
"  ..............++++++++++++++++++++++++++++++++++++++++++++++++++++++++++++++++++++++++++++++++++++++++++++++....+++++++++++++++++++++++++++++++++++++.....+++++++++++++++++++++++++++++++++++++++++++++++++++................                                 ",
"  .............+++++++++++++++++++++++++++++++++++++++...........++++++++++++++++++++++++++++++++.........+++.....++++++++++++++++++++++++++++++++++++.....+++++++++++++++++++++++++++++++++++++++++++++++++++++..............                                  ",
" ..............+++++++++++++++++++++++++++++++++++++...............+++++++++++++++++++++++++++....................++++++++++++++++++++++++++++++++++++.....+++++++++++++++++++++++++++++++++++++++++++++++++++++.............                                   ",
" .............++++++++++++++++++++++++++++++++++++..................++++++++++++++++++++++++.....................++++++++++++++++++++++++++++++++++++.....+++++++++++++++++++++++++++++++++++++++++++++++++++++++............                                   ",
" .............++++++++++++++++++++++++++++++++++......................++++++++++++++++++++.......................++++++++++++++++++++++++++++++++++++.....+++++++++++++++++++++++++++++++++++++++++++++++++++++++...........                                    ",
".............++++++++++++++++++++++++++++++++++........++++++++........+++++++++++++++++.......+++++++++........++++++++++++++++++++++++++++++++++++.....+++++++++++++++++++++++++++++++++++++++++++++++++++++++++..........                                    ",
"............ +++++++++++++++++++++++++++++++++......+++++++++++++......++++++++++++++++......++++++++++++.......++++++++++++++++++++++++++++++++++++.....++++++++++++++++++++++++++++++++++++++++++++++++++++++++..........                                     ",
"............+++++++++++++++++++++++++++++++++......++++++++++++++......+++++++++++++++.....+++++++++++++++......++++++++++++++++++++++++++++++++++++.....+++++++++++++++++++++++++++++++++++++++++++++++++++++++...........                                     ",
"............++++++++++++++++++++++++++++++++.....+++++++++++++++++....+++++++++++++++.....++++++++++++++++.....++++++++++++++++++++++++++++++++++++.....+++++++++++++++++++++++++++++++++++++++++++++++++++++++............                                     ",
"...........+++++++++++++++++++++++++++++++++....++++++++++++++++++....++++++++++++++.....+++++++++++++++++.....++++++++++++++++++++++++++++++++++++.....+++++++++++++++++++++++++++++++++++++++++++++++++++++++.............                                    ",
"............+++++++++++++++++++++++++++++++....++++++++++++++++++....+++++++++++++++....+++++++++++++++++.....++++++++++++++++++++++++++++++++++++.....+++++++++++++++++++++++++++++++++++++++++++++++++++++++..............                                    ",
" ...........++++++++++++++++++++++++++++++.....++++++++++++++++++....++++++++++++++....++++++++++++++++++.....++++++++++++++++++++++++++++++++++++.....++++++++++++++++++++++++++++++++++++++++++++++++++++++................                                   ",
" ............+++++++++++++++++++++++++++++....+++++++++++++++++++....++++++++++++++...+++++++++++++++++++.....+++++++++++++++++++++++++++++++++++.....+++++++++++++++++++++++++++++++++++++++++++++++++++++++.................                                  ",
" ............+++++++++++++++++++++++++++++....++++++++++++++++++....++++++++++++++....++++++++++++++++++.....++++++++++++++++++++++++++++++++++++.....++++++++++++++++++++++++++++++++++++++++++++++++++++++..................                                  ",
"  ............+++++++++++++++++++++++++++.....++++++++++++++++++....++++++++++++++....++++++++++++++++++.....+++++++++++++++++++++++++++++++++++.....++++++++++++++++++++++++++++++++++++++++++++++++++++++...........  .......                                 ",
"  ............+++++++++++++++++++++++++++....++++++++++++++++++.....++++++++++++++...++++++++++++++++++.....++++++++++++++++++++++++++++++++++++.....+++++++++++++++++++++++++++++++++++++++++++++++++++++............  .......                                 ",
"   ............++++++++++++++++++++++++++....++++++++++++++++++....++++++++++++++....+++++++++++++++++......++++++++++++++++++++++++++++++++++++.....+++++++++++++++++++++++++++++++++++++++++++++++++++++...........    .......                                ",
"   ............+++++++++++++++++++++++++.....+++++++++++++++++.....++++++++++++++....+++++++++++++++++.....++++++++++++++++++++++++++++++++++++.....+++++++++++++++++++++++++++++++++++++++++++++++++++++...........     .......                                ",
"   ............++++++++++++++++++++++++......++++++++++++++++.....+++++++++++++++....++++++++++++++++......++++++++++++++++++++++++++++++++++++.....++++++++++++++++++++++++++++++++++++++++++++++++++++............      .......                               ",
"    ............++++++++++++++++++++++.......+++++++++++++++......++++++++++++++.....+++++++++++++++.......+++++++++++++++++++++++++++++++++++.....++++++++++++++++++++++++++++++++++++++++++++++++++++............       ........                              ",
"    ............+++++++++++++++++++++........++++++++++++++.......+++++++++++++......++++++++++++++........+++++++++++++++++++++++++++++++++++.....+++++++++++++++++++++++++++++++++++++++++++++++++++............         .......                              ",
"    .............+++++++++++++++++++..........++++++++++++........++++++++++++........+++++++++++..........++++++++++++++++++++++++++++++++++.....++++++++++++++++++++++++++++++++++++++++++++++++++++............          .......                             ",
"     ............++++++++++++++++++......+....++++++++++...........++++++++++..........++++++++.......++....+++++++++++++++++++++++++++++++++.....+++++++++++++++++++++++++++++++++++++++++++++++++++............           .......                             ",
"     ............+++++++++++++++++......++......++++..........+........++++......+......++++.........+++......+++++++++++++++++++++++++++++++....+++++++++++++++++++++++++++++++++++++++++++++++++++.............            .......                            ",
"      ............++++++++++++++.......++++.................++++................+++.................++++........++++++++++++++++++++++++++++.....+............+++++++++++++++++++++++++++++++++++++.............             .......                            ",
"      ............++++++++++++++......++++++...............++++++..............+++++..............+++++++........+++++++++++++++++++++++++++..................+++++++++++++++++++++++++++++++++++++............               .......                           ",
"       ............+++++++++++++....+++++++++...........++++++++++............+++++++............++++++++++.....+++++++++++++++++++++++++++...................++++++++++++++++++++++++++++++++++++.............                ......                           ",
"       ............++++++++++++++.++++++++++++++....+++++++++++++++++++.....+++++++++++++...++++++++++++++++++.+++++++++++++++++++++++++++...................++++++++++++++++++++++++++++++++++++.............                 .......                          ",
"       ............+++++++++++++++++++++++++++++++++++++++++++++++++++++++++++++++++++++++++++++++++++++++++++++++++++++++++++++++++++++............++++++++++++++++++++++++++++++++++++++++++++.............                   .......                         ",
"        ............++++++++++++++++++++++++++++++++++++++++++++++++++++++++++++++++++++++++++++++++++++++++++++++++++++++++++++++++++..........+++++++++++++++++++++++++++++++++++++++++++++++..............                   .......                         ",
"        ............++++++++++++++++++++++++++++++++++++++++++++++++++++++++++++++++++++++++++++++++++++++++++++++++++++++++++++++++...........+++++++++++++++++++++++++++++++++++++++++++++++..............                     .......                        ",
"         ............+++++++++++++++++++++++++++++++++++++++++++++++++++++++++++++++++++++++++++++++++++++++++++++++++++++++++++++.............+++++++++++++++++++++++++++++++++++++++++++++++.............                      .......                        ",
"         ............+++++++++++++++++++++++++++++++++++++++++++++++++++++++++++++++++++++++++++++++++++++++++++++++++++++++++++..............+++++++++++++++++++++++++++++++++++++++++++++++.............                        .......                       ",
"          ............+++++++++++++++++++++++++++++++++++++++++++++++++++++++++++++++++++++++++++++++++++++++++++++++++++++++++.......++......++++++++++++++++++++++++++++++++++++++++++++++..............                        .......                       ",
"          ............+++++++++++++++++++++++++++++++++++++++++++++++++++++++++++++++++++++++++++++++++++++++++++++++++++++++.......+++......++++++++++++++++++++++++++++++++++++++++++++++..............                          .......                      ",
"           ............+++++++++++++++++++++++++++++++++++++++++++++++++++++++++++++++++++++++++++++++++++++++++++++++++++++.......++++......+++++.......++++++++++.......++++++++++++++++..............                            ......                      ",
"           .............++++++++++++++++++++++++++++++++++++++++++++++++++++++++++++++++++++++++++++++++++++++++++++++++++.......++++++.....++++++.......++++++++++.......+++++++++++++++...............                            .......                     ",
"            ............+++++++++++++++++++++++++++++++++++++++++++++++++++++++++++++++++++++++++++++++++++++++++++++++++.......++++++......++++++++++++.++++++++++++++++.++++++++++++++...............                              ......                     ",
"             ............+++++++++++++++++++++++++++++++++++++++++++++++++++++++++++++++++++++++++++++++++++++++++++++++.......+++++++.....++++++++++++++++++++++++++++++++++++++++++++...............                               .......                    ",
"             ............++++++++++++++++++++++++++++++++++++++++++++++++++++++++++++++++++++++++++++++++++++++++++++++.......+++++++......++++++++++++.++++++++++++++++.++++++++++++++..............                                 ......                    ",
"              ............++++++++++++++++++++++++++++++++++++++++++++++++++++++++++++++++++++++++++++++++++++++++++++......+++++++++......+++++++++++++++++++++++++++++++++++++++++++...............                                 .......                   ",
"              .............++++++++++++++++++++++++++++++++++++++++++++++++++++++++++++++++++++++++++++++++++++++++++......+++++++++......+++++++++++++++++++++++++++++++++++++++++++...............                                   .......                  ",
"               ............++++++++++++++++++++++++++++++++++++++++++++++++++++++++++++++++++++++++++++++++++++++++++.....++++++++++......++++++++++++.++++++++++++++++.++++++++++++...............                                    .......                  ",
"               .............++++++++++++++++++++++++++++++++++++++++++++++++++++++++++++++++++++++++++++++++++++++++......+++++++++......++++++++++++++++++++++++++++++++++++++++++...............                                      .......                 ",
"                .............++++++++++++++++++++++++++++++++++++++++++++++++++++++++++++++++++++++++++++++++++++++......++++++++++......++++++++++++.++++++++++++++++.+++++++++++................                                      .......                 ",
"                 .............+++++++++++++++++++++++++++++++++++++++++++++++++++++++++++++++++++++++++++++++++++++.....+++++++++++.....+++++++++++++.++++++++++++++++.++++++++++................                                        .......                ",
"                 .............+++++++++++++++++++++++++++++++++++++++++++++++++++++++++++++++++++++++++++++++++++++....+++++++++++......+++++++++++++++++++++.++++++++++++++++++................                                         .......                ",
"                  .............+++++++++++++++++++++++++++++++++++++++++++++++++++++++++++++++++++++++++++++++++++.....+++++++++++.....+++++++++++++.++++++++.+++++++.+++++++++................                                           .......               ",
"                   .............++++++++++++++++++++++++++++++++++++++++++++++++++++++++++++++++++++++++++++++++++....+++++++++++......+++++++++++++++++++++++++++++++++++++++................                                            .......               ",
"                   ..............+++++++++++++++++++++++++++++++++++++++++++++++++++++++++++++++++++++++++++++++++....+++++++++++.....+++++++++++++++++++++++++++++++++++++++.................                                             .......              ",
"                    ..............++++++++++++++++++++++++++++++++++++++++++++++++++++++++++++++++++++++++++++++++....++++++++++......++++++++++++++++++++++++++++++++++++++.................                                               ......              ",
"                     .............+++++++++++++++++++++++++++++++++++++++++++++++++++++++++++++++++++++++++++++++....+++++++++++......++++++++++++++++++++++++++++++++++++..................                                                .......             ",
"                     ..............++++++++++++++++++++++++++++++++++++++++++++++++++++++++++++++++++++++++++++++....++++++++++......++++++++++++++++++++++++++++++++++++..................                                                  ......             ",
"                      ..............+++++++++++++++++++++++++++++++++++++++++++++++++++++++++++++++++++++++++++++....++++++++++......+++++++++++++++++++++++++++++++++++..................                                                   .......            ",
"                       ..............++++++++++++++++++++++++++++++++++++++++++++++++++++++++++++++++++++++++++++....+++++++++......+++++++++++++++++++++++++++++++++++..................                                                     ......            ",
"                       ...............+++++++++++++++++++++++++++++++++++++++++++++++++++++++++++++++++++++++++++....+++++++++......++++++++++++++++++++++++++++++++++...................                                                     .......           ",
"                        ...............++++++++++++++++++++++++++++++++++++++++++++++++++++++++++++++++++++++++++....++++++++......++++++++++++++++++++++++++++++++++...................                                                       ......           ",
"                         ...............+++++++++++++++++++++++++++++++++++++++++++++++++++++++++++++++++++++++++....++++++++.....+++++++++++++++++++++++++++++++++....................                                                        .......          ",
"                          ...............++++++++++++++++++++++++++++++++++++++++++++++++++++++++++++++++++++++++....+++++++......++++++++++++++++++++++++++++++++....................                                                          ......          ",
"                           ................++++++++++++++++++++++++++++++++++++++++++++++++++++++++++++++++++++++....+++++++.....++++++++++++++++++++++++++++++++....................                                                           .......         ",
"                           .................+++++++++++++++++++++++++++++++++++++++++++++++++++++++++++++++++++++....++++++......+++++++++++++++++++++++++++++++....................                                                             ......         ",
"                            .................++++++++++++++++++++++++++++++++++++++++++++++++++++++++++++++++++++....++++++.....++++++++++++++++++++++++++++++.....................                                                              .......        ",
"                             .................+++++++++++++++++++++++++++++++++++++++++++++++++++++++++++++++++++....+++++......+++++++++++++++++++++++++++++.....................                                                                ......        ",
"                              ..................+++++++++++++++++++++++++++++++++++++++++++++++++++++++++++++++++.....+++......+++++++++++++++++++++++++++++.....................                                                                 .......       ",
"                               ..................+++++++++++++++++++++++++++++++++++++++++++++++++++++++++++++++++.....+......++++++++++++++++++++++++++++......................                                                                   ......       ",
"                                ..................++++++++++++++++++++++++++++++++++++++++++++++++++++++++++++++++...........++++++++++++++++++++++++++++......................                                                                    .......      ",
"                                 ...................+++++++++++++++++++++++++++++++++++++++++++++++++++++++++++++++.........+++++++++++++++++++++++++++.......................                                                                      ......      ",
"                                  ...................+++++++++++++++++++++++++++++++++++++++++++++++++++++++++++++++.......+++++++++++++++++++++++++++.......................                                                                       .......     ",
"                                  .....................+++++++++++++++++++++++++++++++++++++++++++++++++++++++++++++++++++++++++++++++++++++++++++++........................                                                                         .......    ",
"                                   ......................+++++++++++++++++++++++++++++++++++++++++++++++++++++++++++++++++++++++++++++++++++++++++.........................                                                                          .......    ",
"                                    .......................++++++++++++++++++++++++++++++++++++++++++++++++++++++++++++++++++++++++++++++++++++++.........................                                                                            .......   ",
"                                     .......................+++++++++++++++++++++++++++++++++++++++++++++++++++++++++++++++++++++++++++++++++++..........................                                                                             .......   ",
"                                      ........................+++++++++++++++++++++++++++++++++++++++++++++++++++++++++++++++++++++++++++++++...........................                                                                               .......  ",
"                                        ........................+++++++++++++++++++++++++++++++++++++++++++++++++++++++++++++++++++++++++++............................                                                                                .......  ",
"                                         ..........................+++++++++++++++++++++++++++++++++++++++++++++++++++++++++++++++++++++..............................                                                                                  ....... ",
"                                          ...........................+++++++++++++++++++++++++++++++++++++++++++++++++++++++++++++++++..............................                                                                                    ....... ",
"                                           .............................++++++++++++++++++++++++++++++++++++++++++++++++++++++++++.................................                                                                                      .......",
"                                            ...............................+++++++++++++++++++++++++++++++++++++++++++++++++++....................................                                                                                        ......",
"                                             .................................++++++++++++++++++++++++++++++++++++++++++++.......................................                                                                                         ......",
"                                               ....................................++++++++++++++++++++++++++++++++............................................                                                                                            .....",
"                                                ................................................++++..........................................................                                                                                             .....",
"                                                 ............................................................................................................                                                                                               ... ",
"                                                   ........................................................................................................                                                                                                 ... ",
"                                                    ......................................................................................................                                                                                                      ",
"                                                      ..................................................................................................                                                                                                        ",
"                                                       ................................................................................................                                                                                                         ",
"                                                         ............................................................................................                                                                                                           ",
"                                                          ..........................................................................................                                                                                                            ",
"                                                            ......................................................................................                                                                                                              ",
"                                                              ..................................................................................                                                                                                                ",
"                                                                ..............................................................................                                                                                                                  ",
"                                                                  ..........................................................................                                                                                                                    ",
"                                                                    ......................................................................                                                                                                                      ",
"                                                                       .................................................................                                                                                                                        ",
"                                                                         ............................................................                                                                                                                           ",
"                                                                            .......................................................                                                                                                                             ",
"                                                                               .................................................                                                                                                                                ",
"                                                                                   .........................................                                                                                                                                    ",
"                                                                                        ................................                                                                                                                                        ",
"                                                                                               ..................                                                                                                                                               "};
