/* XPM */
static char * adJ_15bpp_xpm[] = {
"256 185 195 2",
"  	c None",
". 	c #000000",
"+ 	c #0D0D0D",
"@ 	c #1C1C1C",
"# 	c #222222",
"$ 	c #2E2E2E",
"% 	c #741F04",
"& 	c #752005",
"* 	c #762106",
"= 	c #772207",
"- 	c #DC0501",
"; 	c #762808",
"> 	c #DD0A0C",
", 	c #792B0B",
"' 	c #7A2C0C",
") 	c #DE0E16",
"! 	c #7D2F15",
"~ 	c #852F19",
"{ 	c #803117",
"] 	c #83331A",
"^ 	c #85351B",
"/ 	c #86361C",
"( 	c #873723",
"_ 	c #DC1F16",
": 	c #863C24",
"< 	c #8B3B26",
"[ 	c #873D25",
"} 	c #E02520",
"| 	c #E12627",
"1 	c #874327",
"2 	c #8D432A",
"3 	c #E32A29",
"4 	c #90452C",
"5 	c #E42B30",
"6 	c #555555",
"7 	c #914733",
"8 	c #934935",
"9 	c #E72F37",
"0 	c #5C5C5C",
"a 	c #E33631",
"b 	c #944F38",
"c 	c #E43738",
"d 	c #96513A",
"e 	c #98523B",
"f 	c #995442",
"g 	c #9B5644",
"h 	c #E54241",
"i 	c #E64341",
"j 	c #9F5946",
"k 	c #686868",
"l 	c #9C5C47",
"m 	c #9D5D48",
"n 	c #E94649",
"o 	c #9F5F4A",
"p 	c #6C6C6C",
"q 	c #A0604B",
"r 	c #E64C49",
"s 	c #A2624D",
"t 	c #A36353",
"u 	c #E94E4B",
"v 	c #A06654",
"w 	c #727272",
"x 	c #A56555",
"y 	c #A36957",
"z 	c #E75552",
"A 	c #ED5355",
"B 	c #A66C59",
"C 	c #A86E5B",
"D 	c #E75C55",
"E 	c #EC5B5D",
"F 	c #AC715E",
"G 	c #A9745F",
"H 	c #A87564",
"I 	c #EB615E",
"J 	c #808080",
"K 	c #B07668",
"L 	c #EE656D",
"M 	c #A97C69",
"N 	c #AF7B6B",
"O 	c #B07C6C",
"P 	c #EA6E69",
"Q 	c #B37F6E",
"R 	c #EA6F70",
"S 	c #B4806F",
"T 	c #8B8B8B",
"U 	c #F16E6C",
"V 	c #B68271",
"W 	c #EC7277",
"X 	c #EE7479",
"Y 	c #B38779",
"Z 	c #B6897B",
"` 	c #B28C7C",
" .	c #B88B7D",
"..	c #EF7B7D",
"+.	c #B48E7E",
"@.	c #F17D7F",
"#.	c #B79080",
"$.	c #989898",
"%.	c #ED8185",
"&.	c #B99282",
"*.	c #BC9585",
"=.	c #EE8889",
"-.	c #9F9F9F",
";.	c #BF9888",
">.	c #F08A8B",
",.	c #BF998F",
"'.	c #C19A8A",
").	c #C19B91",
"!.	c #A3A3A3",
"~.	c #BD9E92",
"{.	c #EF9094",
"].	c #C0A094",
"^.	c #C3A497",
"/.	c #EF9798",
"(.	c #F6979A",
"_.	c #C7A89B",
":.	c #EF9E9C",
"<.	c #C9AA9D",
"[.	c #CCAC9F",
"}.	c #F2A19F",
"|.	c #F2A2A6",
"1.	c #CDAFA8",
"2.	c #EFA6A7",
"3.	c #CCB4AB",
"4.	c #B9B9B9",
"5.	c #F2A9AA",
"6.	c #BBBBBB",
"7.	c #CEB7AE",
"8.	c #F0ADAC",
"9.	c #F7ADAE",
"0.	c #D1BAB1",
"a.	c #D3BCB3",
"b.	c #D4BDB4",
"c.	c #F6B3B1",
"d.	c #C2C2C2",
"e.	c #D7BFB6",
"f.	c #F2B7B9",
"g.	c #F3B8BA",
"h.	c #D9C1B8",
"i.	c #C7C7C7",
"j.	c #DBC3BA",
"k.	c #B6CFC7",
"l.	c #DEC7BE",
"m.	c #F5C1C0",
"n.	c #DFC8BF",
"o.	c #F6C2C1",
"p.	c #DCCCC1",
"q.	c #F5C7C5",
"r.	c #DECFCA",
"s.	c #D3D3D3",
"t.	c #E0D1CC",
"u.	c #E2D4CE",
"v.	c #F9CDD0",
"w.	c #E5D6D1",
"x.	c #E6D7D2",
"y.	c #F7D2D3",
"z.	c #DBDBDB",
"A.	c #E8D9D4",
"B.	c #F9D4D5",
"C.	c #DDDDDD",
"D.	c #EBDCD7",
"E.	c #F6D9D7",
"F.	c #E2E2E2",
"G.	c #EFE0DA",
"H.	c #FBDDDC",
"I.	c #EAE3DB",
"J.	c #F8E1DE",
"K.	c #EAE5E4",
"L.	c #FEE0DF",
"M.	c #EDE6DF",
"N.	c #FAE3E0",
"O.	c #EDE7E6",
"P.	c #EFEAE8",
"Q.	c #F0EBE9",
"R.	c #FEE9EC",
"S.	c #F8EBEC",
"T.	c #EFEFEF",
"U.	c #FAEDEE",
"V.	c #FBEEEF",
"W.	c #F6F0EF",
"X.	c #FCF0F0",
"Y.	c #F3F3F3",
"Z.	c #F8F3F1",
"`.	c #FFF2F2",
" +	c #F9F4F2",
".+	c #F5F5F5",
"++	c #F6F6F6",
"@+	c #FEF8F7",
"#+	c #FFF9F8",
"$+	c #FAFCF9",
"%+	c #F2FEFF",
"&+	c #FAFFFF",
"*+	c #FEFEFE",
"=+	c #FCFFFB",
"-+	c #FFFFFF",
"                                                                                                                                                                                                    - - - - - - - - - - - - - - - -                                                                                                                                                                                                                                                                                             ",
"                                                                                                                                                                                          - - - - - - - - - - - - - - - - - - - - - - - - - - -                                                                                                                                                                                                                                                                                 ",
"                                                                                                                                                                                  - - - - - - - - - - - - - - - - - - - - - - - - - - - - - - - - - - -                                                                                                                                                                                                                                                                         ",
"                                                                                                                                                                            - - - - - - - - - - - - - - - - - - - - - - - - - - - - - - - - - - - - - - - - - -                                                                                                                                                                                                                                                                 ",
"                                                                                                                                                                      - - - - - - - - - - - - - - - - - - - - - - - - - - - - - - - - - - - - - - - - - - - - - - - -                                                                                                                                                                                                                                                           ",
"                                                                                                                                                                  - - - - - - - - - - - - - - - - - - - - - - - - - - - - - - - - - - - - - - - - - - - - - - - - - - - -                                                                                                                                                                                                                                                       ",
"                                                                                                                                                            - - - - - - - - - - - - - - - - - - - - - - - - - - - - - - - - - - - - - - - - - - - - - - - - - - - - - - - - - -                                                                                                                                                                                                                                                 ",
"                                                                                                                                                        - - - - - - - - - - - - - - - - - - - - - - - - - - - - - - - - - - - - - - - - - - - - - - - - - - - - - - - - - - - - - -                                                                                                                                                                                                                                             ",
"                                                                                                                                                    - - - - - - - - - - - - - - - - - - - - - - - - - - - - - - - - - - - - - - - - - - - - - - - - - - - - - - - - - - - - - - - - - -                                                                                                                                                                                                                                         ",
"                                                                                                                                                - - - - - - - - - - - - - - - - - - - - - - - - - - - - - - - - - - - - - - - - - - - - - - - - - - - - - - - - - - - - - - - - - - - - - -                                                                                                                                                                                                                                     ",
"                                                                                                                                              - - - - - - - - - - - - - - - - - - - - - - - - - - - - - - - - - - - - - - - - - - - - - - - - - - - - - - - - - - - - - - - - - - - - - - - - -                                                                                                                                                                                                                                 ",
"                                                                                                                                          - - - - - - - - - - - - - - - - - - - - - - - - - - - - - - - - - - - - - - - - - - - - - - - - - - - - - - - - - - - - - - - - - - - - - - - - - - - - -                                                                                                                                                                                                                             ",
"                                                                                                                                      - - - - - - - - - - - - - - - - - - - - - - - - - - - - - - - - - - - - - - - - - - - - - - - - - - - - - - - - - - - - - - - - - - - - - - - - - - - - - - - - -                                                                                                                                                                                                                         ",
"                                                                                                                                    - - - - - - - - - - - - - - - - - - - - - - - - - - - - - - - - - - - - - - - - - - - - - - - - - - - - - - - - - - - - - - - - - - - - - - - - - - - - - - - - - - -                                                                                                                                                                                                                       ",
"                                                                                                                                - - - - - - - - - - - - - - - - - - - - - - - - - - - - - - - - - - - - - - - - - - - - > > _ > > > - - - - - - - - - - - - - - - - - - - - - - - - - - - - - - - - - - - - -                                                                                                                                                                                                                   ",
"                                                                                                                              - - - - - - - - - - - - - - - - - - - - - - - - - - - - - - - - > 5 E %.(.g.y.R.@+#+=+=+=+=+=+=+=+=+=+=+=+=+#+#+X.H.o.2.%.E i } - - - - - - - - - - - - - - - - - - - - - - - - -                                                                                                                                                                                                                 ",
"                                                                                                                          - - - - - - - - - - - - - - - - - - - - - - - - - - - - - - c ..g.U.=+=+=+=+=+=+=+=+=+=+=+=+=+=+=+=+=+=+=+=+=+=+=+=+=+=+=+=+=+=+=+=+#+y./.I | - - - - - - - - - - - - - - - - - - - - - -                                                                                                                                                                                                             ",
"                                                                                                                        - - - - - - - - - - - - - - - - - - - - - - - - - - - > L m.@+=+=+=+=+=+=+=+=+=+=+=+=+=+=+=+=+=+=+=+=+=+=+=+=+=+=+=+=+=+=+=+=+=+=+=+=+=+=+=+=+=+R.|.D > - - - - - - - - - - - - - - - - - - -                                                                                                                                                                                                   - - -   ",
"                                                                                                                      - - - - - - - - - - - - - - - - - - - - - - - - - - I q.#+=+=+=+=+=+=+=+=+=+=+=+=+=+=+=+=+=+=+=+=+=+=+=+=+=+=+=+=+=+=+=+=+=+=+=+=+=+=+=+=+=+=+=+=+=+=+=+@+c.D - - - - - - - - - - - - - - - - - - -                                                                                                                                                                                               - - -   ",
"                                                                                                                  - - - - - - - - - - - - - - - - - - - - - - - - - } 5.#+=+=+=+=+=+=+=+=+=+=+=+=+=+=+=+=+=+=+=+=+=+=+=+=+=+=+=+=+=+=+=+=+=+=+=+=+=+=+=+=+=+=+=+=+=+=+=+=+=+=+=+=+=+U.>.} - - - - - - - - - - - - - - - - -                                                                                                                                                                                           - - - - - ",
"                                                                                                                - - - - - - - - - - - - - - - - - - - - - - - - u J.=+=+=+=+=+=+=+=+=+=+=+=+=+=+=+=+=+=+=+=+=+=+=+=+=+=+=+=+=+=+=+=+=+=+=+=+=+=+=+=+=+=+=+=+=+=+=+=+=+=+=+=+=+=+=+=+=+=+#+9.a - - - - - - - - - - - - - - - -                                                                                                                                                                                         - - - - - ",
"                                                                                                              - - - - - - - - - - - - - - - - - - - - - - - U #+=+=+=+=+=+=+=+=+=+=+=+=+=+=+=+=+=+=+=+=+=+=+=+=+=+=+=+=+=+=+=+=+=+=+=+=+=+=+=+=+=+=+=+=+=+=+=+=+=+=+=+=+=+=+=+=+=+=+=+=+=+=+=+g.| - - - - - - - - - - - - - - - -                                                                                                                                                                                   - - - - - - ",
"                                                                                                            - - - - - - - - - - - - - - - - - - - - - -   =+=+=+=+=+=+=+=+=+=+=+=+=+=+=+=+=+=+=+=+=+=+=+=+=+=+=+=+=+=+=+=+=+=+=+=+=+=+=+=+=+=+=+=+=+=+=+=+=+=+=+=+=+=+=+=+=+=+=+=+=+=+=+=+=+=+=+#+|.) - - - - - - - - - - - - - - -                                                                                                                                                                               - - - - - - - ",
"                                                                                                        - - - - - - - - - - - - - - - - - - - - - -   =+=+=+=+=+=+=+=+=+=+=+=+=+=+=+=+=+=+=+=+=+=+=+=+=+=+=+=+=+=+=+=+=+=+=+=+=+=+=+=+=+=+=+=+=+=+=+=+=+=+=+=+=+=+=+=+=+=+=+=+=+=+=+=+=+=+=+=+=+=+=+ +=.> - - - - - - - - - - - - - -                                                                                                                                                                             - - - - - - - ",
"                                                                                                      - - - - - - - - - - - - - - - - - - - - -   =+=+=+=+=+=+=+=+=+=+=+=+=+=+=+=+=+=+=+=+=+=+=+=+=+=+=+=+=+=+=+=+=+=+=+=+=+=+=+=+=+=+=+=+=+=+=+=+=+=+=+=+=+=+=+=+=+=+=+=+=+=+=+=+=+=+=+=+=+=+=+=+=+=+=+R.u - - - - - - - - - - - - - -                                                                                                                                                                         - - - - - - -   ",
"                                                                                                    - - - - - - - - - - - - - - - - - - - -   =+=+=+=+=+=+=+=+=+=+=+=+=+=+=+=+=+=+=+=+=+=+=+=+=+=+=+=+=+=+=+=+=+=+=+=+=+=+=+=+=+=+=+=+=+=+=+=+=+=+=+=+=+=+=+=+=+=+=+=+=+=+=+=+=+=+=+=+=+=+=+=+=+=+=+=+=+=+=+8.> - - - - - - - - - - - - - -                                                                                                                                                                     - - - - - - -   ",
"                                                                                                  - - - - - - - - - - - - - - - - - - -   =+=+=+=+=+=+=+=+=+=+=+=+=+=+=+=+=+=+=+=+=+=+=+=+=+=+=+=+=+=+=+=+=+=+=+=+=+=+=+=+=+=+=+=+=+=+=+=+=+=+=+=+=+=+=+=+=+=+=+=+=+=+=+=+=+=+=+=+=+=+=+=+=+=+=+=+=+=+=+=+=+=+ +I - - - - - - - - - - - - - -                                                                                                                                                                 - - - - - - -     ",
"                                                                                                - - - - - - - - - - - - - - - - - - ..=+=+=+=+=+=+=+=+=+=+=+=+=+=+=+=+=+=+=+=+=+=+=+=+=+=+=+=+=+=+=+=+=+=+=+=+=+=+=+=+=+=+=+=+=+=+=+=+=+=+=+=+=+=+=+=+=+=+=+=+=+=+=+=+=+=+=+=+=+=+=+=+=+=+=+=+=+=+=+=+=+=+=+=+=+=+g._ - - - - - - - - - - - - -                                                                                                                                                               - - - - - - -     ",
"                                                                                              - - - - - - - - - - - - - - - - - z #+=+=+=+=+=+=+=+=+=+=+=+=+=+=+=+=+=+=+=+=+=+=+=+=+=+=+=+=+=+=+=+=+=+=+=+=+=+=+=+=+=+=+=+=+=+=+=+=+=+=+=+=+=+=+=+=+=+=+=+=+=+=+=+=+=+=+=+=+=+=+=+=+=+=+=+=+=+=+=+=+=+=+=+=+=+=+=+=+ +z - - - - - - - - - - - - -                                                                                                                                                           - - - - - - -       ",
"                                                                                            - - - - - - - - - - - - - - - - > H.=+=+=+=+=+=+=+=+=+=+=+=+=+=+=+=+=+=+=+=+=+=+=+=+=+=+=+=+=+=+=+=+=+=+=+=+=+=+=+=+=+=+=+=+=+=+=+=+=+=+=+=+=+=+=+=+=+=+=+=+=+=+=+=+=+=+=+=+=+=+=+=+=+=+=+=+=+=+=+=+=+=+=+=+=+=+=+=+=+=+=+=+8.- - - - - - - - - - - - -                                                                                                                                                         - - - - - - -       ",
"                                                                                          - - - - - - - - - - - - - - - - %.#+=+=+=+=+=+=+=+=+=+=+=+=+=+=+=+=+=+=+=+=+=+=+=+=+=+=+=+=+=+=+=+=+=+=+=+=+=+=+=+=+=+=+=+=+=+=+=+=+=+=+=+=+=+=+=+=+=+=+=+=+=+=+=+=+=+=+=+=+=+=+=+=+=+=+=+=+=+=+=+=+=+=+=+=+=+=+=+=+=+=+=+=+=+=+R.3 - - - - - - - - - - - -                                                                                                                                                     - - - - - - -         ",
"                                                                                        - - - - - - - - - - - - - - - 5 S.=+=+=+=+=+=+=+=+=+=+=+=+=+=+=+=+=+=+=+=+=+=+=+=+=+=+=+=+=+=+=+=+=+=+=+=+=+=+=+=+=+=+=+=+=+=+=+=+=+=+=+=+=+=+=+=+=+=+=+=+=+=+=+=+=+=+=+=+=+=+=+=+=+=+=+=+=+=+=+=+=+=+=+=+=+=+=+=+=+=+=+=+=+=+=+=+=+#+W - - - - - - - - - - - -                                                                                                                                                   - - - - - - -         ",
"                                                                                      - - - - - - - - - - - - - - - 2.=+=+=+=+=+=+=+=+=+=+=+=+=+=+=+=+=+=+=+=+=+=+=+=+=+=+=+=+=+=+=+=+=+=+=+=+=+=+=+=+=+=+=+=+=+=+=+=+=+=+=+=+=+=+=+=+=+=+=+=+=+=+=+=+=+=+=+=+=+=+=+=+=+=+=+=+=+=+=+=+=+=+=+=+=+=+=+=+=+=+=+=+=+=+=+=+=+=+=+=+=+g.> - - - - - - - - - - -                                                                                                                                               - - - - - - -           ",
"                                                                                    - - - - - - - - - - - - - - 9 U.=+=+=+=+=+=+=+=+=+=+=+=+=+=+=+=+=+=+=+=+=+=+=+=+=+=+=+=+=+=+=+=+=+=+=+=+=+=+=+=+=+=+=+=+=+=+=+=+=+=+=+=+=+=+=+=+=+=+=+=+=+=+=+=+=+=+=+=+=+=+=+=+=+=+=+=+=+=+=+=+=+=+=+=+=+=+=+=+=+=+=+=+=+=+=+=+=+=+=+=+=+=+=+U.| - - - - - - - - - - -                                                                                                                                             - - - - - -             ",
"                                                                                  - - - - - - - - - - - - - - >.#+=+=+=+=+=+=+=+=+=+=+=+=+=+=+=+=+=+=+=+=+=+=+=+=+=+=+=+=+=+=+=+=+=+=+=+=+=+=+=+=+=+=+=+=+=+=+=+=+=+=+=+=+=+=+=+=+=+=+=+=+=+=+=+=+=+=+=+=+=+=+=+=+=+=+=+=+=+=+=+=+=+=+=+=+=+=+=+=+=+=+=+=+=+=+=+=+=+=+=+=+=+=+=+=+=+#+n - - - - - - - - - - -                                                                                                                                         - - - - - - -             ",
"                                                                                - - - - - - - - - - - - - _ q.=+=+=+=+=+=+=+=+=+=+=+=+=+=+=+=+=+=+=+=+=+=+=+=+=+=+=+=+=+=+=+=+=+=+=+=+=+=+=+=+=+=+=+=+=+=+=+=+=+=+=+=+=+=+=+=+=+=+=+=+=+=+=+=+=+=+=+=+=+=+=+=+=+=+=+=+=+=+=+=+=+=+=+=+=+=+=+=+=+=+=+=+=+=+=+=+=+=+=+=+=+=+=+=+=+=+=+=+=+X - - - - - - - - - - -                                                                                                                                     - - - - - - -               ",
"                                                                              - - - - - - - - - - - - - n X.=+=+=+=+=+=+=+=+=+=+=+=+=+=+=+=+=+=+=+=+=+=+=+=+=+=+=+=+=+=+=+=+=+=+=+=+=+=+=+=+=+=+=+=+=+=+=+=+=+=+=+=+=+=+=+=+=+=+=+=+=+=+=+=+=+=+=+=+=+=+=+=+=+=+=+=+=+=+=+=+=+=+=+=+=+=+=+=+=+=+=+=+=+=+=+=+=+=+=+=+=+=+=+=+=+=+=+=+=+=+=+}.- - - - - - - - - - -                                                                                                                                   - - - - - - -               ",
"                                                                            - - - - - - - - - - - - - X #+=+=+=+=+=+=+=+=+=+=+=+=+=+=+=+=+=+=+=+=+=+=+=+=+=+=+=+=+=+=+=+=+=+=+=+=+=+=+=+=+=+=+=+=+=+=+=+=+=+=+=+=+=+=+=+=+=+=+=+=+=+=+=+=+=+=+=+=+=+=+=+=+=+=+=+=+=+=+=+=+=+=+=+=+=+=+=+=+=+=+=+=+=+=+=+=+=+=+=+=+=+=+=+=+=+=+=+=+=+=+=+=+=+v.- - - - - - - - - - -                                                                                                                               - - - - - - -                 ",
"                                                                          - - - - - - - - - - - - - |.=+=+=+=+=+=+=+=+=+=+=+=+=+=+=+=+=+=+=+=+=+=+=+=+=+=+=+=+=+=+=+=+=+=+=+=+=+=+=+=+=+=+=+=+=+=+=+=+=+=+=+=+=+=+=+=+=+=+=+=+=+=+=+=+=+=+=+=+=+=+=+=+=+=+=+=+=+=+=+=+=+=+=+=+=+=+=+=+=+=+=+=+=+=+=+=+=+=+=+=+=+=+=+=+=+=+=+=+=+=+=+=+=+=+=+=+U._ - - - - - - - - - -                                                                                                                             - - - - - - -                 ",
"                                                                        - - - - - - - - - - - - ) v.=+=+=+=+=+=+=+=+=+=+=+=+=+=+=+=+=+=+=+=+=+=+=+=+=+=+=+=+=+=+=+=+=+=+=+=+=+=+=+=+=+=+=+=+=+=+=+=+=+=+=+=+=+=+=+=+=+=+=+=+=+=+=+=+=+=+=+=+=+=+=+=+=+=+=+=+=+=+=+=+=+=+=+=+=+=+=+=+=+=+=+=+=+=+=+=+=+=+=+=+=+=+=+=+=+=+=+=+=+=+=+=+=+=+=+=+=+=+@+3 - - - - - - - - - -                                                                                                                         - - - - - - -                   ",
"                                                                      - - - - - - - - - - - - } H.=+=+=+=+=+=+=+=+=+=+=+=+=+=+=+=+=+=+=+=+=+=+=+=+=+=+=+=+=+=+=+=+=+=+=+=+=+=+=+=+=+=+=+=+=+=+=+=+=+=+=+=+=+=+=+=+=+=+=+=+=+=+=+=+=+=+=+=+=+=+=+=+=+=+=+=+=+=+=+=+=+=+=+=+=+=+=+=+=+=+=+=+=+=+=+=+=+=+=+=+=+=+=+=+=+=+=+=+=+=+=+=+=+=+=+=+=+=+=+=+#+u - - - - - - - - - -                                                                                                                       - - - - - - -                   ",
"                                                                    - - - - - - - - - - - - 5 R.=+=+=+=+=+=+=+=+=+=+=+=+=+=+=+=+=+=+=+=+=+=+=+=+=+=+=+=+=+=+=+=+=+=+=+=+=+=+=+=+=+=+=+=+=+=+=+=+=+=+=+=+=+=+=+=+=+=+=+=+=+=+=+=+=+=+=+=+=+=+=+=+=+=+=+=+=+=+=+=+=+=+=+=+=+=+=+=+=+=+=+=+=+=+=+=+=+=+=+=+=+=+=+=+=+=+=+=+=+=+=+=+=+=+=+=+=+=+=+=+=+=+=+W - - - - - - - - - -                                                                                                                   - - - - - - -                     ",
"                                                                  - - - - - - - - - - - - c X.=+=+=+=+=+=+=+=+=+=+=+=+=+=+=+=+=+=+=+=+=+=+=+=+=+=+=+=+=+=+=+=+=+=+=+=+=+=+=+=+=+=+=+=+=+=+=+=+=+=+=+=+=+=+=+=+=+=+=+=+=+=+=+=+=+=+=+=+=+=+=+=+=+=+=+=+=+=+=+=+=+=+=+=+=+=+=+=+=+=+=+=+=+=+=+=+=+=+=+=+=+=+=+=+=+=+=+=+=+=+=+=+=+=+=+=+=+=+=+=+=+=+=+=+=+:.- - - - - - - - - -                                                                                                                 - - - - - - -                     ",
"                                                                - - - - - - - - - - - - c `.=+=+=+=+=+=+=+=+=+=+=+=+=+=+=+=+=+=+=+=+=+=+=+=+=+=+=+=+=+=+=+=+=+=+=+=+=+=+=+=+=+=+=+=+=+=+=+=+=+=+=+=+=+=+=+=+=+=+=+=+=+=+=+=+=+=+=+=+=+=+=+=+=+=+=+=+=+=+=+=+=+=+=+=+=+=+=+=+=+=+=+=+=+=+=+=+=+=+=+=+=+=+=+=+=+=+=+=+=+=+=+=+=+=+=+=+=+=+=+=+=+=+=+=+=+=+=+o.> - - - - - - - - -                                                                                                             - - - - - - -                       ",
"                                                                - - - - - - - - - - - h  +=+=+=+=+=+=+=+=+=+=+=+=+=+=+=+=+=+=+=+=+=+=+=+=+=+=+=+=+=+=+=+=+=+=+=+=+=+=+=+=+=+=+=+=+=+=+=+=+=+=+=+=+=+=+=+=+=+=+=+=+=+=+=+=+=+=+=+=+=+=+=+=+=+=+=+=+=+=+=+=+=+@+].F  +=+=+=+=+=+=+=+=+=+=+=+=+=+=+=+=+=+=+=+=+=+=+=+=+=+=+=+=+=+=+=+=+=+=+=+=+=+u.Y Y Y Y ` #+B.> - - - - - - - - -                                                                                                           - - - - - - -                       ",
"                                                              - - - - - - - - - - - 9  +=+=+=+=+=+=+=+=+=+=+=+=+=+=+=+=+=+=+=+=+=+=+=+=+=+=+=+=+=+=+=+=+=+=+=+=+=+=+=+=+=+=+=+=+=+=+=+=+=+=+=+=+=+=+=+=+=+=+=+=+=+=+=+=+=+=+=+=+=+=+=+=+=+=+=+=+=+=+=+=+=+ +7 % % ].=+=+=+=+=+=+=+=+=+=+=+=+=+=+=+=+=+=+=+=+=+=+=+=+=+=+=+=+=+=+=+=+=+=+=+=+P.] % % % % o =+=+v.- - - - - - - - -                                                                                                         - - - - - - -                         ",
"                                                            - - - - - - - - - - - 3 V.=+=+=+=+=+=+=+=+=+=+=+=+=+=+=+=+=+=+=+=+=+=+=+=+=+=+=+=+=+=+=+=+=+=+=+=+=+=+=+=+=+=+=+=+=+=+=+=+=+=+=+=+=+=+=+=+=+=+=+=+=+=+=+=+=+=+=+=+=+=+=+=+=+=+=+=+=+=+=+=+=+=+#.% % % v =+=+=+=+=+=+=+=+=+=+=+=+=+=+=+=+=+=+=+=+=+=+=+=+=+=+=+=+=+=+=+=+=+=+=+W.8 % % % % % a.=+=+=+|.- - - - - - - - -                                                                                                     - - - - - - - -                         ",
"                                                          - - - - - - - - - - - } R.=+=+=+=+=+=+=+=+=+=+=+=+=+=+=+=+=+=+=+=+=+=+=+=+=+=+=+=+=+=+=+=+=+=+=+=+=+=+=+=+=+=+=+=+=+=+=+=+=+=+=+=+=+=+=+=+=+=+=+=+=+=+=+=+=+=+=+=+=+=+=+=+=+=+=+=+=+=+=+=+=+=+Z.! % % % Z =+=+=+=+=+=+=+=+=+=+=+=+=+=+=+=+=+=+=+=+=+=+=+=+=+=+=+=+=+=+=+=+=+=+Q.4 % % % % % ^ #+=+=+=+=+X - - - - - - - - -                                                                                                   - - - - - - -                           ",
"                                                        - - - - - - - - - - - > H.=+=+=+=+=+=+=+=+=+=+=+=+=+=+=+=+=+=+=+=+=+=+=+=+=+=+=+=+=+=+=+=+=+=+=+=+=+=+=+=+=+=+=+=+=+=+=+=+=+=+=+=+=+=+=+=+=+=+=+=+=+=+=+=+=+=+=+=+=+=+=+=+=+=+=+=+=+=+=+=+=+=+=+*.% % % % l.=+=+=+=+=+=+=+=+=+=+=+=+=+=+=+=+=+=+=+=+=+=+=+=+=+=+=+=+=+=+=+=+=+h.^ % % % % % % &.=+=+=+=+=+=+n - - - - - - - - -                                                                                               - - - - - - - -                           ",
"                                                      - - - - - - - - - - - - q.=+=+=+=+=+=+=+=+=+=+=+=+=+=+=+=+=+=+=+=+=+=+=+=+=+=+=+=+=+=+=+=+=+=+=+=+=+=+=+=+=+=+=+=+=+=+=+=+=+=+=+=+=+=+=+=+=+=+=+=+=+=+=+=+=+=+=+=+=+=+=+=+=+=+=+=+=+=+=+=+=+=+=+@+{ % % % ' @+=+=+=+=+=+=+=+=+=+=+=+=+=+=+=+=+=+=+=+=+=+=+=+=+=+=+=+=+=+=+=+M.F % % % % % % % * K.=+=+=+=+=+=+#+| - - - - - - - - -                                                                                             - - - - - - -                             ",
"                                                    - - - - - - - - - - - - 2.=+=+=+=+=+=+=+=+=+=+=+=+=+=+=+=+=+=+=+=+=+=+=+=+=+=+=+=+=+=+=+=+=+=+=+=+=+=+=+=+=+=+=+=+=+=+=+=+=+=+=+=+=+=+=+=+=+=+=+=+=+=+=+=+=+=+=+=+=+=+=+=+=+=+=+=+=+=+=+=+=+=+=+=+[.% % % % B =+=+=+=+=+=+=+=+=+=+=+=+=+=+=+=+=+=+=+=+=+=+=+=+=+=+=+=+=+=+w.M = % % % % % % % % q =+=+=+=+=+=+=+=+#+_ - - - - - - - - -                                                                                         - - - - - - - -                             ",
"                                                    - - - - - - - - - - - %.=+=+=+=+=+=+=+=+=+=+=+=+=+=+=+=+=+=+=+=+=+=+=+=+=+=+=+=+=+=+=+=+=+=+=+=+=+=+=+=+=+=+=+=+=+=+=+=+=+=+=+=+=+=+=+=+=+=+=+=+=+=+=+=+=+=+=+=+=+=+=+=+=+=+=+=+=+=+=+=+=+=+=+=+=+b % % % % a.=+=+=+=+=+=+=+=+=+=+=+=+=+=+=+=+=+=+=+=+=+=+=+=+=+=+=+P.'.4 % % % % % % % % % % % e.=+=+=+=+=+=+=+=+=+`.- - - - - - - - -                                                                                         - - - - - - -                               ",
"                                                  - - - - - - - - - - - r #+=+=+=+=+=+=+=+=+=+=+=+=+=+=+=+=+=+=+=+=+=+=+=+=+=+=+=+=+=+=+=+=+=+=+=+=+=+=+=+=+=+=+=+=+=+=+=+=+=+=+=+=+=+=+=+=+=+=+=+=+=+=+=+=+=+=+=+=+=+=+=+=+=+=+=+=+=+=+=+=+=+=+=+=+t.% % % % ' @+=+=+=+=+=+=+=+=+=+=+=+=+=+=+=+=+=+=+=+=+=+=+=+=+A.].l * % % % % % % % % % % % % < #+=+=+=+=+=+=+=+=+=+=+N.- - - - - - - - -                                                                                     - - - - - - - -                               ",
"                                                - - - - - - - - - - - } X.=+=+=+=+=+=+=+=+=+=+=+=+=+=+=+=+=+=+=+=+=+=+=+=+=+=+=+=+=+=+=+=+=+=+=+=+=+=+=+=+=+=+=+=+=+=+=+=+=+=+=+=+=+=+=+=+=+=+=+=+=+=+=+=+=+=+=+=+=+=+=+=+=+=+=+=+=+=+=+=+=+=+=+=+=+F % % % % G =+=+=+=+=+=+=+=+=+=+=+=+=+=+=+=+=+=+=+=+=+G.<.B ~ % % % % % % % % % % * ; % % % % ).=+=+=+=+=+=+=+=+=+=+=+=+o.- - - - - - - - -                                                                                 - - - - - - - -                                 ",
"                                              - - - - - - - - - - - - y.=+=+=+=+=+=+=+=+=+=+=+=+=+=+=+=+=+=+=+=+=+=+=+=+=+=+=+=+=+=+=+=+=+=+=+=+=+=+=+=+=+=+=+=+=+=+=+=+=+=+=+=+=+=+=+=+=+=+=+=+=+=+=+=+=+=+=+=+=+=+=+=+=+=+=+=+=+=+=+=+=+=+=+=+=+Q.; % % % % h.=+=+=+=+=+=+=+=+=+=+=+=+=+=+=+=+$+p.;.t { % % % % % % % % % % % % % 7 1.= % % % ' W.=+=+=+=+=+=+=+=+=+=+=+=+=+/.- - - - - - - - -                                                                               - - - - - - - -                                 ",
"                                              - - - - - - - - - - - }.=+=+=+=+=+=+=+=+=+=+=+=+=+=+=+=+=+=+=+=+=+=+=+=+=+=+=+=+=+=+=+=+=+=+=+=+=+=+=+=+=+=+=+=+=+=+=+=+=+=+=+=+=+=+=+=+=+=+=+=+=+=+=+=+=+=+=+=+=+=+=+=+=+=+=+=+=+=+=+=+=+=+=+=+=+=+*.% % % % { #+=+=+=+=+=+=+=+=+=+=+=+=+=+#+l.K ! % % % % % % % % % % % % % % ! F h.=+` % % % % N =+=+=+=+=+=+=+=+=+=+=+=+=+=+=+z - - - - - - - - -                                                                           - - - - - - - -                                   ",
"                                            - - - - - - - - - - - z =+=+=+=+=+=+=+=+=+=+=+=+=+=+=+=+=+=+=+=+=+=+=+=+=+=+=+=+=+=+=+=+=+=+=+=+=+=+=+=+=+=+=+=+=+=+=+=+=+=+=+=+=+=+=+=+=+=+=+=+=+=+=+=+=+=+=+=+=+=+=+=+=+=+=+=+=+=+=+=+=+=+=+=+=+=+#+: % % % % N =+=+=+=+=+=+=+=+=+=+=+=+=+a.4 % % % % % % % % % % % % % ~ t ;.p.#+=+=+@+{ % % % % A.=+=+=+=+=+=+=+=+=+=+=+=+=+=+=+=+} - - - - - - - -                                                                           - - - - - - - -                                   ",
"                                          - - - - - - - - - - - } X.=+=+=+=+=+=+=+=+=+=+=+=+=+=+=+=+=+=+=+=+=+=+=+=+=+=+=+=+=+=+=+=+=+=+=+=+=+=+=+=+=+=+=+=+=+=+=+=+=+=+=+=+=+=+=+=+=+=+=+=+=+=+=+=+=+=+=+=+=+=+=+=+=+=+=+=+=+=+=+=+=+=+=+=+=+=+h.% % % % % t.=+=+=+=+=+=+=+=+=+=+=+p.d % % % % % % % % % % % : N 7.M.=+=+=+=+=+=+=+_.% % % % j =+=+=+=+=+=+=+=+=+=+=+=+=+=+=+=+=+#+- - - - - - - - -                                                                       - - - - - - - -                                     ",
"                                        - - - - - - - - - - - - q.=+=+=+=+=+=+=+=+=+=+=+=+=+=+=+=+=+=+=+=+=+=+=+=+=+=+=+=+=+=+=+=+=+=+=+=+=+=+=+=+=+=+=+=+=+=+=+=+=+=+=+=+=+=+=+=+=+=+=+=+=+=+=+=+=+=+=+=+=+=+=+=+=+=+=+=+=+=+=+=+=+=+=+=+=+=+=+v % % % % b =+=+=+=+=+=+=+=+=+=+D.t % % % % % % % % % % < &.A.=+=+=+=+=+=+=+=+=+=+=+4 % % % % a.=+=+=+=+=+=+=+=+=+=+=+=+=+=+=+=+=+=+X.- - - - - - - - -                                                                     - - - - - - -                                       ",
"                                        - - - - - - - - - - - @.=+=+=+=+=+=+=+=+=+=+=+=+=+=+=+=+=+=+=+=+=+=+=+=+=+=+=+=+=+=+=+=+=+=+=+=+=+=+=+=+=+=+=+=+=+=+=+=+=+=+=+=+=+=+=+=+=+=+=+=+=+=+=+=+=+=+=+=+=+=+=+=+=+=+=+=+=+=+=+=+=+=+=+=+=+=+=+P.* % % % % <.=+=+=+=+=+=+=+=+Z.Y = % % % % % % % % = C p.=+=+=+=+=+=+=+=+=+=+=+=+=+j.% % % % : #+=+=+=+=+=+=+=+=+=+=+=+=+=+=+=+=+=+=+=+  - - - - - - - - -                                                                 - - - - - - - -                                       ",
"                                      - - - - - - - - - - - 3 #+=+=+=+=+=+=+=+=+=+=+=+=+=+=+=+=+=+=+=+=+=+=+=+=+=+=+=+=+=+=+=+=+=+=+=+=+=+=+=+=+=+=+=+=+=+=+=+=+=+=+=+=+=+=+=+=+=+=+=+=+=+=+=+=+=+=+=+=+=+=+=+=+=+=+=+=+=+=+=+=+=+=+=+=+=+=+=+&.% % % % !  +=+=+=+=+=+=+=+r./ % % % % % % % % ' S M.=+=+=+=+=+=+=+=+=+=+=+=+=+=+=+s % % % % '.=+=+=+=+=+=+=+=+=+=+=+=+=+=+=+=+=+=+=+=+=+  - - - - - - - -                                                               - - - - - - - -                                         ",
"                                    - - - - - - - - - - - - y.=+=+=+=+=+=+=+=+=+=+=+=+=+=+=+=+=+=+=+=+=+=+=+=+=+=+=+=+=+=+=+=+=+=+=+=+=+=+=+=+=+=+=+=+=+=+=+=+=+=+=+=+=+=+=+=+=+=+=+=+=+=+=+=+=+=+=+=+=+=+=+=+=+=+=+=+=+=+=+=+=+=+=+=+=+=+=+#+( % % % % V =+=+=+=+=+=+=+[.; % % % % % % % 8 _. +=+=+=+=+=+=+=+=+=+=+=+=+=+=+=+=+I.* % % % ; W.=+=+=+=+=+=+=+=+=+=+=+=+=+=+=+=+=+=+=+=+=+=+| - - - - - - - -                                                             - - - - - - - -                                         ",
"                                  - - - - - - - - - - - - %.=+=+=+=+=+=+=+=+=+=+=+=+=+=+=+=+=+=+=+=+=+=+=+=+=+=+=+=+=+=+=+=+=+=+=+=+=+=+=+=+=+=+=+=+=+=+=+=+=+=+=+=+=+=+=+=+=+=+=+=+=+=+=+=+=+=+=+=+=+=+=+=+=+=+=+=+=+=+=+=+=+=+=+=+=+=+=+=+b.% % % % % D.=+=+=+=+=+=+Q % % % % % % ^ #.I.=+=+=+=+=+=+=+=+=+=+=+=+=+=+=+=+=+=+=+Q % % % % M =+=+=+=+=+=+=+=+=+=+=+=+=+=+=+=+=+=+=+=+=+=+=+=+- - - - - - - - -                                                         - - - - - - - -                                           ",
"                                  - - - - - - - - - - - 3 #+=+=+=+=+=+=+=+=+=+=+=+=+=+=+=+=+=+=+=+=+=+=+=+=+=+=+=+=+=+=+=+=+=+=+=+=+=+=+=+=+=+=+=+=+=+=+=+=+=+=+=+=+=+=+=+=+=+=+=+=+=+=+=+=+=+=+=+=+=+=+=+=+=+=+=+=+=+=+=+=+=+=+=+=+=+=+=+=+q % % % % l =+=+=+=+=+=+ .% % % % % ~ ~.@+=+=+=+=+=+=+=+=+=+=+=+=+=+=+=+=+=+=+=+=+Z.' % % % % x.=+=+=+=+=+=+=+=+=+=+=+=+=+=+=+=+=+=+=+=+=+=+=+=+@+- - - - - - - - -                                                       - - - - - - - -                                           ",
"                                - - - - - - - - - - - - q.=+=+=+=+=+=+=+=+=+=+=+=+=+=+=+=+=+=+=+=+=+=+=+=+=+=+=+=+=+=+=+=+=+=+=+=+=+=+=+=+=+=+=+=+=+=+=+=+=+=+=+=+=+=+=+=+=+=+=+=+=+=+=+=+=+=+=+=+=+=+=+=+=+=+=+=+=+=+=+=+=+=+=+=+=+=+=+=+K.* % % % % 0.=+=+=+=+=+b.% % % % ; ;. +=+=+=+=+=+=+=+=+=+=+=+=+=+=+=+=+=+=+=+=+=+=+~.% % % % g =+=+=+=+=+=+=+=+=+=+=+=+=+=+=+=+=+=+=+=+=+=+=+=+=+=+  - - - - - - - -                                                     - - - - - - - -                                             ",
"                              - - - - - - - - - - - - P =+=+=+=+=+=+=+=+=+=+=+=+=+=+=+=+=+=+=+=+=+=+=+=+=+=+=+=+=+=+=+=+=+=+=+=+=+=+=+=+=+=+=+=+=+=+=+=+=+=+=+=+=+=+=+=+=+=+=+=+=+=+=+=+=+=+=+=+=+=+=+=+=+=+=+=+=+=+=+=+=+=+=+=+=+=+=+=+=+#.% % % % ^ #+=+=+=+=+ +^ % % % < D.=+=+=+=+=+=+=+=+=+=+=+=+=+=+=+=+=+=+=+=+=+=+=+#+< % % % % a.=+=+=+=+=+=+=+=+=+=+=+=+=+=+=+=+=+=+=+=+=+=+=+=+=+=+=+  - - - - - - - -                                                 - - - - - - - - -                                             ",
"                            - - - - - - - - - - - - _ X.=+=+=+=+=+=+=+=+=+=+=+=+=+=+=+=+=+=+=+=+=+=+=+=+=+=+=+=+=+=+=+=+=+=+=+=+=+=+=+=+=+=+=+=+=+=+=+=+=+=+=+=+=+=+=+=+=+=+=+=+=+=+=+=+=+=+=+=+=+=+=+=+=+=+=+=+=+=+=+=+=+=+=+=+=+=+=+=+#+^ % % % % &.=+=+=+=+=+#.% % % ! O.=+=+=+=+=+=+=+=+=+=+=+=+=+=+=+=+=+=+=+=+=+=+=+=+a.% % % % : #+=+=+=+=+=+=+=+=+=+=+=+=+=+=+=+=+=+=+=+=+=+=+=+=+=+=+=+=+} - - - - - - - -                                               - - - - - - - -                                               ",
"                            - - - - - - - - - - - - 5.=+=+=+=+=+=+=+=+=+=+=+=+=+=+=+=+=+=+=+=+=+=+=+=+=+=+=+=+=+=+=+=+=+=+=+=+=+=+=+=+=+=+=+=+=+=+=+=+=+=+=+=+=+=+=+=+=+=+=+=+=+=+=+=+=+=+=+=+=+=+=+=+=+=+=+=+=+=+=+=+=+=+=+=+=+=+=+=+=+a.% % % % = P.=+=+=+=+ +! % % % V =+=+=+=+=+=+=+=+=+=+=+=+=+=+=+=+=+=+=+=+=+=+=+=+=+g % % % % '.=+=+=+=+=+=+=+=+=+=+=+=+=+=+=+=+=+=+=+=+=+=+=+=+=+=+=+=+=+#+- - - - - - - -                                             - - - - - - - - -                                               ",
"                          - - - - - - - - - - - - h =+=+=+=+=+=+=+=+=+=+=+=+=+=+=+=+=+=+=+=+=+=+=+=+=+=+=+=+=+=+=+=+=+=+=+=+=+=+=+=+=+=+=+=+=+=+=+=+=+=+=+=+=+=+=+=+=+=+=+=+=+=+=+=+=+=+=+=+=+=+=+=+=+=+=+=+=+=+=+=+=+=+=+=+=+=+=+=+=+=+m % % % % y =+=+=+=+=+Z.{ % % % <.=+=+=+=+=+=+=+=+=+=+=+=+=+=+=+=+=+=+=+=+=+=+=+=+x.% % % % , W.=+=+=+=+=+=+=+=+=+=+=+=+=+=+=+=+=+=+=+=+=+=+=+=+=+=+=+=+=+=+R.- - - - - - - -                                           - - - - - - - -                                                 ",
"                        - - - - - - - - - - - - - y.=+=+=+=+=+=+=+=+=+=+=+=+=+=+=+=+=+=+=+=+=+=+=+=+=+=+=+=+=+=+=+=+=+=+=+=+=+=+=+=+=+=+=+=+=+=+=+=+=+=+=+=+=+=+=+=+=+=+=+=+=+=+=+=+=+=+=+=+=+=+=+=+=+=+=+=+=+=+=+=+=+=+=+=+=+=+=+=+=+M.& % % % % l.=+=+=+=+=+=+r.d e a.=+=+=+=+=+=+=+=+=+=+=+=+=+=+=+=+=+=+=+=+=+=+=+=+=+K % % % % M =+=+=+=+=+=+=+=+=+=+=+=+=+=+=+=+=+=+=+=+=+=+=+=+=+=+=+=+=+=+=+=+5.- - - - - - - -                                       - - - - - - - - -                                                 ",
"                        - - - - - - - - - - - - L =+=+=+=+=+=+=+=+=+=+=+=+=+=+=+=+=+=+=+=+=+=+=+=+=+=+=+=+=+=+=+=+=+=+=+=+=+=+=+=+=+=+=+=+=+=+=+=+=+=+=+=+=+=+=+=+=+=+=+=+=+=+=+=+=+=+=+=+=+=+=+=+=+=+=+=+=+=+=+=+=+=+=+=+=+=+=+=+=+=+` % % % % 2 =+=+=+=+=+=+=+=+=+=+=+=+=+=+=+=+=+=+=+=+=+=+=+=+=+=+=+=+=+=+=+=+=+=+=+Q.; % % % % A.=+=+=+=+=+=+=+=+=+=+=+=+=+=+=+=+=+=+=+=+=+=+=+=+=+=+=+=+=+=+=+=+=+i - - - - - - - -                                   - - - - - - - - -                                                   ",
"                      - - - - - - - - - - - - > U.=+=+=+=+=+=+=+=+=+=+=+=+=+=+=+=+=+=+=+=+=+=+=+=+=+=+=+=+=+=+=+=+=+=+=+=+=+=+=+=+=+=+=+=+=+=+=+=+=+=+=+=+=+=+=+=+=+=+=+=+=+=+=+=+=+=+=+=+=+=+=+=+=+=+=+=+=+=+=+=+=+=+=+=+=+=+=+=+=+#+] % % % % ].=+=+=+=+=+=+=+=+=+=+=+=+=+=+=+=+=+=+=+=+=+=+=+=+=+=+=+=+=+=+=+=+=+=+=+&.% % % % l =+=+=+=+=+=+=+=+=+=+=+=+=+=+=+=+=+=+=+=+=+=+=+=+=+=+=+=+=+=+=+=+=+=+#+> - - - - - - -                                   - - - - - - - - -                                                   ",
"                    - - - - - - - - - - - - - {.=+=+=+=+=+=+=+=+=+=+=+=+=+=+=+=+=+=+=+=+=+=+=+=+=+=+=+=+=+=+=+=+=+=+=+=+=+=+=+=+=+=+=+=+=+=+=+=+=+=+=+=+=+=+=+=+=+=+=+=+=+=+=+=+=+=+=+=+=+=+=+=+=+=+=+=+=+=+=+=+=+=+=+=+=+=+=+=+=+=+7.% % % % ' W.=+=+=+=+=+=+=+=+=+=+=+=+=+=+=+=+=+=+=+=+=+=+=+=+=+=+=+=+=+=+=+=+=+=+$+^ % % % % e.=+=+=+=+=+=+=+=+=+=+=+=+=+=+=+=+=+=+=+=+=+=+=+=+=+=+=+=+=+=+=+=+=+=+=+X.- - - - - - - -                               - - - - - - - - -                                                     ",
"                    - - - - - - - - - - - - } #+=+=+=+=+=+=+=+=+=+=+=+=+=+=+=+=+=+=+=+=+=+=+=+=+=+=+=+=+=+=+=+=+=+=+=+=+=+=+=+=+=+=+=+=+=+=+=+=+=+=+=+=+=+=+=+=+=+=+=+=+=+=+=+=+=+=+=+=+=+=+=+=+=+=+=+=+=+=+=+=+=+=+=+=+=+=+=+=+=+=+j % % % % M =+=+=+=+=+=+=+=+=+=+=+=+=+=+=+=+=+=+=+=+=+=+=+=+=+=+=+=+=+=+=+=+=+=+=+[.% % % % < #+=+=+=+=+=+=+=+=+=+=+=+=+=+=+=+=+=+=+=+=+=+=+=+=+=+=+=+=+=+=+=+=+=+=+=+=+9.- - - - - - - -                             - - - - - - - -                                                       ",
"                  - - - - - - - - - - - - - f.=+=+=+=+=+=+=+=+=+=+=+=+=+=+=+=+=+=+=+=+=+=+=+=+=+=+=+=+=+=+=+=+=+=+=+=+=+=+=+=+=+=+=+=+=+=+=+=+=+=+=+=+=+=+=+=+=+=+=+=+=+=+=+=+=+=+=+=+=+=+=+=+=+=+=+=+=+=+=+=+=+=+=+=+=+=+=+=+=+=+G.& % % % % u.=+=+=+=+=+=+=+=+=+=+=+=+=+=+=+=+=+=+=+=+=+=+=+=+=+=+=+=+=+=+=+=+=+=+=+b % % % % ~.=+=+=+=+=+=+=+=+=+=+=+=+=+=+=+=+=+=+=+=+=+=+=+=+=+=+=+=+=+=+=+=+=+=+=+=+=+=+z - - - - - - -                           - - - - - - - - -                                                       ",
"                - - - - - - - - - - - - - h =+=+=+=+=+=+=+=+=+=+=+=+=+=+=+=+=+=+=+=+=+=+=+=+=+=+=+=+=+=+=+=+=+=+=+=+=+=+=+=+=+=+=+=+=+=+=+=+=+=+=+=+=+=+=+=+=+=+=+=+=+=+=+=+=+=+=+=+=+=+=+=+=+=+=+=+=+=+=+=+=+=+=+=+=+=+=+=+=+=+=+V % % % % b =+=+=+=+=+=+=+=+=+=+=+=+=+=+=+=+=+=+=+=+=+=+=+=+=+=+=+=+=+=+=+=+=+=+=+r.% % % % ' W.=+=+=+=+=+=+=+=+=+=+=+=+=+=+=+=+=+=+=+=+=+=+=+=+=+=+=+=+=+=+=+=+=+=+=+=+=+=+#+_ - - - - - - -                       - - - - - - - - -                                                         ",
"                - - - - - - - - - - - - - y.=+=+=+=+=+=+=+=+=+=+=+=+=+=+=+=+=+=+=+=+=+=+=+=+=+=+=+=+=+=+=+=+=+=+=+=+=+=+=+=+=+=+=+=+=+=+=+=+=+=+=+=+=+=+=+=+=+=+=+=+=+=+=+=+=+=+=+=+=+=+=+=+=+=+=+=+=+=+=+=+=+=+=+=+=+=+=+=+=+=+#+{ % % % % [.=+=+=+=+=+=+=+=+=+=+=+=+=+=+=+=+=+=+=+=+=+=+=+=+=+=+=+=+=+=+=+=+=+=+=+y % % % % Q =+=+=+=+=+=+=+=+=+=+=+=+=+=+=+=+=+=+=+=+=+=+=+=+=+=+=+=+=+=+=+=+=+=+=+=+=+=+=+=+S.- - - - - - - -                     - - - - - - - - -                                                         ",
"              - - - - - - - - - - - - - I =+=+=+=+=+=+=+=+=+=+=+=+=+=+=+=+=+=+=+=+=+=+=+=+=+=+=+=+=+=+=+=+=+=+=+=+=+=+=+=+=+=+=+=+=+=+=+=+=+=+=+=+=+=+=+=+=+=+=+=+=+=+=+=+=+=+=+=+=+=+=+=+=+=+=+=+=+=+=+=+=+=+=+=+=+=+=+=+=+=+=+1.% % % % ! @+=+=+=+=+=+=+=+=+=+=+=+=+=+=+=+=+=+=+=+=+=+=+=+=+=+=+=+=+=+=+=+=+=+=+O.= % % % % D.=+=+=+=+=+=+=+=+=+=+=+=+=+=+=+=+=+=+=+=+=+=+=+=+=+=+=+=+=+=+=+=+=+=+=+=+=+=+=+=+=+5.- - - - - - -                   - - - - - - - - -                                                           ",
"              - - - - - - - - - - - - > X.=+=+=+=+=+=+=+=+=+=+=+=+=+=+=+=+=+=+=+=+=+=+=+=+=+=+=+=+=+=+=+=+=+=+=+=+=+=+=+=+=+=+=+=+=+=+=+=+=+=+=+=+=+=+=+=+=+=+=+=+=+=+=+=+=+=+=+=+=+=+=+=+=+=+=+=+=+=+=+=+=+=+=+=+=+=+=+=+=+=+=+f % % % % Y =+=+=+=+=+=+=+=+=+=+=+=+=+=+=+=+=+=+=+=+=+=+=+=+=+=+=+=+=+=+=+=+=+=+=+Z % % % % o =+=+=+=+=+=+=+=+=+=+=+=+=+=+=+=+=+=+=+=+=+=+=+=+=+=+=+=+=+=+=+=+=+=+=+=+=+=+=+=+=+=+=+u - - - - - - -               - - - - - - - - - -                                                           ",
"            - - - - - - - - - - - - - =.=+=+=+=+=+=+=+=+=+=+=+=+=+=+=+=+=+=+=+=+=+=+=+=+=+=+=+=+=+=+=+=+=+=+=+=+=+=+=+=+=+=+=+=+=+=+=+=+=+=+=+=+=+=+=+=+=+=+=+=+=+=+=+=+=+=+=+=+=+=+=+=+=+=+=+=+=+=+=+=+=+=+=+=+=+=+=+=+=+=+=+D.% % % % % D.=+=+=+=+=+=+=+=+=+=+=+=+=+=+=+=+=+=+=+=+=+=+=+=+=+=+=+=+=+=+=+=+=+=+ +! % % % % h.=+=+=+=+=+=+=+=+=+=+=+=+=+=+=+=+=+=+=+=+=+=+=+=+=+=+=+=+=+=+=+=+=+=+=+=+=+=+=+=+=+=+=+#+> - - - - - - -             - - - - - - - - -                                                             ",
"          - - - - - - - - - - - - - _ #+=+=+=+=+=+=+=+=+=+=+=+=+=+=+=+=+=+=+=+=+=+=+=+=+=+=+=+=+=+=+=+=+=+=+=+=+=+=+=+=+=+=+=+=+=+=+=+=+=+=+=+=+=+=+=+=+=+=+=+=+=+=+=+=+=+=+=+=+=+=+=+=+=+=+=+=+=+=+=+=+=+=+=+=+=+=+=+=+=+=+=+S % % % % m =+=+=+=+=+=+=+=+=+=+=+=+=+=+=+=+=+=+=+=+=+=+=+=+=+=+=+=+=+=+=+=+=+=+=+_.% % % % 1 =+=+=+=+=+=+=+=+=+=+=+=+=+=+=+=+=+=+=+=+=+=+=+=+=+=+=+=+=+=+=+=+=+=+=+=+=+=+=+=+=+=+=+=+=+y.- - - - - - -           - - - - - - - - - -                                                             ",
"          - - - - - - - - - - - - - f.=+=+=+=+=+=+=+=+=+=+=+=+=+=+=+=+=+=+=+=+=+=+=+=+=+=+=+=+=+=+=+=+=+=+=+=+=+=+=+=+=+=+=+=+=+=+=+=+=+=+=+=+=+=+=+=+=+=+=+=+=+=+=+=+=+=+=+=+=+=+=+=+=+=+=+=+=+=+=+=+=+=+=+=+=+=+=+=+=+=+=+@+! % % % % a.=+=+=+=+=+=+=+=+=+=+=+=+=+=+=+=+=+=+=+=+=+=+=+=+=+=+=+=+=+=+=+=+=+=+=+4 % % % % ].=+=+=+=+=+=+=+=+=+=+=+=+=+=+=+=+=+=+=+=+=+=+=+=+=+=+=+=+=+=+=+=+=+=+=+=+=+=+=+=+=+=+=+=+=+=+P - - - - - - -         - - - - - - - - -                                                               ",
"        - - - - - - - - - - - - - 5 =+=+=+=+=+=+=+=+=+=+=+=+=+=+=+=+=+=+=+=+=+=+=+=+=+=+=+=+=+=+=+=+=+=+=+=+=+=+=+=+=+=+=+=+=+=+=+=+=+=+=+=+=+=+=+=+=+=+=+=+=+=+=+=+=+=+=+=+=+=+=+=+=+=+=+=+=+=+=+=+=+=+=+=+=+=+=+=+=+=+=+=+[.% % % % / #+=+=+=+=+=+=+=+=+=+=+=+=+=+=+=+=+=+=+=+=+=+=+=+=+=+=+=+=+=+=+=+=+=+=+h.% % % % '  +=+=+=+=+=+=+=+=+=+=+=+=+=+=+=+=+=+=+=+=+=+=+=+=+=+=+=+=+=+=+=+=+=+=+=+=+=+=+=+=+=+=+=+=+=+=+#+) - - - - - -       - - - - - - - - -                                                                 ",
"        - - - - - - - - - - - - - J.=+=+=+=+=+=+=+=+=+=+=+=+=+=+=+=+=+=+=+=+=+=+=+=+=+=+=+=+=+=+=+=+=+=+=+=+=+=+=+=+=+=+=+=+=+=+=+=+=+=+=+=+=+=+=+=+=+=+=+=+=+=+=+=+=+=+=+=+=+=+=+=+=+=+=+=+=+=+=+=+=+=+=+=+=+=+=+=+=+=+=+=+d % % % % *.=+=+=+=+=+=+=+=+=+=+=+=+=+=+=+=+=+=+=+=+=+=+=+=+=+=+=+=+=+=+=+=+=+=+=+o % % % % V =+=+=+=+=+=+=+=+=+=+=+=+=+=+=+=+=+=+=+=+=+=+=+=+=+=+=+=+=+=+=+=+=+=+=+=+=+=+=+=+=+=+=+=+=+=+=+=+q.- - - - - - -   - - - - - - - - - -                                                                 ",
"      - - - - - - - - - - - - - I =+=+=+=+=+=+=+=+=+=+=+=+=+=+=+=+=+=+=+=+=+=+=+=+=+=+=+=+=+=+=+=+=+=+=+=+=+=+=+=+=+=+=+=+=+=+=+=+=+=+=+=+=+=+=+=+=+=+=+=+=+=+=+=+=+=+=+=+=+=+=+=+=+=+=+=+=+=+=+=+=+=+=+=+=+=+=+=+=+=+=+=+A.% % % % = Q.=+=+=+=+=+=+=+=+=+=+=+=+=+=+=+=+=+=+=+=+=+=+=+=+=+=+=+=+=+=+=+=+=+=+D.& % % % & I.=+=+=+=+=+=+=+=+=+=+=+=+=+=+=+=+=+=+=+=+=+=+=+=+=+=+=+=+=+=+=+=+=+=+=+=+=+=+=+=+=+=+=+=+=+=+=+=+=+D - - - - - - - - - - - - - - - -                                                                   ",
"    - - - - - - - - - - - - - - #+=+=+=+=+=+=+=+=+=+=+=+=+=+=+=+=+=+=+=+=+=+=+=+=+=+=+=+=+=+=+=+=+=+=+=+=+=+=+ +r._.*.V F K ].M.=+=+=+=+=+=+=+=+=+=+=+=+=+=+=+=+=+=+=+=+=+=+=+=+=+=+=+=+=+=+=+=+=+=+@+A.l.h.l.A.#+=+=+=+=+O % % % % B =+=+=+=+=+=+=+=+=+=+=+=+=+=+=+=+=+=+=+=+=+=+=+=+=+=+=+=+=+=+=+=+=+=+=+O % % % % s =+=+=+=+=+=+=+=+=+=+=+=+=+=+=+=+=+=+=+=+=+=+=+=+=+=+=+=+=+=+=+=+=+=+=+=+=+=+=+=+=+=+=+=+=+=+=+=+=+=+#+- - - - - - - - - - - - - - - -                                                                   ",
"    - - - - - - - - - - - - - 2.=+=+=+=+=+=+=+=+=+=+=+=+=+=+=+=+=+=+=+=+=+=+=+=+=+=+=+=+=+=+=+=+=+=+=+=+ +<.m = % % % % % % % & s h.=+=+=+=+=+=+=+=+=+=+=+=+=+=+=+=+=+=+=+=+=+=+=+=+=+=+=+=+#+h.Q 2 * % % % % % , j ].W. +' % % % % n.=+=+=+=+=+=+=+=+=+=+=+=+=+=+=+=+=+=+=+=+=+=+=+=+=+=+=+=+=+=+=+=+=+=+W.' % % % % j.=+=+=+=+=+=+=+=+=+=+=+=+=+=+=+=+=+=+=+=+=+=+=+=+=+=+=+=+=+=+=+=+=+=+=+=+=+=+=+=+=+=+=+=+=+=+=+=+=+=+=+9.- - - - - - - - - - - - - -                                                                     ",
"  - - - - - - - - - - - - - > =+=+=+=+=+=+=+=+=+=+=+=+=+=+=+=+=+=+=+=+=+=+=+=+=+=+=+=+=+=+=+=+=+=+=+W.` ' % % % % % % % % % % % % % 4 h.=+=+=+=+=+=+=+=+=+=+=+=+=+=+=+=+=+=+=+=+=+=+=+=+Q.` ] % % % % % % % % % % % % ' v % % % % 2 =+=+=+=+=+=+=+=+=+=+=+=+=+=+=+=+=+=+=+=+=+=+=+=+=+=+=+=+=+=+=+=+=+=+=+,.% % % % 2 =+=+=+=+=+=+=+=+=+=+=+=+=+=+=+=+=+=+=+=+=+=+=+=+=+=+=+=+=+=+=+=+=+=+=+=+=+=+=+=+=+=+=+=+=+=+=+=+=+=+=+=+=+a - - - - - - - - - - - -                                                                       ",
"  - - - - - - - - - - - - - L.=+=+=+=+=+=+=+=+=+=+=+=+=+=+=+=+=+=+=+=+=+=+=+=+=+=+=+=+=+=+=+=+=+=+<.! % % % % % % % % % % % % % % % % % C  +=+=+=+=+=+=+=+=+=+=+=+=+=+=+=+=+=+=+=+=+W.S ; % % % % % % % % % % % % % % % % % % % % ].=+=+=+=+=+=+=+=+=+=+=+=+=+=+=+=+=+=+=+=+=+=+=+=+=+=+=+=+=+=+=+=+=+=+#+: % % % % _.=+=+=+=+=+=+=+=+=+=+=+=+=+=+=+=+=+=+=+=+=+=+=+=+=+=+=+=+=+=+=+=+=+=+=+=+=+=+=+=+=+=+=+=+=+=+=+=+=+=+=+=+=+X.- - - - - - - - - - - -                                                                       ",
"  - - - - - - - - - - - - c =+=+=+=+=+=+=+=+=+=+=+=+=+=+=+=+=+=+=+=+=+=+=+=+=+=+=+=+=+=+=+=+=+W.t % % % % % % % % * ( 8 ' % % % % % % % % 7 W.=+=+=+=+=+=+=+=+=+=+=+=+=+=+=+=+=+=+_.! % % % % % % % { 8 t l [ % % % % % % % % % '  +=+=+=+=+=+=+=+=+=+=+=+=+=+=+=+=+=+=+=+=+=+=+=+=+=+=+=+=+=+=+=+=+=+=+0.% % % % !  +=+=+=+=+=+=+=+=+=+=+=+=+=+=+=+=+=+=+=+=+=+=+=+=+=+=+=+=+=+=+=+=+=+=+=+=+=+=+=+=+=+=+=+=+=+=+=+=+=+=+=+=+=+=+=.- - - - - - - - - -                                                                         ",
"- - - - - - - - - - - - - #+=+=+=+=+=+=+=+=+=+=+=+=+=+=+=+=+=+=+=+=+=+=+=+=+=+=+=+=+=+=+=+=+D.< % % % % % % 7 &.r.@+=+=+#+h.K , % % % % % % f #+=+=+=+=+=+=+=+=+=+=+=+=+=+=+=+M.j % % % % % { N a.Q.=+=+=+=+=+A.l % % % % % % % M =+=+=+=+=+=+=+=+=+=+=+=+=+=+=+=+=+=+=+=+=+=+=+=+=+=+=+=+=+=+=+=+=+=+=+f % % % % V =+=+=+=+=+=+=+=+=+=+=+=+=+=+=+=+=+=+=+=+=+=+=+=+=+=+=+=+=+=+=+=+=+=+=+=+=+=+=+=+=+=+=+=+=+=+=+=+=+=+=+=+=+=+=+9.- - - - - - - - - -                                                                         ",
"- - - - - - - - - - - -   =+=+=+=+=+=+=+=+=+=+=+=+=+=+=+=+=+=+=+=+=+=+=+=+=+=+=+=+=+=+=+=+A.{ % % % % * F t.=+=+=+=+=+=+=+=+=+W.O % % % % % % M.=+=+=+=+=+=+=+=+=+=+=+=+=+=+e.! % % % % 2 3.#+=+=+=+=+=+=+=+=+=+#+g % % % % % % x.=+=+=+=+=+=+=+=+=+=+=+=+=+=+=+=+=+=+=+=+=+=+=+=+=+=+=+=+=+=+=+=+=+=+w.% % % % * M.=+=+=+=+=+=+=+=+=+=+=+=+=+=+=+=+=+=+=+=+=+=+=+=+=+=+=+=+=+=+=+=+=+=+=+=+=+=+=+=+=+=+=+=+=+=+=+=+=+=+=+=+=+=+`.- - - - - - - - - -                                                                           ",
"- - - - - - - - - - - - =+=+=+=+=+=+=+=+=+=+=+=+=+=+=+=+=+=+=+=+=+=+=+=+=+=+=+=+=+=+=+=+M.] % % % % g A.=+=+=+=+=+=+=+=+=+=+=+=+=+f % % % % f =+=+=+=+=+=+=+=+=+=+=+=+=+=+^.& % % % ; ).#+=+=+=+=+=+=+=+=+=+=+=+=+,.% % % % % e =+=+=+=+=+=+=+=+=+=+=+=+=+=+=+=+=+=+=+=+=+=+=+=+=+=+=+=+=+=+=+=+=+=+=+G % % % % v =+=+=+=+=+=+=+=+=+=+=+=+=+=+=+=+=+=+=+=+=+=+=+=+=+=+=+=+=+=+=+=+=+=+=+=+=+=+=+=+=+=+=+=+=+=+=+=+=+=+=+=+=+=+#+| - - - - - - - - - -                                                                           ",
"- - - - - - - - - - - ..=+=+=+=+=+=+=+=+=+=+=+=+=+=+=+=+=+=+=+=+=+=+=+=+=+=+=+=+=+=+=+ +7 % % % % +.#+=+=+=+=+=+=+=+=+=+=+=+=+=+=+Z % % % % [.=+=+=+=+=+=+=+=+=+=+=+=+=+D.; % % % 4 A.=+=+=+=+=+=+=+=+=+=+=+=+=+=+&.% % % % % [.=+=+=+=+=+=+=+=+=+=+=+=+=+=+=+=+=+=+=+=+=+=+=+=+=+=+=+=+=+=+=+=+=+=+Q.; % % % % l.=+=+=+=+=+=+=+=+=+=+=+=+=+=+=+=+=+=+=+=+=+=+=+=+=+=+=+=+=+=+=+=+=+=+=+=+=+=+=+=+=+=+=+=+=+=+=+=+=+=+=+=+=+=+X - - - - - - - - - - -                                                                           ",
"- - - - - - - - - - - {.=+=+=+=+=+=+=+=+=+=+=+=+=+=+=+=+=+=+=+=+=+=+=+=+=+=+=+=+=+=+=+S % % % % *.=+=+=+=+=+=+=+=+=+=+=+=+=+=+=+=+F % % % '  +=+=+=+=+=+=+=+=+=+=+=+=+#+e % % % q  +=+=+=+=+=+=+=+=+=+=+=+=+=+=+=+M % % % % { @+=+=+=+=+=+=+=+=+=+=+=+=+=+=+=+=+=+=+=+=+=+=+=+=+=+=+=+=+=+=+=+=+=+=+&.% % % % 7 =+=+=+=+=+=+=+=+=+=+=+=+=+=+=+=+=+=+=+=+=+=+=+=+=+=+=+=+=+=+=+=+=+=+=+=+=+=+=+=+=+=+=+=+=+=+=+=+=+=+=+=+=+=+B.- - - - - - - - - - - - -                                                                         ",
"- - - - - - - - - - - _ #+=+=+=+=+=+=+=+=+=+=+=+=+=+=+=+=+=+=+=+=+=+=+=+=+=+=+=+=+=+u.& % % % F =+=+=+=+=+=+=+=+=+=+=+=+=+=+=+=+=+: % % % M =+=+=+=+=+=+=+=+=+=+=+=+=+1.% % % ^ W.=+=+=+=+=+=+=+=+=+=+=+=+=+=+=+=+g % % % % Z =+=+=+=+=+=+=+=+=+=+=+=+=+=+=+=+=+=+=+=+=+=+=+=+=+=+=+=+=+=+=+=+=+=+#+] % % % % <.=+=+=+=+=+=+=+=+=+=+=+=+=+=+=+=+=+=+=+=+=+=+=+=+=+=+=+=+=+=+=+=+=+=+=+=+=+=+=+=+=+=+=+=+=+=+=+=+=+=+=+=+=+#+- - - - - - - - - - - - - -                                                                         ",
"  - - - - - - - - - - - g.=+=+=+=+=+=+=+=+=+=+=+=+=+=+=+=+=+=+=+=+=+=+=+=+=+=+=+=+=+t % % % ] W.=+=+=+=+=+=+=+=+=+=+=+=+=+=+=+=+t.% % % % r.=+=+=+=+=+=+=+=+=+=+=+=+#+< % % % h.=+=+=+=+=+=+=+=+=+=+=+=+=+=+=+=+ +; % % % * M.=+=+=+=+=+=+=+=+=+=+=+=+=+=+=+=+=+=+=+=+=+=+=+=+=+=+=+=+=+=+=+=+=+=+[.% % % % ~ @+=+=+=+=+=+=+=+=+=+=+=+=+=+=+=+=+=+=+=+=+=+=+=+=+=+=+=+=+=+=+=+=+=+=+=+=+=+=+=+=+=+=+=+=+=+=+=+=+=+=+=+=+=+5 - - - - - - - - - - - - - - -                                                                       ",
"  - - - - - - - - - - - | =+=+=+=+=+=+=+=+=+=+=+=+=+=+=+=+=+=+=+=+=+=+=+=+=+=+=+=+w.% % % % ,.=+=+=+=+=+=+=+=+=+=+=+=+=+=+=+=+=+K % % % 2 =+=+=+=+=+=+=+=+=+=+=+=+=+[.% % % G =+=+=+=+=+=+=+=+=+=+=+=+=+=+=+=+=+a.% % % % q =+=+=+=+=+=+=+=+=+=+=+=+=+=+=+=+=+=+=+=+=+=+=+=+=+=+=+=+=+=+=+=+=+=+=+8 % % % % &.=+=+=+=+=+=+=+=+=+=+=+=+=+=+=+=+=+=+=+=+=+=+=+=+=+=+=+=+=+=+=+=+=+=+=+=+=+=+=+=+=+=+=+=+=+=+=+=+=+=+=+=+=+{.- - - - - - - - - - - - - - - - -                                                                     ",
"  - - - - - - - - - - - - H.=+=+=+=+=+=+=+=+=+=+=+=+=+=+=+=+=+=+=+=+=+=+=+=+=+=+=+B % % % ; W.=+=+=+=+=+=+=+=+=+=+=+=+=+=+=+=+Q.; % % % ,.=+=+=+=+=+=+=+=+=+=+=+=+=+d % % & D.=+=+=+=+=+=+=+=+=+=+=+=+=+=+=+=+=+l % % % % e.=+=+=+=+=+=+=+=+=+=+=+=+=+=+=+=+=+=+=+=+=+=+=+=+=+=+=+=+=+=+=+=+=+=+p.% % % % ; W.=+=+=+=+=+=+=+=+=+=+=+=+=+=+=+=+=+=+=+=+=+=+=+=+=+=+=+=+=+=+=+=+=+=+=+=+=+=+=+=+=+=+=+=+=+=+=+=+=+=+=+=+N.- - - - - - - - - - - - - - - - - -                                                                     ",
"    - - - - - - - - - - - n =+=+=+=+=+=+=+=+=+=+=+=+=+=+=+=+=+=+=+=+=+=+=+=+=+=+@+' % % % q =+=+=+=+=+=+=+=+=+=+=+=+=+=+=+=+=+Z % % % = Q.=+=+=+=+=+=+=+=+=+=+=+=+x.% % % q =+=+=+=+=+=+=+=+=+=+=+=+=+=+=+=+=+<.% % % % : #+=+=+=+=+=+=+=+=+=+=+=+=+=+=+=+=+=+=+=+=+=+=+=+=+=+=+=+=+=+=+=+=+=+=+y % % % % N =+=+=+=+=+=+=+=+=+=+=+=+=+=+=+=+=+=+=+=+=+=+=+=+=+=+=+=+=+=+=+=+=+=+=+=+=+=+=+=+=+=+=+=+=+=+=+=+=+=+=+=+#+> - - - - - - - - - -     - - - - - - -                                                                   ",
"    - - - - - - - - - - - - #+=+=+=+=+=+=+=+=+=+=+=+=+=+=+=+=+=+=+=+=+=+=+=+=+=+e.% % % % ].=+=+=+=+=+=+=+=+=+=+=+=+=+=+=+=+Q., % % % x =+=+=+=+=+=+=+=+=+=+=+=+=+` % % % p.=+=+=+=+=+=+=+=+=+=+=+=+=+=+=+=+O.' % % % % ;.=+=+=+=+=+=+=+=+=+=+=+=+=+=+=+=+=+=+=+=+=+=+=+=+=+=+=+=+=+=+=+=+=+=+M.* % % % & D.=+=+=+=+=+=+=+=+=+=+=+=+=+=+=+=+=+=+=+=+=+=+=+=+=+=+=+=+=+=+=+=+=+=+=+=+=+=+=+=+=+=+=+=+=+=+=+=+=+=+=+=+c - - - - - - - - - - -     - - - - - - -                                                                   ",
"      - - - - - - - - - - - X =+=+=+=+=+=+=+=+=+=+=+=+=+=+=+=+=+=+=+=+=+=+=+=+=+M % % % % r.=+=+=+=+=+=+=+=+=+=+=+=+=+=+=+=+Q % % % % e.=+=+=+=+=+=+=+=+=+=+=+=+=+7 % % b =+=+=+=+=+=+=+=+=+=+=+=+=+=+=+=+=+v % % % % = Q.=+=+=+=+=+=+=+=+=+=+=+=+=+=+=+=+=+=+=+=+=+=+=+=+=+=+=+=+=+=+=+=+=+=+Y % % % % t =+=+=+=+=+=+=+=+=+=+=+=+=+=+=+=+=+=+=+=+=+=+=+=+=+=+=+=+=+=+=+=+=+=+=+=+=+=+=+=+=+=+=+=+=+=+=+=+=+=+=+=+:.- - - - - - - - - - -         - - - - - - -                                                                 ",
"      - - - - - - - - - - - - #+=+=+=+=+=+=+=+=+=+=+=+=+=+=+=+=+=+=+=+=+=+=+=+D.' % % % % P.=+=+=+=+=+=+=+=+=+=+=+=+=+=+=+w.= % % % ^ #+=+=+=+=+=+=+=+=+=+=+=+=+P.% % % x =+=+=+=+=+=+=+=+=+=+=+=+=+=+=+=+a.% % % % % C =+=+=+=+=+=+=+=+=+=+=+=+=+=+=+=+=+=+=+=+=+=+=+=+=+=+=+=+=+=+=+=+=+=+ +! % % % % n.=+=+=+=+=+=+=+=+=+=+=+=+=+=+=+=+=+=+=+=+=+=+=+=+=+=+=+=+=+=+=+=+=+=+=+=+=+=+=+=+=+=+=+=+=+=+=+=+=+=+=+R.- - - - - - - - - - -           - - - - - - -                                                                 ",
"      - - - - - - - - - - - - 8.=+=+=+=+=+=+=+=+=+=+=+=+=+=+=+=+=+=+=+=+=+=+ +4 % % % % % W.=+=+=+=+=+=+=+=+=+=+=+=+=+=+W.2 % % % % ` =+=+=+=+=+=+=+=+=+=+=+=+=+V % % % e =+=+=+=+=+=+=+=+=+=+=+=+=+=+=+O.( % % % % % r.=+=+=+=+=+=+=+=+=+=+=+=+=+=+=+=+=+=+=+=+=+=+=+=+=+=+=+=+=+=+=+=+=+=+^.% % % % b =+=+=+=+=+=+=+=+=+=+=+=+=+=+=+=+=+=+=+=+=+=+=+=+=+=+=+=+=+=+=+=+=+=+=+=+=+=+=+=+=+=+=+=+=+=+=+=+=+=+=+#+> - - - - - - - - - - -             - - - - - - -                                                               ",
"        - - - - - - - - - - - > =+=+=+=+=+=+=+=+=+=+=+=+=+=+=+=+=+=+=+=+=+ +f % % % % % % I.=+=+=+=+=+=+=+=+=+=+=+=+=+W.8 % % % % % G.=+=+=+=+=+=+=+=+=+=+=+=+M.= % % % ' #+=+=+=+=+=+=+=+=+=+=+=+=+=+h.{ % % % % % 7 =+=+=+=+=+=+=+=+=+=+=+=+=+=+=+=+=+=+=+=+=+=+=+=+=+=+=+=+=+=+=+=+=+=+=+2 % % % % 1.=+=+=+=+=+=+=+=+=+=+=+=+=+=+=+=+=+=+=+=+=+=+=+=+=+=+=+=+=+=+=+=+=+=+=+=+=+=+=+=+=+=+=+=+=+=+=+=+=+=+=+c - - - - - - - - - - -               - - - - - - - -                                                             ",
"        - - - - - - - - - - - - X.=+=+=+=+=+=+=+=+=+=+=+=+=+=+=+=+=+=+=+@+l % % % % % % % 7.=+=+=+=+=+=+=+=+=+=+=+=+r./ % % % % % % W.=+=+=+=+=+=+=+=+=+=+=+ +8 % % % % % e.=+=+=+=+=+=+=+=+=+=+=+#+ .& % % % % % % g =+=+=+=+=+=+=+=+=+=+=+=+=+=+=+=+=+=+=+=+=+=+=+=+=+=+=+=+=+=+=+=+=+=+h.% % % % ( #+=+=+=+=+=+=+=+=+=+=+=+=+=+=+=+=+=+=+=+=+=+=+=+=+=+=+=+=+=+=+=+=+=+=+=+=+=+=+=+=+=+=+=+=+=+=+=+=+=+=+=.- - - - - - - - - - -                   - - - - - - -                                                             ",
"        - - - - - - - - - - - - U =+=+=+=+=+=+=+=+=+=+=+=+=+=+=+=+=+=+ +g % % % % , % % % g =+=+=+=+=+=+=+=+=+=+P.H & % % % % % % % ;.=+=+=+=+=+=+=+=+=+=+W.j % % % % % % 8 #+=+=+=+=+=+=+=+=+=+7.< % % % % 8 q % % * r.=+=+=+=+=+=+=+=+=+=+=+=+=+=+=+=+=+=+=+=+=+=+=+=+=+=+=+=+=+=+=+=+=+m % % % % ,.=+=+=+=+=+=+=+=+=+=+=+=+=+=+=+=+=+=+=+=+=+=+=+=+=+=+=+=+=+=+=+=+=+=+=+=+=+=+=+=+=+=+=+=+=+=+=+=+=+=+E.- - - - - - - - - - - -                     - - - - - - -                                                           ",
"          - - - - - - - - - - - - #+=+=+=+=+=+=+=+=+=+=+=+=+=+=+=+=+D.7 % % % % e *.% % % % Y #+=+=+=+=+=+#+p.G = % % % % % b ; % % * ` W.=+=+=+=+=+=+=+a.^ % % % % % % % % v W.=+=+=+=+=+W.<.b % % % % % b W.'.% % % : A.=+=+=+=+=+=+=+=+=+=+=+=+=+=+=+=+=+=+=+=+=+=+=+=+=+=+=+=+=+=+=+D.% % % % '  +=+=+=+=+=+=+=+=+=+=+=+=+=+=+=+=+=+=+=+=+=+=+=+=+=+=+=+=+=+=+=+=+=+=+=+=+=+=+=+=+=+=+=+=+=+=+=+=+=+@+- - - - - - - - - - - -                       - - - - - - -                                                           ",
"          - - - - - - - - - - - - q.=+=+=+=+=+=+=+=+=+=+=+=+=+=+t.M ; % % % % [ O.W.{ % % % % [ S ].].#.v ] % % % % % % % b Q.7 % % % % * 8 t M <.e.#.: % % % % % ~.7 % % % % { N ].~.Y j = % % % % % % f  +=+t.% % % % * t *.e.=+=+=+=+=+=+=+=+=+=+=+=+=+=+=+=+=+=+=+=+=+=+=+=+=+=+=+=+N % % % % V =+=+#+P.x.p.b.7.7.[._.D.=+=+=+=+=+=+=+=+=+=+=+=+=+=+=+=+=+=+=+=+=+=+=+=+=+=+=+=+=+=+=+=+=+=+=+=+=+=+_ - - - - - - - - - - - -                         - - - - - - -                                                         ",
"            - - - - - - - - - - - h =+=+=+=+=+=+=+=+=+=+=+=+=+=+g % % % % % ( M.=+=+a.% % % % % % % % % % % % % % % % * V @+=+<.% % % % % % % % % % % % % % % % *.=+l.% % % % % % % % % % % % % % % % m  +=+=+=+7 % % % % % % % _.=+=+=+=+=+=+=+=+=+=+=+=+=+=+=+=+=+=+=+=+=+=+=+=+=+=+W.' % % % % V t < = % % % % % % % % /  +=+=+=+=+=+=+=+=+=+=+=+=+=+=+=+=+=+=+=+=+=+=+=+=+=+=+=+=+=+=+=+=+=+=+=+=+u - - - - - - - - - - - -                           - - - - - - -                                                         ",
"            - - - - - - - - - - - - R.=+=+=+=+=+=+=+=+=+=+=+=+=+< % % % % 2 I.=+=+=+=+].% % % % % % % % % % % % % % l u.=+=+=+=+Y % % % % % % % % % % % % % & *.=+=+=+V % % % % % % % % % % % % % & V #+=+=+=+=+D.2 % % % % % % f =+=+=+=+=+=+=+=+=+=+=+=+=+=+=+=+=+=+=+=+=+=+=+=+=+=+'.% % % % % % % % % % % % % % % % % % r.=+=+=+=+=+=+=+=+=+=+=+=+=+=+=+=+=+=+=+=+=+=+=+=+=+=+=+=+=+=+=+=+=+=+=+}.- - - - - - - - - - - -                               - - - - - - -                                                       ",
"              - - - - - - - - - - - R =+=+=+=+=+=+=+=+=+=+=+=+=+7 % % = Q  +=+=+=+=+=+=+e.( % % % % % % % % % ! H t.=+=+=+=+=+=+=+r.x ' % % % % % % % % % / h.=+=+=+=+=+[.b % % % % % % % % % & q t.=+=+=+=+=+=+=+ +#.' % % % % H =+=+=+=+=+=+=+=+=+=+=+=+=+=+=+=+=+=+=+=+=+=+=+=+=+#+( % % % % % % % % % % % % % % % % % * P.=+=+=+=+=+=+=+=+=+=+=+=+=+=+=+=+=+=+=+=+=+=+=+=+=+=+=+=+=+=+=+=+=+=+J.- - - - - - - - - - - - -                                 - - - - - -                                                       ",
"              - - - - - - - - - - - - #+=+=+=+=+=+=+=+=+=+=+=+=+&.q *.I.=+=+=+=+=+=+=+=+=+$+7.H f 8 j t S ].r.#+=+=+=+=+=+=+=+=+=+=+=+$+l.&.H q l b 8 m ]. +=+=+=+=+=+=+=+=+M.<.F 8 j x F ` 3.Q.=+=+=+=+=+=+=+=+=+=+=+ +7.N g S  +=+=+=+=+=+=+=+=+=+=+=+=+=+=+=+=+=+=+=+=+=+=+=+ +].< % % % % % % % % % % % % % % , ^ : 2 &.=+=+=+=+=+=+=+=+=+=+=+=+=+=+=+=+=+=+=+=+=+=+=+=+=+=+=+=+=+=+=+=+=+=+#+- - - - - - - - - - - - -                                   - - - - - - -                                                     ",
"              - - - - - - - - - - - - (.=+=+=+=+=+=+=+=+=+=+=+=+=+=+=+=+=+=+=+=+=+=+=+=+=+=+=+=+=+=+=+=+=+=+=+=+=+=+=+=+=+=+=+=+=+=+=+=+=+=+=+=+=+=+=+=+=+=+=+=+=+=+=+=+=+=+=+=+=+=+=+=+=+=+=+=+=+=+=+=+=+=+=+=+=+=+=+=+=+=+=+=+=+=+=+=+=+=+=+=+=+=+=+=+=+=+=+=+=+=+=+=+=+=+D.Q ' % % % % % % % % % ' g O ^.l.A. +=+=+=+=+=+=+=+=+=+=+=+=+=+=+=+=+=+=+=+=+=+=+=+=+=+=+=+=+=+=+=+=+=+=+=+=+=+=+#+} - - - - - - - - - - - -                                       - - - - - - -                                                   ",
"                - - - - - - - - - - - } #+=+=+=+=+=+=+=+=+=+=+=+=+=+=+=+=+=+=+=+=+=+=+=+=+=+=+=+=+=+=+=+=+=+=+=+=+=+=+=+=+=+=+=+=+=+=+=+=+=+=+=+=+=+=+=+=+=+=+=+=+=+=+=+=+=+=+=+=+=+=+=+=+=+=+=+=+=+=+=+=+=+=+=+=+=+=+=+=+=+=+=+=+=+=+=+=+=+=+=+=+=+=+=+=+=+=+=+=+=+=+=+M.G * % % % % % % % % 2 ].x.#+=+=+=+=+=+=+=+=+=+=+=+=+=+=+=+=+=+=+=+=+=+=+=+=+=+=+=+=+=+=+=+=+=+=+=+=+=+=+=+=+=+=+=+=+n - - - - - - - - - - - - -                                       - - - - - - -                                                   ",
"                - - - - - - - - - - - - 8.=+=+=+=+=+=+=+=+=+=+=+=+=+=+=+=+=+=+=+=+=+=+=+=+=+=+=+=+=+=+=+=+=+=+=+=+=+=+=+=+=+=+=+=+=+=+=+=+=+=+=+=+=+=+=+=+=+=+=+=+=+=+=+=+=+=+=+=+=+=+=+=+=+=+=+=+=+=+=+=+=+=+=+=+=+=+=+=+=+=+=+=+=+=+=+=+=+=+=+=+=+=+=+=+=+=+=+=+=+Q.Y ; % % % % % % % % % % e.=+=+=+=+=+=+=+=+=+-+-+-+-+-+-+-+-+-+-+-+-+-+-+-+-+-+-+-+=+=+=+=+=+=+=+=+=+=+=+=+=+=+=+=+=+=+..- - - - - - - - - - - - -                                           - - - - - - -                                                 ",
"                  - - - - - - - - - - - } #+=+=+=+=+=+=+=+=+=+=+=+=+=+=+=+=+=+=+=+=+=+=+=+=+=+=+=+=+=+=+=+=+=+=+=+=+=+=+=+=+=+=+=+=+=+=+=+=+=+=+=+=+=+=+=+=+=+=+=+=+=+=+=+=+=+=+=+=+=+=+=+=+=+=+=+=+=+=+=+=+=+=+=+=+=+=+=+=+=+=+=+=+=+=+=+=+=+=+=+=+=+=+=+=+=+=+#+'., % % % % % % % % % % % 2 =+=+=+=+=+=+=+=+=+=+-+-+-+-+-+-+-+-+-+-+-+-+-+-+-+-+-+-+-+=+=+=+=+=+=+=+=+=+=+=+=+=+=+=+=+=+8.- - - - - - - - - - - - -                                             - - - - - - -                                                 ",
"                  - - - - - - - - - - - - 2.=+=+=+=+=+=+=+=+=+=+=+=+=+=+=+=+=+=+=+=+=+=+=+=+=+=+=+=+=+=+=+=+=+=+=+=+=+=+=+=+=+=+=+=+=+=+=+=+=+=+=+=+=+=+=+=+=+=+=+=+=+=+=+=+=+=+=+=+=+=+=+=+=+=+=+=+=+=+=+=+=+=+=+=+=+=+=+=+=+=+=+=+=+=+=+=+=+=+=+=+=+=+=+=+=+r.4 % % % % % % 1 = % % % % % <.=+-+-+-+-+-+-+-+-+-+-+-+-+-+-+-+-+=+-+-+-+-+-+-+-+-+-+-+-+-+=+=+=+=+=+=+=+=+=+=+=+=+=+=+=+E.- - - - - - - - - - - - -                                                 - - - - - - -                                               ",
"                    - - - - - - - - - - - } #+=+=+=+=+=+=+=+=+=+=+=+=+=+=+=+=+=+=+=+=+=+=+=+=+=+=+=+=+=+=+=+=+=+=+=+=+=+=+=+=+=+=+=+=+=+=+=+=+=+=+=+=+=+=+=+=+=+=+=+=+=+=+=+=+=+=+=+=+=+=+=+=+=+=+=+=+=+=+=+=+=+=+=+=+=+=+=+=+=+=+=+=+=+=+=+=+=+=+=+=+=+=+ +M & % % % % % { ^.a.% % % % % ] #+=+-+-+-+-+-+-+-+-+-+-+-+-+-+-+-+-+=+-+-+-+-+-+-+-+-+-+-+-+-+=+=+=+=+=+=+=+=+=+=+=+=+=+=+V.- - - - - - - - - - - - - -                                                 - - - - - - -                                               ",
"                    - - - - - - - - - - - - }.=+=+=+=+=+=+=+=+=+=+=+=+=+=+=+=+=+=+=+=+=+=+=+=+=+=+=+=+=+=+=+=+=+=+=+=+=+=+=+=+=+=+=+=+=+=+=+=+=+=+=+=+=+=+=+=+=+=+=+=+=+=+=+=+=+=+=+=+=+=+=+=+=+=+=+=+=+=+=+=+=+=+=+=+=+=+=+=+=+=+=+=+=+=+=+=+=+=+=+=+=+t.< % % % % % & O Z.=+l % % % % % *.=+=+-+-+-+-+-+-+-+-+-+-+-+-+-+-+-+-+=+-+-+-+-+-+-+-+-+-+-+-+-+=+=+=+=+=+=+=+=+=+=+=+=+=+@+> - - - - - - - - - - - - -                                                     - - - - - - -                                             ",
"                      - - - - - - - - - - - ) @+=+=+=+=+=+=+=+=+=+=+=+=+=+=+=+=+=+=+=+=+=+=+=+=+=+=+=+=+=+=+=+=+=+=+=+=+=+=+=+=+=+=+=+=+=+=+=+=+=+=+=+=+=+=+=+=+=+=+=+=+=+=+=+=+=+=+=+=+=+=+=+=+=+=+=+=+=+=+=+=+=+=+=+=+=+=+=+=+=+=+=+=+=+=+=+=+=+=+=+~.= % % % % % < l.=+=+D.% % % % % ' W.=+=+-+4.. . . . . . . 6 -+-+-+-+-+-+=+-+4.. . . . . . . 6 -+-+=+=+=+=+=+=+=+=+=+=+=+=+#+} - - - - - - - - - - - - -                                                         - - - - - -                                             ",
"                      - - - - - - - - - - - - X =+=+=+=+=+=+=+=+=+=+=+=+=+=+=+=+=+=+=+=+=+=+=+=+=+=+=+=+=+=+=+=+=+=+=+=+=+=+=+=+=+=+=+=+=+=+=+=+=+=+=+=+=+=+=+=+=+=+=+=+=+=+=+=+=+=+=+=+=+=+=+=+=+=+=+=+=+=+=+=+=+=+=+=+=+=+=+=+=+=+=+=+=+=+=+=+=+ +m % % % % % % Q @+=+=+=+M % % % % % S =+=+=+-+4.. . . . . . . !.-+-+-+-+-+-+=+-+4.. . . . . . . !.-+-+=+=+=+=+=+=+=+=+=+=+=+#+c - - - - - - - - - - - - - -                                                         - - - - - - -                                           ",
"                        - - - - - - - - - - - - H.=+=+=+=+=+=+=+=+=+=+=+=+=+=+=+=+=+=+=+=+=+=+=+=+=+=+=+=+=+=+=+=+=+=+=+=+=+=+=+=+=+=+=+=+=+=+=+=+=+=+=+=+=+=+=+=+=+=+=+=+=+=+=+=+=+=+=+=+=+=+=+=+=+=+=+=+=+=+=+=+=+=+=+=+=+=+=+=+=+=+=+=+=+=+=+W.b % % % % % ! k.&+=+=+=+W., % % % % * M.=+=+=+-+-+-+-+-+-+-+i.. F.-+-+-+-+-+-+=+-+-+-+-+-+-+-+i.. F.-+-+=+=+=+=+=+=+=+=+=+=+=+E - - - - - - - - - - - - - -                                                             - - - - - -                                           ",
"                          - - - - - - - - - - - h =+=+=+=+=+=+=+=+=+=+=+=+=+=+=+=+=+=+=+=+=+=+=+=+=+=+=+=+=+=+=+=+=+=+=+=+=+=+=+=+=+=+=+=+=+=+=+=+=+=+=+=+=+=+=+=+=+=+=+=+=+=+=+=+=+=+=+=+=+=+=+=+=+=+=+=+=+=+=+=+=+=+=+=+=+=+=+=+=+=+=+=+=+=+I.< % % % % % 7 K.%+=+=+=+=+*.% % % % % B =+=+=+=+-+-+-+-+-+-+-+w p -+-+-+-+-+-+-+=+-+-+-+-+-+-+-+w p -+-+-+=+=+=+=+=+=+=+=+=+=+..- - - - - - - - - - - - - -                                                               - - - - - - -                                         ",
"                          - - - - - - - - - - - - c.=+=+=+=+=+=+=+=+=+=+=+=+=+=+=+=+=+=+=+=+=+=+=+=+=+=+=+=+=+=+=+=+=+=+=+=+=+=+=+=+=+=+=+=+=+=+=+=+=+=+=+=+=+=+=+=+=+=+=+=+=+=+=+=+=+=+=+=+=+=+=+=+=+=+=+=+=+=+=+=+=+=+=+=+=+=+=+=+=+=+=+=+D.] % % % % % t  +=+=+=+=+=+$+^ % % % % % u.=+=+=+=+-+-+-+-+-+-+F.. d.-+-+-+-+-+-+-+=+-+-+-+-+-+-+F.. d.-+-+-+=+=+=+=+=+=+=+=+=+>.- - - - - - - - - - - - - -                                                                   - - - - - -                                         ",
"                            - - - - - - - - - - - ) X.=+=+=+=+=+=+=+=+=+=+=+=+=+=+=+=+=+=+=+=+=+=+=+=+=+=+=+=+=+=+=+=+=+=+=+=+=+=+=+=+=+=+=+=+=+=+=+=+=+=+=+=+=+=+=+=+=+=+=+=+=+=+=+=+=+=+=+=+=+=+=+=+=+=+=+=+=+=+=+=+=+=+=+=+=+=+=+=+=+=+P.( % % % % % Q #+=+=+=+=+=+=+1.% % % % % g =+=+=+=+=+-+-+-+-+-+-+-.# .+-+-+-+-+-+-+-+=+-+-+-+-+-+-+-.# .+-+-+-+=+=+=+=+=+=+=+=+:.- - - - - - - - - - - - - - -                                                                   - - - - - - -                                       ",
"                            - - - - - - - - - - - - D =+=+=+=+=+=+=+=+=+=+=+=+=+=+=+=+=+=+=+=+=+=+=+=+=+=+=+=+=+=+=+=+=+=+=+=+=+=+=+=+=+=+=+=+=+=+=+=+=+=+=+=+=+=+=+=+=+=+=+=+=+=+=+=+=+=+=+=+=+=+=+=+=+=+=+=+=+=+=+=+=+=+=+=+=+=+=+=+=+#+d % % % % % V =+=+=+=+=+=+=+=+b % % % % % h.=+=+=+=+=+-+-+-+-+-+++$ $.-+-+-+-+-+-+-+-+=+-+-+-+-+-+++$ $.-+-+-+-+=+=+=+=+=+=+=+c.- - - - - - - - - - - - - - -                                                                       - - - - - - -                                     ",
"                              - - - - - - - - - - - - 9.=+=+=+=+=+=+=+=+=+=+=+=+=+=+=+=+=+=+=+=+=+=+=+=+=+=+=+=+=+=+=+=+=+=+=+=+=+=+=+=+=+=+=+=+=+=+=+=+=+=+=+=+=+=+=+=+=+=+=+=+=+=+=+=+=+=+=+=+=+=+=+=+=+=+=+=+=+=+=+=+=+=+=+=+=+=+=+=+Y % % % % % V =+=+=+=+=+=+=+=+r.% % % % % 4 =+=+=+=+=+=+-+-+-+-+-+d.. z.-+-+-+-+-+-+-+-+=+-+-+-+-+-+d.. z.-+-+-+-+=+=+=+=+=+=+m.- - - - - - - - - - - - - - -                                                                         - - - - - - -                                     ",
"                              - - - - - - - - - - - - > U.=+=+=+=+=+=+=+=+=+=+=+=+=+=+=+=+=+=+=+=+=+=+=+=+=+=+=+=+=+=+=+=+=+=+=+=+=+=+=+=+=+=+=+=+=+=+=+=+=+=+=+=+=+=+=+=+=+=+=+=+=+=+=+=+=+=+=+=+=+=+=+=+=+=+=+=+=+=+=+=+=+=+=+=+=+=+w.= % % % % x #+=+=+=+=+=+=+=+=+y % % % % % [.=+=+=+=+=+=+-+-+-+-+-+k 0 *+-+-+-+-+-+-+-+-+=+-+-+-+-+-+k 0 *+-+-+-+-+=+=+=+=+=+o.- - - - - - - - - - - - - - -                                                                             - - - - - - -                                   ",
"                                - - - - - - - - - - - - u #+=+=+=+=+=+=+=+=+=+=+=+=+=+=+=+=+=+=+=+=+=+=+=+=+=+=+=+=+=+=+=+=+=+=+=+=+=+=+=+=+=+=+=+=+=+=+=+=+=+=+=+=+=+=+=+=+=+=+=+=+=+=+=+=+=+=+=+=+=+=+=+=+=+=+=+=+=+=+=+=+=+=+=+=+=+g % % % % 8  +=+=+=+=+=+=+=+=+O.= % % % % ^ #+=+=+=+=+=+=+-+-+-+-+C.. 4.-+-+-+-+-+-+-+-+-+=+-+-+-+-+C.. 4.-+-+-+-+-+=+=+=+=+o.- - - - - - - - - - - - - - - -                                                                             - - - - - - -                                   ",
"                                  - - - - - - - - - - - - =.=+=+=+=+=+=+=+=+=+=+=+=+=+=+=+=+=+=+=+=+=+=+=+=+=+=+=+=+=+=+=+=+=+=+=+=+=+=+=+=+=+=+=+=+=+=+=+=+=+=+=+=+=+=+=+=+=+=+=+=+=+=+=+=+=+=+=+=+=+=+=+=+=+=+=+=+=+=+=+=+=+=+=+=+t.% % % % ; D.=+=+=+=+=+=+=+=+=+Z % % % % % ;.=+=+=+=+=+=+=+-+-+-+-+$.+ T.-+-+-+-+-+-+-+-+-+=+-+-+-+-+$.+ T.-+-+-+-+-+=+=+=+=+- - - - - - - - - - - - - - - -                                                                                 - - - - - - -                                 ",
"                                  - - - - - - - - - - - - - m.=+=+=+=+=+=+=+=+=+=+=+=+=+=+=+=+=+=+=+=+=+=+=+=+=+=+=+=+=+=+=+=+=+=+=+=+=+=+=+=+=+=+=+=+=+=+=+=+=+=+=+=+=+=+=+=+=+=+=+=+=+=+=+=+=+=+=+=+=+=+=+=+=+=+=+=+=+=+=+=+=+=+=+O % % % % '.=+=+=+=+=+=+=+=+=+ +! % % % % ' W.=+=+=+=+=+=+=+-+-+-+Y.@ T -+-+-+-+-+-+++. J -+=+-+-+-+Y.@ T -+-+-+-+-+-+=+=+=+- - - - - - - - - - - - - - - -                                                                                   - - - - - - -                                 ",
"                                    - - - - - - - - - - - - > R.=+=+=+=+=+=+=+=+=+=+=+=+=+=+=+=+=+=+=+=+=+=+=+=+=+=+=+=+=+=+=+=+=+=+=+=+=+=+=+=+=+=+=+=+=+=+=+=+=+=+=+=+=+=+=+=+=+=+=+=+=+=+=+=+=+=+=+=+=+=+=+=+=+=+=+=+=+=+=+=+=+=+[ % % % / $+=+=+=+=+=+=+=+=+=+).% % % % % V =+=+=+=+=+=+=+=+-+-+-+6.. s.-+-+-+-+-+-+++. J -+=+-+-+-+6.. s.-+-+-+-+-+-+=+=+- - - - - - - - - - - - - - - -                                                                                       - - - - - - -                               ",
"                                      - - - - - - - - - - - - c #+=+=+=+=+=+=+=+=+=+=+=+=+=+=+=+=+=+=+=+=+=+=+=+=+=+=+=+=+=+=+=+=+=+=+=+=+=+=+=+=+=+=+=+=+=+=+=+=+=+=+=+=+=+=+=+=+=+=+=+=+=+=+=+=+=+=+=+=+=+=+=+=+=+=+=+=+=+=+=+=+W.% % % % '.=+=+=+=+=+=+=+=+=+#+/ % % % % = O.=+=+=+=+=+=+=+=+-+-+-+-+-+-+-+-+-+-+-+-+-+-+-+-+=+-+-+-+-+-+-+-+-+-+-+-+-+=+- - - - - - - - - - - - - - - -                                                                                         - - - - - - -                               ",
"                                      - - - - - - - - - - - - - A =+=+=+=+=+=+=+=+=+=+=+=+=+=+=+=+=+=+=+=+=+=+=+=+=+=+=+=+=+=+=+=+=+=+=+=+=+=+=+=+=+=+=+=+=+=+=+=+=+=+=+=+=+=+=+=+=+=+=+=+=+=+=+=+=+=+=+=+=+=+=+=+=+=+=+=+=+=+=+=+[.% % % % P.=+=+=+=+=+=+=+=+=+<.% % % % % C =+=+=+=+=+=+=+=+=+-+-+-+-+-+-+-+-+-+-+-+-+-+-+-+-+=+-+-+-+-+-+-+-+-+-+-+-+-+- - - - - - - - - - - - - - - - -                                                                                           - - - - - - -                             ",
"                                        - - - - - - - - - - - - - ..=+=+=+=+=+=+=+=+=+=+=+=+=+=+=+=+=+=+=+=+=+=+=+=+=+=+=+=+=+=+=+=+=+=+=+=+=+=+=+=+=+=+=+=+=+=+=+=+=+=+=+=+=+=+=+=+=+=+=+=+=+=+=+=+=+=+=+=+=+=+=+=+=+=+=+=+=+=+=+B % % % 1 =+=+=+=+=+=+=+=+=+#+1 % % % % % w.=+=+=+=+=+=+=+=+=+=+=+=+=+=+=+=+=+=+-+-+-+-+-+-+-+-+-+-+-+-+-+-+-+-+-+-+-+- - - - - - - - - - - - - - - - -                                                                                               - - - - - -                             ",
"                                          - - - - - - - - - - - - - /.=+=+=+=+=+=+=+=+=+=+=+=+=+=+=+=+=+=+=+=+=+=+=+=+=+=+=+=+=+=+=+=+=+=+=+=+=+=+=+=+=+=+=+=+=+=+=+=+=+=+=+=+=+=+=+=+=+=+=+=+=+=+=+=+=+=+=+=+=+=+=+=+=+=+=+=+=+=+[ % % % H =+=+=+=+=+=+=+=+=+7.% % % % % l =+=+=+=+=+=+=+=+=+=+=+=+=+=+=+=+=+=+=+=+=+=+=+=+=+=+=+=+=+=+=+=+=+=+=+#+P - - - - - - - - - - - - - - - - -                                                                                                 - - - - - - -                           ",
"                                          - - - - - - - - - - - - - - f.=+=+=+=+=+=+=+=+=+=+=+=+=+=+=+=+=+=+=+=+=+=+=+=+=+=+=+=+=+=+=+=+=+=+=+=+=+=+=+=+=+=+=+=+=+=+=+=+=+=+=+=+=+=+=+=+=+=+=+=+=+=+=+=+=+=+=+=+=+=+=+=+=+=+=+=+ +% % % % ].=+=+=+=+=+=+=+=+=+b % % % % % r.=+=+=+=+=+=+=+=+=+=+=+=+=+=+=+=+=+=+=+=+=+=+=+=+=+=+=+=+=+=+=+=+=+=+#+z - - - - - - - - - - - - - - - - -                                                                                                     - - - - - -                           ",
"                                            - - - - - - - - - - - - - - o.=+=+=+=+=+=+=+=+=+=+=+=+=+=+=+=+=+=+=+=+=+=+=+=+=+=+=+=+=+=+=+=+=+=+=+=+=+=+=+=+=+=+=+=+=+=+=+=+=+=+=+=+=+=+=+=+=+=+=+=+=+=+=+=+=+=+=+=+=+=+=+=+=+=+=+A.% % % % r.=+=+=+=+=+=+=+=+j.% % % % % m =+=+=+=+=+=+=+=+=+=+=+=+=+=+=+=+=+=+=+=+=+=+=+=+=+=+=+=+=+=+=+=+=+=+#+h - - - - - - - - - - - - - - - - -                                                                                                       - - - - - - -                         ",
"                                              - - - - - - - - - - - - - - o.=+=+=+=+=+=+=+=+=+=+=+=+=+=+=+=+=+=+=+=+=+=+=+=+=+=+=+=+=+=+=+=+=+=+=+=+=+=+=+=+=+=+=+=+=+=+=+=+=+=+=+=+=+=+=+=+=+=+=+=+=+=+=+=+=+=+=+=+=+=+=+=+=+=+j.% % % % Q.=+=+=+=+=+=+=+=+j % % % % % r.=+=+=+=+=+=+=+=+=+=+=+=+=+=+=+=+=+=+=+=+=+=+=+=+=+=+=+=+=+=+=+=+=+V.5 - - - - - - - - - - - - - - - - -                                                                                                           - - - - - -                         ",
"                                              - - - - - - - - - - - - - - - o.=+=+=+=+=+=+=+=+=+=+=+=+=+=+=+=+=+=+=+=+=+=+=+=+=+=+=+=+=+=+=+=+=+=+=+=+=+=+=+=+=+=+=+=+=+=+=+=+=+=+=+=+=+=+=+=+=+=+=+=+=+=+=+=+=+=+=+=+=+=+=+=+=+1.% % % ; =+=+=+=+=+=+=+=+t.% % % % % o =+=+=+=+=+=+=+=+=+=+=+=+=+=+=+=+=+=+=+=+=+=+=+=+=+=+=+=+=+=+=+=+=+H._ - - - - - - - - - - - - - - - - - -                                                                                                           - - - - - - -                       ",
"                                                - - - - - - - - - - - - - - - o.=+=+=+=+=+=+=+=+=+=+=+=+=+=+=+=+=+=+=+=+=+=+=+=+=+=+=+=+=+=+=+=+=+=+=+=+=+=+=+=+=+=+=+=+=+=+=+=+=+=+=+=+=+=+=+=+=+=+=+=+=+=+=+=+=+=+=+=+=+=+=+=+[.% % % [ =+=+=+=+=+=+=+=+v % % % % & w.=+=+=+=+=+=+=+=+=+=+=+=+=+=+=+=+=+=+=+=+=+=+=+=+=+=+=+=+=+=+=+=+f.- - - - - - - - - - - - - - - - - - -                                                                                                               - - - - - -                       ",
"                                                  - - - - - - - - - - - - - - - c.=+=+=+=+=+=+=+=+=+=+=+=+=+=+=+=+=+=+=+=+=+=+=+=+=+=+=+=+=+=+=+=+=+=+=+=+=+=+=+=+=+=+=+=+=+=+=+=+=+=+=+=+=+=+=+=+=+=+=+=+=+=+=+=+=+=+=+=+=+=+=+_.% % % 7 =+=+=+=+=+=+=+t.% % % % % G =+=+=+=+=+=+=+=+=+=+=+=+=+=+=+=+=+=+=+=+=+=+=+=+=+=+=+=+=+=+=+=+=.- - - - - - - - - - - - - - - - - - -                                                                                                                 - - - - - - -                     ",
"                                                    - - - - - - - - - - - - - - - /.=+=+=+=+=+=+=+=+=+=+=+=+=+=+=+=+=+=+=+=+=+=+=+=+=+=+=+=+=+=+=+=+=+=+=+=+=+=+=+=+=+=+=+=+=+=+=+=+=+=+=+=+=+=+=+=+=+=+=+=+=+=+=+=+=+=+=+=+=+=+_.% % % b =+=+=+=+=+=+=+m % % % % ; K.=+=+=+=+=+=+=+=+=+=+=+=+=+=+=+=+=+=+=+=+=+=+=+=+=+=+=+=+=+=+@+z - - - - - - - - - - - - - - - - - - -                                                                                                                     - - - - - -                     ",
"                                                      - - - - - - - - - - - - - - - U #+=+=+=+=+=+=+=+=+=+=+=+=+=+=+=+=+=+=+=+=+=+=+=+=+=+=+=+=+=+=+=+=+=+=+=+=+=+=+=+=+=+=+=+=+=+=+=+=+=+=+=+=+=+=+=+=+=+=+=+=+=+=+=+=+=+=+=+=+1.% % % 1 =+=+=+=+=+=+p.% % % % % Z =+=+=+=+=+=+=+=+=+=+=+=+=+=+=+=+=+=+=+=+=+=+=+=+=+=+=+=+=+=+R.5 - - - - - - - - - - - - - - - - - - -                                                                                                                       - - - - - - -                   ",
"                                                      - - - - - - - - - - - - - - - - D #+=+=+=+=+=+=+=+=+=+=+=+=+=+=+=+=+=+=+=+=+=+=+=+=+=+=+=+=+=+=+=+=+=+=+=+=+=+=+=+=+=+=+=+=+=+=+=+=+=+=+=+=+=+=+=+=+=+=+=+=+=+=+=+=+=+=+=+e.% % % ! =+=+=+=+=+#+b % % % % { W.=+=+=+=+=+=+=+=+=+=+=+=+=+=+=+=+=+=+=+=+=+=+=+=+=+=+=+=+=+g.> - - - - - - - - - - - - - - - - - - -                                                                                                                           - - - - - -                   ",
"                                                        - - - - - - - - - - - - - - - - 5 R.=+=+=+=+=+=+=+=+=+=+=+=+=+=+=+=+=+=+=+=+=+=+=+=+=+=+=+=+=+=+=+=+=+=+=+=+=+=+=+=+=+=+=+=+=+=+=+=+=+=+=+=+=+=+=+=+=+=+=+=+=+=+=+=+=+=+D.% % % & W.=+=+=+=+<.% % % % % _.=+=+=+=+=+=+=+=+=+=+=+=+=+=+=+=+=+=+=+=+=+=+=+=+=+=+=+=+#+@.- - - - - - - - - - - - - - - - - - - -                                                                                                                             - - - - - - -                 ",
"                                                          - - - - - - - - - - - - - - - - > m.=+=+=+=+=+=+=+=+=+=+=+=+=+=+=+=+=+=+=+=+=+=+=+=+=+=+=+=+=+=+=+=+=+=+=+=+=+=+=+=+=+=+=+=+=+=+=+=+=+=+=+=+=+=+=+=+=+=+=+=+=+=+=+=+=+#+; % % % <.=+=+=+Q.{ % % % % e #+=+=+=+=+=+=+=+=+=+=+=+=+=+=+=+=+=+=+=+=+=+=+=+=+=+=+=+R.c - - - - - - - - - - - - - - - - - - - -                                                                                                                                 - - - - - -                 ",
"                                                            - - - - - - - - - - - - - - - - - =.=+=+=+=+=+=+=+=+=+=+=+=+=+=+=+=+=+=+=+=+=+=+=+=+=+=+=+=+=+=+=+=+=+=+=+=+=+=+=+=+=+=+=+=+=+=+=+=+=+=+=+=+=+=+=+=+=+=+=+=+=+=+=+=+=+q % % % / Q.=+#+m % % % % , D.=+=+=+=+=+=+=+=+=+=+=+=+=+=+=+=+=+=+=+=+=+=+=+=+=+=+=+c.> - - - - - - - - - - - - - - - - - - - -                                                                                                                                   - - - - - - -               ",
"                                                              - - - - - - - - - - - - - - - - - h U.=+=+=+=+=+=+=+=+=+=+=+=+=+=+=+=+=+=+=+=+=+=+=+=+=+=+=+=+=+=+=+=+=+=+=+=+=+=+=+=+=+=+=+=+=+=+=+=+=+=+=+=+=+=+=+=+=+=+=+=+=+=+=+[.% % % % { N o % % % % % 1.=+=+=+=+=+=+=+=+=+=+=+=+=+=+=+=+=+=+=+=+=+=+=+=+=+=+@+P - - - - - - - - - - - - - - - - - - - - -                                                                                                                                       - - - - - -               ",
"                                                                - - - - - - - - - - - - - - - - - > 5.=+=+=+=+=+=+=+=+=+=+=+=+=+=+=+=+=+=+=+=+=+=+=+=+=+=+=+=+=+=+=+=+=+=+=+=+=+=+=+=+=+=+=+=+=+=+=+=+=+=+=+=+=+=+=+=+=+=+=+=+=+=+#+1 % % % % % % % % % % &.=+=+=+=+=+=+=+=+=+=+=+=+=+=+=+=+=+=+=+=+=+=+=+=+=+=+q.} - - - - - - - - - - - - - - - - - - - - -                                                                                                                                         - - - - - - -             ",
"                                                                  - - - - - - - - - - - - - - - - - - A  +=+=+=+=+=+=+=+=+=+=+=+=+=+=+=+=+=+=+=+=+=+=+=+=+=+=+=+=+=+=+=+=+=+=+=+=+=+=+=+=+=+=+=+=+=+=+=+=+=+=+=+=+=+=+=+=+=+=+=+=+=+w.' % % % % % % % & ;.=+=+=+=+=+=+=+=+=+=+=+=+=+=+=+=+=+=+=+=+=+=+=+=+=+ +W - - - - - - - - - - - - - - - - - - - - - -                                                                                                                                             - - - - - -             ",
"                                                                    - - - - - - - - - - - - - - - - - - ) 5.=+=+=+=+=+=+=+=+=+=+=+=+=+=+=+=+=+=+=+=+=+=+=+=+=+=+=+=+=+=+=+=+=+=+=+=+=+=+=+=+=+=+=+=+=+=+=+=+=+=+=+=+=+=+=+=+=+=+=+=+=+u.7 % % % % % 1 h.=+=+=+=+=+=+=+=+=+=+=+=+=+=+=+=+=+=+=+=+=+=+=+=+=+f.} - - - - - - - - - - - - - - - - - - - - - -                                                                                                                                               - - - - - - -           ",
"                                                                    - - - - - - - - - - - - - - - - - - - - c H.=+=+=+=+=+=+=+=+=+=+=+=+=+=+=+=+=+=+=+=+=+=+=+=+=+=+=+=+=+=+=+=+=+=+=+=+=+=+=+=+=+=+=+=+=+=+=+=+=+=+=+=+=+=+=+=+=+=+=+=+=+r.'.S #.h.#+=+=+=+=+=+=+=+=+=+=+=+=+=+=+=+=+=+=+=+=+=+=+=+=+R.E - - - - - - - - - - - - - - - - - - - - - - -                                                                                                                                                   - - - - - - -         ",
"                                                                      - - - - - - - - - - - - - - - - - - - - - X @+=+=+=+=+=+=+=+=+=+=+=+=+=+=+=+=+=+=+=+=+=+=+=+=+=+=+=+=+=+=+=+=+=+=+=+=+=+=+=+=+=+=+=+=+=+=+=+=+=+=+=+=+=+=+=+=+=+=+=+=+=+=+=+=+=+=+=+=+=+=+=+=+=+=+=+=+=+=+=+=+=+=+=+=+=+=+=+@+=.> - - - - - - - - - - - - - - - - - - - - - - -                                                                                                                                                     - - - - - - -         ",
"                                                                        - - - - - - - - - - - - - - - - - - - - - > =.#+=+=+=+=+=+=+=+=+=+=+=+=+=+=+=+=+=+=+=+=+=+=+=+=+=+=+=+=+=+=+=+=+=+=+=+=+=+=+=+=+=+=+=+=+=+=+=+=+=+=+=+=+=+=+=+=+=+=+=+=+=+=+=+=+=+=+=+=+=+=+=+=+=+=+=+=+=+=+=+=+=+=+=+=+c.} - - - - - - - - - - - - - - - - - - - - - - - -                                                                                                                                                         - - - - - - -       ",
"                                                                          - - - - - - - - - - - - - - - - - - - - - - } 2.#+=+=+=+=+=+=+=+=+=+=+=+=+=+=+=+=+=+=+=+=+=+=+=+=+=+=+=+=+=+=+=+=+=+=+=+=+=+=+=+=+=+=+=+=+=+=+=+=+=+=+=+=+=+=+=+=+=+=+=+=+=+=+=+=+=+=+=+=+=+=+=+=+=+=+=+=+=+=+=+=+g.9 - - - - - - - - - - - - - - - - - - - - - - - - -                                                                                                                                                           - - - - - - -       ",
"                                                                            - - - - - - - - - - - - - - - - - - - - - - - 3 9.#+=+=+=+=+=+=+=+=+=+=+=+=+=+=+=+=+=+=+=+=+=+=+=+=+=+=+=+=+=+=+=+=+=+=+=+=+=+=+=+=+=+=+=+=+=+=+=+=+=+=+=+=+=+=+=+=+=+=+=+=+=+=+=+=+=+=+=+=+=+=+=+=+=+=+=+=+f.9 - - - - - - - - - - - - - - - - - - - - - - - - - -                                                                                                                                                               - - - - - - -     ",
"                                                                                - - - - - - - - - - - - - - - - - - - - - - - } /.@+=+=+=+=+=+=+=+=+=+=+=+=+=+=+=+=+=+=+=+=+=+=+=+=+=+=+=+=+=+=+=+=+=+=+=+=+=+=+=+=+=+=+=+=+=+=+=+=+=+=+=+=+=+=+=+=+=+=+=+=+=+=+=+=+=+=+=+=+=+=+=+@+|.5 - - - - - - - - - - - - - - - - - - - - - - - - - - -                                                                                                                                                                 - - - - - - -     ",
"                                                                                  - - - - - - - - - - - - - - - - - - - - - - - - > ..R.=+=+=+=+=+=+=+=+=+=+=+=+=+=+=+=+=+=+=+=+=+=+=+=+=+=+=+=+=+=+=+=+=+=+=+=+=+=+=+=+=+=+=+=+=+=+=+=+=+=+=+=+=+=+=+=+=+=+=+=+=+=+=+=+=+=+=+J.X > - - - - - - - - - - - - - - - - - - - - - - - - - - - -                                                                                                                                                                     - - - - - - -   ",
"                                                                                    - - - - - - - - - - - - - - - - - - - - - - - - - - r 9.#+=+=+=+=+=+=+=+=+=+=+=+=+=+=+=+=+=+=+=+=+=+=+=+=+=+=+=+=+=+=+=+=+=+=+=+=+=+=+=+=+=+=+=+=+=+=+=+=+=+=+=+=+=+=+=+=+=+=+=+=+=+R./.c - - - - - - - - - - - - - - - - - - - - - - - - - - - - -                                                                                                                                                                         - - - - - - -   ",
"                                                                                      - - - - - - - - - - - - - - - - - - - - - - - - - - - ) W y.=+=+=+=+=+=+=+=+=+=+=+=+=+=+=+=+=+=+=+=+=+=+=+=+=+=+=+=+=+=+=+=+=+=+=+=+=+=+=+=+=+=+=+=+=+=+=+=+=+=+=+=+=+=+=+#+v.%.9 - - - - - - - - - - - - - - - - - - - - - - - - - - - - - - -                                                                                                                                                                             - - - - - - - ",
"                                                                                        - - - - - - - - - - - - - - - - - - - - - - - - - - - - - } P g.#+=+=+=+=+=+=+=+=+=+=+=+=+=+=+=+=+=+=+=+=+=+=+=+=+=+=+=+=+=+=+=+=+=+=+=+=+=+=+=+=+=+=+=+=+=+=+=+`.g.@.r > - - - - - - - - - - - - - - - - - - - - - - - - - - - - - - - - -                                                                                                                                                                                 - - - - - - ",
"                                                                                          - - - - - - - - - - - - - - - - - - - - - - - - - - - - - - - ) I 2.J.=+=+=+=+=+=+=+=+=+=+=+=+=+=+=+=+=+=+=+=+=+=+=+=+=+=+=+=+=+=+=+=+=+=+=+=+=+=+#+N.g.>.E } - - - - - - - - - - - - - - - - - - - - - - - - - - - - - - - - - - - - -                                                                                                                                                                                   - - - - - - ",
"                                                                                              - - - - - - - - - - - - - - - - - - - - - - - - - - - - - - - - - _ r X 2.q.R.=+=+=+=+=+=+=+=+=+=+=+=+=+=+=+=+=+=+=+=+=+=+=+=+#+X.H.q.|.W r } - - - - - - - - - - - - - - - - - - - - - - - - - - - - - - - - - - - - - - - - -                                                                                                                                                                                         - - - - - ",
"                                                                                                - - - - - - - - - - - - - - - - - - - - - - - - - - - - - - - - - - - - - - - } c u I P X X =.=./.(.(./.=.=.X W I I z c | > - - - - - - - - - - - - - - - - - - - - - - - - - - - - - - - - - - - - - - - - - - - - - - - -                                                                                                                                                                                           - - - - - ",
"                                                                                                  - - - - - - - - - - - - - - - - - - - - - - - - - - - - - - - - - - - - - - - - - - - - - - - - - - - - - - - - - - - - - - - - - - - - - - - - - - - - - - - - - - - - - - - - - - - - - - - - - - - - - - - - - - - -                                                                                                                                                                                               - - -   ",
"                                                                                                      - - - - - - - - - - - - - - - - - - - - - - - - - - - - - - - - - - - - - - - - - - - - - - - - - - - - - - - - - - - - - - - - - - - - - - - - - - - - - - - - - - - - - - - - - - - - - - - - - - - - - - - -                                                                                                                                                                                                   - - -   ",
"                                                                                                        - - - - - - - - - - - - - - - - - - - - - - - - - - - - - - - - - - - - - - - - - - - - - - - - - - - - - - - - - - - - - - - - - - - - - - - - - - - - - - - - - - - - - - - - - - - - - - - - - - - - - -                                                                                                                                                                                                             ",
"                                                                                                            - - - - - - - - - - - - - - - - - - - - - - - - - - - - - - - - - - - - - - - - - - - - - - - - - - - - - - - - - - - - - - - - - - - - - - - - - - - - - - - - - - - - - - - - - - - - - - - - - -                                                                                                                                                                                                                 ",
"                                                                                                              - - - - - - - - - - - - - - - - - - - - - - - - - - - - - - - - - - - - - - - - - - - - - - - - - - - - - - - - - - - - - - - - - - - - - - - - - - - - - - - - - - - - - - - - - - - - - - - -                                                                                                                                                                                                                   ",
"                                                                                                                  - - - - - - - - - - - - - - - - - - - - - - - - - - - - - - - - - - - - - - - - - - - - - - - - - - - - - - - - - - - - - - - - - - - - - - - - - - - - - - - - - - - - - - - - - - - -                                                                                                                                                                                                                       ",
"                                                                                                                    - - - - - - - - - - - - - - - - - - - - - - - - - - - - - - - - - - - - - - - - - - - - - - - - - - - - - - - - - - - - - - - - - - - - - - - - - - - - - - - - - - - - - - - - - -                                                                                                                                                                                                                         ",
"                                                                                                                        - - - - - - - - - - - - - - - - - - - - - - - - - - - - - - - - - - - - - - - - - - - - - - - - - - - - - - - - - - - - - - - - - - - - - - - - - - - - - - - - - - - - - -                                                                                                                                                                                                                             ",
"                                                                                                                            - - - - - - - - - - - - - - - - - - - - - - - - - - - - - - - - - - - - - - - - - - - - - - - - - - - - - - - - - - - - - - - - - - - - - - - - - - - - - - - - - -                                                                                                                                                                                                                                 ",
"                                                                                                                                - - - - - - - - - - - - - - - - - - - - - - - - - - - - - - - - - - - - - - - - - - - - - - - - - - - - - - - - - - - - - - - - - - - - - - - - - - - - - -                                                                                                                                                                                                                                     ",
"                                                                                                                                    - - - - - - - - - - - - - - - - - - - - - - - - - - - - - - - - - - - - - - - - - - - - - - - - - - - - - - - - - - - - - - - - - - - - - - - - - -                                                                                                                                                                                                                                         ",
"                                                                                                                                        - - - - - - - - - - - - - - - - - - - - - - - - - - - - - - - - - - - - - - - - - - - - - - - - - - - - - - - - - - - - - - - - - - - - - -                                                                                                                                                                                                                                             ",
"                                                                                                                                              - - - - - - - - - - - - - - - - - - - - - - - - - - - - - - - - - - - - - - - - - - - - - - - - - - - - - - - - - - - - - - - - -                                                                                                                                                                                                                                                 ",
"                                                                                                                                                  - - - - - - - - - - - - - - - - - - - - - - - - - - - - - - - - - - - - - - - - - - - - - - - - - - - - - - - - - - - -                                                                                                                                                                                                                                                       ",
"                                                                                                                                                        - - - - - - - - - - - - - - - - - - - - - - - - - - - - - - - - - - - - - - - - - - - - - - - - - - - - - - -                                                                                                                                                                                                                                                           ",
"                                                                                                                                                              - - - - - - - - - - - - - - - - - - - - - - - - - - - - - - - - - - - - - - - - - - - - - - - - -                                                                                                                                                                                                                                                                 ",
"                                                                                                                                                                      - - - - - - - - - - - - - - - - - - - - - - - - - - - - - - - - - - - - - - - - -                                                                                                                                                                                                                                                                         ",
"                                                                                                                                                                                - - - - - - - - - - - - - - - - - - - - - - - - - - - - - - - -                                                                                                                                                                                                                                                                                 ",
"                                                                                                                                                                                              - - - - - - - - - - - - - - - - - -                                                                                                                                                                                                                                                                                               "};
