/* XPM */
static char * adJ_8bpp_xpm[] = {
"256 185 255 2",
"  	c None",
". 	c #000000",
"+ 	c #020202",
"@ 	c #040404",
"# 	c #0D0D0D",
"$ 	c #111111",
"% 	c #1C1C1C",
"& 	c #232323",
"* 	c #2E2E2E",
"= 	c #741F04",
"- 	c #752005",
"; 	c #762106",
"> 	c #772207",
", 	c #DC0501",
"' 	c #DC0602",
") 	c #DC0703",
"! 	c #DC0804",
"~ 	c #762808",
"{ 	c #DC0905",
"] 	c #DD0A0C",
"^ 	c #DC0B07",
"/ 	c #DC0C08",
"( 	c #792B0B",
"_ 	c #7A2C0C",
": 	c #DE0E16",
"< 	c #DC100C",
"[ 	c #DC100D",
"} 	c #DC110E",
"| 	c #7D2F15",
"1 	c #DC1412",
"2 	c #852F19",
"3 	c #803117",
"4 	c #DC1513",
"5 	c #DC1613",
"6 	c #DC1614",
"7 	c #83331A",
"8 	c #DC1A18",
"9 	c #85351B",
"0 	c #DC1B19",
"a 	c #86361C",
"b 	c #DC1D1B",
"c 	c #873723",
"d 	c #DC1F16",
"e 	c #DC1F1D",
"f 	c #DD2120",
"g 	c #863C24",
"h 	c #8B3B26",
"i 	c #DD2221",
"j 	c #873D25",
"k 	c #DD2321",
"l 	c #DD2524",
"m 	c #E02520",
"n 	c #DD2725",
"o 	c #E12627",
"p 	c #DD2827",
"q 	c #874327",
"r 	c #DD2928",
"s 	c #8D432A",
"t 	c #E32A29",
"u 	c #90452C",
"v 	c #E42B30",
"w 	c #914733",
"x 	c #DD3231",
"y 	c #934935",
"z 	c #E72F37",
"A 	c #DD3332",
"B 	c #DD3433",
"C 	c #5A5A5A",
"D 	c #DD3534",
"E 	c #DD3635",
"F 	c #5C5C5C",
"G 	c #E33631",
"H 	c #944F38",
"I 	c #E43738",
"J 	c #96513A",
"K 	c #98523B",
"L 	c #995442",
"M 	c #DE4140",
"N 	c #9B5644",
"O 	c #DE4342",
"P 	c #E54241",
"Q 	c #E64341",
"R 	c #9F5946",
"S 	c #686868",
"T 	c #E54544",
"U 	c #9C5C47",
"V 	c #DE4848",
"W 	c #9D5D48",
"X 	c #DF4949",
"Y 	c #E94649",
"Z 	c #DF4A49",
"` 	c #9F5F4A",
" .	c #A0604B",
"..	c #6E6E6E",
"+.	c #E64C49",
"@.	c #A2624D",
"#.	c #A36353",
"$.	c #E94E4B",
"%.	c #717171",
"&.	c #A06654",
"*.	c #727272",
"=.	c #A56555",
"-.	c #A36957",
";.	c #E75552",
">.	c #ED5355",
",.	c #A66C59",
"'.	c #A86E5B",
").	c #E75C55",
"!.	c #EC5B5D",
"~.	c #E85D5A",
"{.	c #AC715E",
"].	c #A9745F",
"^.	c #A87564",
"/.	c #EB615E",
"(.	c #B07668",
"_.	c #EE656D",
":.	c #A97C69",
"<.	c #AF7B6B",
"[.	c #B07C6C",
"}.	c #EA6E69",
"|.	c #B37F6E",
"1.	c #EA6F70",
"2.	c #B4806F",
"3.	c #8B8B8B",
"4.	c #F16E6C",
"5.	c #B68271",
"6.	c #EC7277",
"7.	c #EE7479",
"8.	c #B38779",
"9.	c #B6897B",
"0.	c #EB7A76",
"a.	c #B28C7C",
"b.	c #B88B7D",
"c.	c #EF7B7D",
"d.	c #B48E7E",
"e.	c #F17D7F",
"f.	c #B79080",
"g.	c #989898",
"h.	c #ED8185",
"i.	c #B99282",
"j.	c #BC9585",
"k.	c #EE8889",
"l.	c #9F9F9F",
"m.	c #BF9888",
"n.	c #A0A0A0",
"o.	c #F08A8B",
"p.	c #BF998F",
"q.	c #C19A8A",
"r.	c #C19B91",
"s.	c #BD9E92",
"t.	c #EF9094",
"u.	c #A6A6A6",
"v.	c #C0A094",
"w.	c #C3A497",
"x.	c #EF9798",
"y.	c #F6979A",
"z.	c #AEAEAE",
"A.	c #C7A89B",
"B.	c #EF9E9C",
"C.	c #C9AA9D",
"D.	c #CCAC9F",
"E.	c #F2A19F",
"F.	c #F2A2A6",
"G.	c #CDAFA8",
"H.	c #EFA6A7",
"I.	c #CCB4AB",
"J.	c #B9B9B9",
"K.	c #F2A9AA",
"L.	c #BBBBBB",
"M.	c #CEB7AE",
"N.	c #F0ADAC",
"O.	c #F7ADAE",
"P.	c #D1BAB1",
"Q.	c #D3BCB3",
"R.	c #D4BDB4",
"S.	c #F6B3B1",
"T.	c #C2C2C2",
"U.	c #C3C3C3",
"V.	c #D7BFB6",
"W.	c #F2B7B9",
"X.	c #F3B8BA",
"Y.	c #D9C1B8",
"Z.	c #C7C7C7",
"`.	c #DBC3BA",
" +	c #B6CFC7",
".+	c #DEC7BE",
"++	c #F5C1C0",
"@+	c #DFC8BF",
"#+	c #F5C2C1",
"$+	c #F6C2C1",
"%+	c #DCCCC1",
"&+	c #F6C4C3",
"*+	c #F6C6C5",
"=+	c #F5C7C5",
"-+	c #DECFCA",
";+	c #D3D3D3",
">+	c #E0D1CC",
",+	c #E2D4CE",
"'+	c #F9CDD0",
")+	c #E5D6D1",
"!+	c #E6D7D2",
"~+	c #F7D2D3",
"{+	c #DBDBDB",
"]+	c #E8D9D4",
"^+	c #F9D4D5",
"/+	c #DDDDDD",
"(+	c #EBDCD7",
"_+	c #F6D9D7",
":+	c #E2E2E2",
"<+	c #EFE0DA",
"[+	c #E3E3E3",
"}+	c #FBDDDC",
"|+	c #EAE3DB",
"1+	c #F8E1DE",
"2+	c #EAE5E4",
"3+	c #FEE0DF",
"4+	c #EDE6DF",
"5+	c #FAE3E0",
"6+	c #EDE7E6",
"7+	c #EFEAE8",
"8+	c #F0EBE9",
"9+	c #FEE9EC",
"0+	c #F8EBEC",
"a+	c #EFEFEF",
"b+	c #FAEDEE",
"c+	c #FBEEEF",
"d+	c #F6F0EF",
"e+	c #FCF0F0",
"f+	c #F3F3F3",
"g+	c #F8F3F1",
"h+	c #F4F4F4",
"i+	c #FFF2F2",
"j+	c #F9F4F2",
"k+	c #F5F5F5",
"l+	c #F6F6F6",
"m+	c #F7F7F7",
"n+	c #F8F8F8",
"o+	c #FEF8F7",
"p+	c #FAFAFA",
"q+	c #FFF9F8",
"r+	c #FBFBFB",
"s+	c #FAFCF9",
"t+	c #F2FEFF",
"u+	c #FCFCFC",
"v+	c #FDFDFD",
"w+	c #FAFFFF",
"x+	c #FEFEFE",
"y+	c #FCFFFB",
"z+	c #FCFFFC",
"A+	c #FDFFFC",
"B+	c #FDFFFD",
"C+	c #FEFFFD",
"D+	c #FEFFFE",
"E+	c #FFFFFE",
"F+	c #FFFFFF",
"                                                                                                                                                                                                    , , , , , , , , , , , , , , , ,                                                                                                                                                                                                                                                                                             ",
"                                                                                                                                                                                          , , , , , , , , , , , , , , , , , , , , , , , , , , ,                                                                                                                                                                                                                                                                                 ",
"                                                                                                                                                                                  , , , , , , , , , , , , , , , , , , , , , , , , , , , , , , , , , , ,                                                                                                                                                                                                                                                                         ",
"                                                                                                                                                                            , , , , , , , , , , , , , , , , , , , , , , , , , , , , , , , , , , , , , , , , , ,                                                                                                                                                                                                                                                                 ",
"                                                                                                                                                                      , , , , , , , , , , , , , , , , , , , , , , , , , , , , , , , , , , , , , , , , , , , , , , , ,                                                                                                                                                                                                                                                           ",
"                                                                                                                                                                  , , , , , , , , , , , , , , , , , , , , , , , , , , , , , , , , , , , , , , , , , , , , , , , , , , , ,                                                                                                                                                                                                                                                       ",
"                                                                                                                                                            , , , , , , , , , , , , , , , , , , , , , , , , , , , , , , , , , , , , , , , , , , , , , , , , , , , , , , , , , ,                                                                                                                                                                                                                                                 ",
"                                                                                                                                                        , , , , , , , , , , , , , , , , , , , , , , , , , , , , , , , , , , , , , , , , , , , , , , , , , , , , , , , , , , , , , ,                                                                                                                                                                                                                                             ",
"                                                                                                                                                    , , , , , , , , , , , , , , , , , , , , , , , , , , , , , , , , , , , , , , , , , , , , , , , , , , , , , , , , , , , , , , , , , ,                                                                                                                                                                                                                                         ",
"                                                                                                                                                , , , , , , , , , , , , , , , , , , , , , , , , , , , , , , , , , , , , , , , , , , , , , , , , , , , , , , , , , , , , , , , , , , , , , ,                                                                                                                                                                                                                                     ",
"                                                                                                                                              , , , , , , , , , , , , , , , , , , , , , , , , , , , , , , , , , , , , , , , , , , , , , , , , , , , , , , , , , , , , , , , , , , , , , , , , ,                                                                                                                                                                                                                                 ",
"                                                                                                                                          , , , , , , , , , , , , , , , , , , , , , , , , , , , , , , , , , , , , , , , , , , , , , , , , , , , , , , , , , , , , , , , , , , , , , , , , , , , , ,                                                                                                                                                                                                                             ",
"                                                                                                                                      , , , , , , , , , , , , , , , , , , , , , , , , , , , , , , , , , , , , , , , , , , , , , , , , , , , , , , , , , , , , , , , , , , , , , , , , , , , , , , , , ,                                                                                                                                                                                                                         ",
"                                                                                                                                    , , , , , , , , , , , , , , , , , , , , , , , , , , , , , , , , , , , , , , , , , , , , , , , , , , , , , , , , , , , , , , , , , , , , , , , , , , , , , , , , , , ,                                                                                                                                                                                                                       ",
"                                                                                                                                , , , , , , , , , , , , , , , , , , , , , , , , , , , , , , , , , , , , , , , , , , , , ] ] d ] ] ] , , , , , , , , , , , , , , , , , , , , , , , , , , , , , , , , , , , , ,                                                                                                                                                                                                                   ",
"                                                                                                                              , , , , , , , , , , , , , , , , , , , , , , , , , , , , , , , , ] v !.h.y.X.~+9+o+q+y+y+y+y+y+y+y+y+y+y+y+y+q+q+e+}+$+H.h.!.Q m , , , , , , , , , , , , , , , , , , , , , , , , ,                                                                                                                                                                                                                 ",
"                                                                                                                          , , , , , , , , , , , , , , , , , , , , , , , , , , , , , , I c.X.b+y+y+y+y+y+y+y+y+y+y+y+y+y+y+y+y+y+y+y+y+y+y+y+y+y+y+y+y+y+y+y+y+q+~+x./.o , , , , , , , , , , , , , , , , , , , , , ,                                                                                                                                                                                                             ",
"                                                                                                                        , , , , , , , , , , , , , , , , , , , , , , , , , , , ] _.++o+y+y+y+y+y+y+y+y+y+y+y+y+y+y+y+y+y+y+y+y+y+y+y+y+y+y+y+y+y+y+y+y+y+y+y+y+y+y+y+y+y+9+F.).] , , , , , , , , , , , , , , , , , , ,                                                                                                                                                                                                   , , ,   ",
"                                                                                                                      , , , , , , , , , , , , , , , , , , , , , , , , , , /.=+q+y+y+y+y+y+y+y+y+y+y+y+y+y+y+y+y+y+y+y+y+y+y+y+y+y+y+y+y+y+y+y+y+y+y+y+y+y+y+y+y+y+y+y+y+y+y+y+o+S.)., , , , , , , , , , , , , , , , , , ,                                                                                                                                                                                               , , ,   ",
"                                                                                                                  , , , , , , , , , , , , , , , , , , , , , , , , , m K.q+y+y+y+y+y+y+y+y+y+y+y+y+y+y+y+y+y+y+y+y+y+y+y+y+y+y+y+y+y+y+y+y+y+y+y+y+y+y+y+y+y+y+y+y+y+y+y+y+y+y+y+y+y+b+o.m , , , , , , , , , , , , , , , , ,                                                                                                                                                                                           , , , , , ",
"                                                                                                                , , , , , , , , , , , , , , , , , , , , , , , , $.1+y+y+y+y+y+y+y+y+y+y+y+y+y+y+y+y+y+y+y+y+y+y+y+y+y+y+y+y+y+y+y+y+y+y+y+y+y+y+y+y+y+y+y+y+y+y+y+y+y+y+y+y+y+y+y+y+y+y+q+O.G , , , , , , , , , , , , , , , ,                                                                                                                                                                                         , , , , , ",
"                                                                                                              , , , , , , , , , , , , , , , , , , , , , , , 4.q+y+y+y+y+y+y+y+y+y+y+y+y+y+y+y+y+y+y+y+y+y+y+y+y+y+y+y+y+y+y+y+y+y+y+y+y+y+y+y+y+y+y+y+y+y+y+y+y+y+y+y+y+y+y+y+y+y+y+y+y+y+y+y+X.o , , , , , , , , , , , , , , , ,                                                                                                                                                                                   , , , , , , ",
"                                                                                                            , , , , , , , , , , , , , , , , , , , , , ,   y+y+y+y+y+y+y+y+y+y+y+y+y+y+y+y+y+y+y+y+y+y+y+y+y+y+y+y+y+y+y+y+y+y+y+y+y+y+y+y+y+y+y+y+y+y+y+y+y+y+y+y+y+y+y+y+y+y+y+y+y+y+y+y+y+y+y+q+F.: , , , , , , , , , , , , , , ,                                                                                                                                                                               , , , , , , , ",
"                                                                                                        , , , , , , , , , , , , , , , , , , , , , ,   y+y+y+y+y+y+y+y+y+y+y+y+y+y+y+y+y+y+y+y+y+y+y+y+y+y+y+y+y+y+y+y+y+y+y+y+y+y+y+y+y+y+y+y+y+y+y+y+y+y+y+y+y+y+y+y+y+y+y+y+y+y+y+y+y+y+y+y+y+y+y+j+k.] , , , , , , , , , , , , , ,                                                                                                                                                                             , , , , , , , ",
"                                                                                                      , , , , , , , , , , , , , , , , , , , , ,   y+y+y+y+y+y+y+y+y+y+y+y+y+y+y+y+y+y+y+y+y+y+y+y+y+y+y+y+y+y+y+y+y+y+y+y+y+y+y+y+y+y+y+y+y+y+y+y+y+y+y+y+y+y+y+y+y+y+y+y+y+y+y+y+y+y+y+y+y+y+y+y+y+y+y+9+$., , , , , , , , , , , , , ,                                                                                                                                                                         , , , , , , ,   ",
"                                                                                                    , , , , , , , , , , , , , , , , , , , ,   y+y+y+y+y+y+y+y+y+y+y+y+y+y+y+y+y+y+y+y+y+y+y+y+y+y+y+y+y+y+y+y+y+y+y+y+y+y+y+y+y+y+y+y+y+y+y+y+y+y+y+y+y+y+y+y+y+y+y+y+y+y+y+y+y+y+y+y+y+y+y+y+y+y+y+y+y+y+y+N.] , , , , , , , , , , , , , ,                                                                                                                                                                     , , , , , , ,   ",
"                                                                                                  , , , , , , , , , , , , , , , , , , ,   y+y+y+y+y+y+y+y+y+y+y+y+y+y+y+y+y+y+y+y+y+y+y+y+y+y+y+y+y+y+y+y+y+y+y+y+y+y+y+y+y+y+y+y+y+y+y+y+y+y+y+y+y+y+y+y+y+y+y+y+y+y+y+y+y+y+y+y+y+y+y+y+y+y+y+y+y+y+y+y+y+y+j+/., , , , , , , , , , , , , ,                                                                                                                                                                 , , , , , , ,     ",
"                                                                                                , , , , , , , , , , , , , , , , , , c.y+y+y+y+y+y+y+y+y+y+y+y+y+y+y+y+y+y+y+y+y+y+y+y+y+y+y+y+y+y+y+y+y+y+y+y+y+y+y+y+y+y+y+y+y+y+y+y+y+y+y+y+y+y+y+y+y+y+y+y+y+y+y+y+y+y+y+y+y+y+y+y+y+y+y+y+y+y+y+y+y+y+y+y+y+y+X.d , , , , , , , , , , , , ,                                                                                                                                                               , , , , , , ,     ",
"                                                                                              , , , , , , , , , , , , , , , , , ;.q+y+y+y+y+y+y+y+y+y+y+y+y+y+y+y+y+y+y+y+y+y+y+y+y+y+y+y+y+y+y+y+y+y+y+y+y+y+y+y+y+y+y+y+y+y+y+y+y+y+y+y+y+y+y+y+y+y+y+y+y+y+y+y+y+y+y+y+y+y+y+y+y+y+y+y+y+y+y+y+y+y+y+y+y+y+y+y+y+j+;., , , , , , , , , , , , ,                                                                                                                                                           , , , , , , ,       ",
"                                                                                            , , , , , , , , , , , , , , , , ] }+y+y+y+y+y+y+y+y+y+y+y+y+y+y+y+y+y+y+y+y+y+y+y+y+y+y+y+y+y+y+y+y+y+y+y+y+y+y+y+y+y+y+y+y+y+y+y+y+y+y+y+y+y+y+y+y+y+y+y+y+y+y+y+y+y+y+y+y+y+y+y+y+y+y+y+y+y+y+y+y+y+y+y+y+y+y+y+y+y+y+y+y+N., , , , , , , , , , , , ,                                                                                                                                                         , , , , , , ,       ",
"                                                                                          , , , , , , , , , , , , , , , , h.q+y+y+y+y+y+y+y+y+y+y+y+y+y+y+y+y+y+y+y+y+y+y+y+y+y+y+y+y+y+y+y+y+y+y+y+y+y+y+y+y+y+y+y+y+y+y+y+y+y+y+y+y+y+y+y+y+y+y+y+y+y+y+y+y+y+y+y+y+y+y+y+y+y+y+y+y+y+y+y+y+y+y+y+y+y+y+y+y+y+y+y+y+y+y+9+t , , , , , , , , , , , ,                                                                                                                                                     , , , , , , ,         ",
"                                                                                        , , , , , , , , , , , , , , , v 0+y+y+y+y+y+y+y+y+y+y+y+y+y+y+y+y+y+y+y+y+y+y+y+y+y+y+y+y+y+y+y+y+y+y+y+y+y+y+y+y+y+y+y+y+y+y+y+y+y+y+y+y+y+y+y+y+y+y+y+y+y+y+y+y+y+y+y+y+y+y+y+y+y+y+y+y+y+y+y+y+y+y+y+y+y+y+y+y+y+y+y+y+y+y+y+y+y+q+6., , , , , , , , , , , ,                                                                                                                                                   , , , , , , ,         ",
"                                                                                      , , , , , , , , , , , , , , , H.y+y+y+y+y+y+y+y+y+y+y+y+y+y+y+y+y+y+y+y+y+y+y+y+y+y+y+y+y+y+y+y+y+y+y+y+y+y+y+y+y+y+y+y+y+y+y+y+y+y+y+y+y+y+y+y+y+y+y+y+y+y+y+y+y+y+y+y+y+y+y+y+y+y+y+y+y+y+y+y+y+y+y+y+y+y+y+y+y+y+y+y+y+y+y+y+y+y+y+y+y+X.] , , , , , , , , , , ,                                                                                                                                               , , , , , , ,           ",
"                                                                                    , , , , , , , , , , , , , , z b+y+y+y+y+y+y+y+y+y+y+y+y+y+y+y+y+y+y+y+y+y+y+y+y+y+y+y+y+y+y+y+y+y+y+y+y+y+y+y+y+y+y+y+y+y+y+y+y+y+y+y+y+y+y+y+y+y+y+y+y+y+y+y+y+y+y+y+y+y+y+y+y+y+y+y+y+y+y+y+y+y+y+y+y+y+y+y+y+y+y+y+y+y+y+y+y+y+y+y+y+y+y+y+b+o , , , , , , , , , , ,                                                                                                                                             , , , , , ,             ",
"                                                                                  , , , , , , , , , , , , , , o.q+y+y+y+y+y+y+y+y+y+y+y+y+y+y+y+y+y+y+y+y+y+y+y+y+y+y+y+y+y+y+y+y+y+y+y+y+y+y+y+y+y+y+y+y+y+y+y+y+y+y+y+y+y+y+y+y+y+y+y+y+y+y+y+y+y+y+y+y+y+y+y+y+y+y+y+y+y+y+y+y+y+y+y+y+y+y+y+y+y+y+y+y+y+y+y+y+y+y+y+y+y+y+y+y+y+q+Y , , , , , , , , , , ,                                                                                                                                         , , , , , , ,             ",
"                                                                                , , , , , , , , , , , , , d =+y+y+y+y+y+y+y+y+y+y+y+y+y+y+y+y+y+y+y+y+y+y+y+y+y+y+y+y+y+y+y+y+y+y+y+y+y+y+y+y+y+y+y+y+y+y+y+y+y+y+y+y+y+y+y+y+y+y+y+y+y+y+y+y+y+y+y+y+y+y+y+y+y+y+y+y+y+y+y+y+y+y+y+y+y+y+y+y+y+y+y+y+y+y+y+y+y+y+y+y+y+y+y+y+y+y+y+y+y+7., , , , , , , , , , ,                                                                                                                                     , , , , , , ,               ",
"                                                                              , , , , , , , , , , , , , Y e+y+y+y+y+y+y+y+y+y+y+y+y+y+y+y+y+y+y+y+y+y+y+y+y+y+y+y+y+y+y+y+y+y+y+y+y+y+y+y+y+y+y+y+y+y+y+y+y+y+y+y+y+y+y+y+y+y+y+y+y+y+y+y+y+y+y+y+y+y+y+y+y+y+y+y+y+y+y+y+y+y+y+y+y+y+y+y+y+y+y+y+y+y+y+y+y+y+y+y+y+y+y+y+y+y+y+y+y+y+y+y+E., , , , , , , , , , ,                                                                                                                                   , , , , , , ,               ",
"                                                                            , , , , , , , , , , , , , 7.q+y+y+y+y+y+y+y+y+y+y+y+y+y+y+y+y+y+y+y+y+y+y+y+y+y+y+y+y+y+y+y+y+y+y+y+y+y+y+y+y+y+y+y+y+y+y+y+y+y+y+y+y+y+y+y+y+y+y+y+y+y+y+y+y+y+y+y+y+y+y+y+y+y+y+y+y+y+y+y+y+y+y+y+y+y+y+y+y+y+y+y+y+y+y+y+y+y+y+y+y+y+y+y+y+y+y+y+y+y+y+y+y+y+'+, , , , , , , , , , ,                                                                                                                               , , , , , , ,                 ",
"                                                                          , , , , , , , , , , , , , F.y+y+y+y+y+y+y+y+y+y+y+y+y+y+y+y+y+y+y+y+y+y+y+y+y+y+y+y+y+y+y+y+y+y+y+y+y+y+y+y+y+y+y+y+y+y+y+y+y+y+y+y+y+y+y+y+y+y+y+y+y+y+y+y+y+y+y+y+y+y+y+y+y+y+y+y+y+y+y+y+y+y+y+y+y+y+y+y+y+y+y+y+y+y+y+y+y+y+y+y+y+y+y+y+y+y+y+y+y+y+y+y+y+y+y+y+b+d , , , , , , , , , ,                                                                                                                             , , , , , , ,                 ",
"                                                                        , , , , , , , , , , , , : '+y+y+y+y+y+y+y+y+y+y+y+y+y+y+y+y+y+y+y+y+y+y+y+y+y+y+y+y+y+y+y+y+y+y+y+y+y+y+y+y+y+y+y+y+y+y+y+y+y+y+y+y+y+y+y+y+y+y+y+y+y+y+y+y+y+y+y+y+y+y+y+y+y+y+y+y+y+y+y+y+y+y+y+y+y+y+y+y+y+y+y+y+y+y+y+y+y+y+y+y+y+y+y+y+y+y+y+y+y+y+y+y+y+y+y+y+y+y+o+t , , , , , , , , , ,                                                                                                                         , , , , , , ,                   ",
"                                                                      , , , , , , , , , , , , m }+y+y+y+y+y+y+y+y+y+y+y+y+y+y+y+y+y+y+y+y+y+y+y+y+y+y+y+y+y+y+y+y+y+y+y+y+y+y+y+y+y+y+y+y+y+y+y+y+y+y+y+y+y+y+y+y+y+y+y+y+y+y+y+y+y+y+y+y+y+y+y+y+y+y+y+y+y+y+y+y+y+y+y+y+y+y+y+y+y+y+y+y+y+y+y+y+y+y+y+y+y+y+y+y+y+y+y+y+y+y+y+y+y+y+y+y+y+y+y+y+q+$., , , , , , , , , ,                                                                                                                       , , , , , , ,                   ",
"                                                                    , , , , , , , , , , , , v 9+y+y+y+y+y+y+y+y+y+y+y+y+y+y+y+y+y+y+y+y+y+y+y+y+y+y+y+y+y+y+y+y+y+y+y+y+y+y+y+y+y+y+y+y+y+y+y+y+y+y+y+y+y+y+y+y+y+y+y+y+y+y+y+y+y+y+y+y+y+y+y+y+y+y+y+y+y+y+y+y+y+y+y+y+y+y+y+y+y+y+y+y+y+y+y+y+y+y+y+y+y+y+y+y+y+y+y+y+y+y+y+y+y+y+y+y+y+y+y+y+y+y+y+6., , , , , , , , , ,                                                                                                                   , , , , , , ,                     ",
"                                                                  , , , , , , , , , , , , I e+y+y+y+y+y+y+y+y+y+y+y+y+y+y+y+y+y+y+y+y+y+y+y+y+y+y+y+y+y+y+y+y+y+y+y+y+y+y+y+y+y+y+y+y+y+y+y+y+y+y+y+y+y+y+y+y+y+y+y+y+y+y+y+y+y+y+y+y+y+y+y+y+y+y+y+y+y+y+y+y+y+y+y+y+y+y+y+y+y+y+y+y+y+y+y+y+y+y+y+y+y+y+y+y+y+y+y+y+y+y+y+y+y+y+y+y+y+y+y+y+y+y+y+y+y+B., , , , , , , , , ,                                                                                                                 , , , , , , ,                     ",
"                                                                , , , , , , , , , , , , I i+y+y+y+y+y+y+y+y+y+y+y+y+y+y+y+y+y+y+y+y+y+y+y+y+y+y+y+y+y+y+y+y+y+y+y+y+y+y+y+y+y+y+y+y+y+y+y+y+y+y+y+y+y+y+y+y+y+y+y+y+y+y+y+y+y+y+y+y+y+y+y+y+y+y+y+y+y+y+y+y+y+y+y+y+y+y+y+y+y+y+y+y+y+y+y+y+y+y+y+y+y+y+y+y+y+y+y+y+y+y+y+y+y+y+y+y+y+y+y+y+y+y+y+y+y+y+y+$+] , , , , , , , , ,                                                                                                             , , , , , , ,                       ",
"                                                                , , , , , , , , , , , P j+y+y+y+y+y+y+y+y+y+y+y+y+y+y+y+y+y+y+y+y+y+y+y+y+y+y+y+y+y+y+y+y+y+y+y+y+y+y+y+y+y+y+y+y+y+y+y+y+y+y+y+y+y+y+y+y+y+y+y+y+y+y+y+y+y+y+y+y+y+y+y+y+y+y+y+y+y+y+y+y+y+o+v.{.j+y+y+y+y+y+y+y+y+y+y+y+y+y+y+y+y+y+y+y+y+y+y+y+y+y+y+y+y+y+y+y+y+y+y+y+y+y+,+8.8.8.8.a.q+^+] , , , , , , , , ,                                                                                                           , , , , , , ,                       ",
"                                                              , , , , , , , , , , , z j+y+y+y+y+y+y+y+y+y+y+y+y+y+y+y+y+y+y+y+y+y+y+y+y+y+y+y+y+y+y+y+y+y+y+y+y+y+y+y+y+y+y+y+y+y+y+y+y+y+y+y+y+y+y+y+y+y+y+y+y+y+y+y+y+y+y+y+y+y+y+y+y+y+y+y+y+y+y+y+y+y+j+w = = v.y+y+y+y+y+y+y+y+y+y+y+y+y+y+y+y+y+y+y+y+y+y+y+y+y+y+y+y+y+y+y+y+y+y+y+y+7+7 = = = = ` y+y+'+, , , , , , , , ,                                                                                                         , , , , , , ,                         ",
"                                                            , , , , , , , , , , , t c+y+y+y+y+y+y+y+y+y+y+y+y+y+y+y+y+y+y+y+y+y+y+y+y+y+y+y+y+y+y+y+y+y+y+y+y+y+y+y+y+y+y+y+y+y+y+y+y+y+y+y+y+y+y+y+y+y+y+y+y+y+y+y+y+y+y+y+y+y+y+y+y+y+y+y+y+y+y+y+y+y+y+f.= = = &.y+y+y+y+y+y+y+y+y+y+y+y+y+y+y+y+y+y+y+y+y+y+y+y+y+y+y+y+y+y+y+y+y+y+y+d+y = = = = = Q.y+y+y+F., , , , , , , , ,                                                                                                     , , , , , , , ,                         ",
"                                                          , , , , , , , , , , , m 9+y+y+y+y+y+y+y+y+y+y+y+y+y+y+y+y+y+y+y+y+y+y+y+y+y+y+y+y+y+y+y+y+y+y+y+y+y+y+y+y+y+y+y+y+y+y+y+y+y+y+y+y+y+y+y+y+y+y+y+y+y+y+y+y+y+y+y+y+y+y+y+y+y+y+y+y+y+y+y+y+y+y+g+| = = = 9.y+y+y+y+y+y+y+y+y+y+y+y+y+y+y+y+y+y+y+y+y+y+y+y+y+y+y+y+y+y+y+y+y+y+8+u = = = = = 9 q+y+y+y+y+7., , , , , , , , ,                                                                                                   , , , , , , ,                           ",
"                                                        , , , , , , , , , , , ] }+y+y+y+y+y+y+y+y+y+y+y+y+y+y+y+y+y+y+y+y+y+y+y+y+y+y+y+y+y+y+y+y+y+y+y+y+y+y+y+y+y+y+y+y+y+y+y+y+y+y+y+y+y+y+y+y+y+y+y+y+y+y+y+y+y+y+y+y+y+y+y+y+y+y+y+y+y+y+y+y+y+y+y+j.= = = = .+y+y+y+y+y+y+y+y+y+y+y+y+y+y+y+y+y+y+y+y+y+y+y+y+y+y+y+y+y+y+y+y+y+Y.9 = = = = = = i.y+y+y+y+y+y+Y , , , , , , , , ,                                                                                               , , , , , , , ,                           ",
"                                                      , , , , , , , , , , , , =+y+y+y+y+y+y+y+y+y+y+y+y+y+y+y+y+y+y+y+y+y+y+y+y+y+y+y+y+y+y+y+y+y+y+y+y+y+y+y+y+y+y+y+y+y+y+y+y+y+y+y+y+y+y+y+y+y+y+y+y+y+y+y+y+y+y+y+y+y+y+y+y+y+y+y+y+y+y+y+y+y+y+y+o+3 = = = _ o+y+y+y+y+y+y+y+y+y+y+y+y+y+y+y+y+y+y+y+y+y+y+y+y+y+y+y+y+y+y+y+4+{.= = = = = = = ; 2+y+y+y+y+y+y+q+o , , , , , , , , ,                                                                                             , , , , , , ,                             ",
"                                                    , , , , , , , , , , , , H.y+y+y+y+y+y+y+y+y+y+y+y+y+y+y+y+y+y+y+y+y+y+y+y+y+y+y+y+y+y+y+y+y+y+y+y+y+y+y+y+y+y+y+y+y+y+y+y+y+y+y+y+y+y+y+y+y+y+y+y+y+y+y+y+y+y+y+y+y+y+y+y+y+y+y+y+y+y+y+y+y+y+y+y+D.= = = = ,.y+y+y+y+y+y+y+y+y+y+y+y+y+y+y+y+y+y+y+y+y+y+y+y+y+y+y+y+y+y+)+:.> = = = = = = = =  .y+y+y+y+y+y+y+y+q+d , , , , , , , , ,                                                                                         , , , , , , , ,                             ",
"                                                    , , , , , , , , , , , h.y+y+y+y+y+y+y+y+y+y+y+y+y+y+y+y+y+y+y+y+y+y+y+y+y+y+y+y+y+y+y+y+y+y+y+y+y+y+y+y+y+y+y+y+y+y+y+y+y+y+y+y+y+y+y+y+y+y+y+y+y+y+y+y+y+y+y+y+y+y+y+y+y+y+y+y+y+y+y+y+y+y+y+y+y+H = = = = Q.y+y+y+y+y+y+y+y+y+y+y+y+y+y+y+y+y+y+y+y+y+y+y+y+y+y+y+7+q.u = = = = = = = = = = = V.y+y+y+y+y+y+y+y+y+i+, , , , , , , , ,                                                                                         , , , , , , ,                               ",
"                                                  , , , , , , , , , , , +.q+y+y+y+y+y+y+y+y+y+y+y+y+y+y+y+y+y+y+y+y+y+y+y+y+y+y+y+y+y+y+y+y+y+y+y+y+y+y+y+y+y+y+y+y+y+y+y+y+y+y+y+y+y+y+y+y+y+y+y+y+y+y+y+y+y+y+y+y+y+y+y+y+y+y+y+y+y+y+y+y+y+y+y+y+>+= = = = _ o+y+y+y+y+y+y+y+y+y+y+y+y+y+y+y+y+y+y+y+y+y+y+y+y+]+v.U ; = = = = = = = = = = = = h q+y+y+y+y+y+y+y+y+y+y+5+, , , , , , , , ,                                                                                     , , , , , , , ,                               ",
"                                                , , , , , , , , , , , m e+y+y+y+y+y+y+y+y+y+y+y+y+y+y+y+y+y+y+y+y+y+y+y+y+y+y+y+y+y+y+y+y+y+y+y+y+y+y+y+y+y+y+y+y+y+y+y+y+y+y+y+y+y+y+y+y+y+y+y+y+y+y+y+y+y+y+y+y+y+y+y+y+y+y+y+y+y+y+y+y+y+y+y+y+y+{.= = = = ].y+y+y+y+y+y+y+y+y+y+y+y+y+y+y+y+y+y+y+y+y+<+C.,.2 = = = = = = = = = = ; ~ = = = = r.y+y+y+y+y+y+y+y+y+y+y+y+$+, , , , , , , , ,                                                                                 , , , , , , , ,                                 ",
"                                              , , , , , , , , , , , , ~+y+y+y+y+y+y+y+y+y+y+y+y+y+y+y+y+y+y+y+y+y+y+y+y+y+y+y+y+y+y+y+y+y+y+y+y+y+y+y+y+y+y+y+y+y+y+y+y+y+y+y+y+y+y+y+y+y+y+y+y+y+y+y+y+y+y+y+y+y+y+y+y+y+y+y+y+y+y+y+y+y+y+y+y+y+8+~ = = = = Y.y+y+y+y+y+y+y+y+y+y+y+y+y+y+y+y+s+%+m.#.3 = = = = = = = = = = = = = w G.> = = = _ d+y+y+y+y+y+y+y+y+y+y+y+y+y+x., , , , , , , , ,                                                                               , , , , , , , ,                                 ",
"                                              , , , , , , , , , , , E.y+y+y+y+y+y+y+y+y+y+y+y+y+y+y+y+y+y+y+y+y+y+y+y+y+y+y+y+y+y+y+y+y+y+y+y+y+y+y+y+y+y+y+y+y+y+y+y+y+y+y+y+y+y+y+y+y+y+y+y+y+y+y+y+y+y+y+y+y+y+y+y+y+y+y+y+y+y+y+y+y+y+y+y+y+y+j.= = = = 3 q+y+y+y+y+y+y+y+y+y+y+y+y+y+q+.+(.| = = = = = = = = = = = = = = | {.Y.y+a.= = = = <.y+y+y+y+y+y+y+y+y+y+y+y+y+y+y+;., , , , , , , , ,                                                                           , , , , , , , ,                                   ",
"                                            , , , , , , , , , , , ;.y+y+y+y+y+y+y+y+y+y+y+y+y+y+y+y+y+y+y+y+y+y+y+y+y+y+y+y+y+y+y+y+y+y+y+y+y+y+y+y+y+y+y+y+y+y+y+y+y+y+y+y+y+y+y+y+y+y+y+y+y+y+y+y+y+y+y+y+y+y+y+y+y+y+y+y+y+y+y+y+y+y+y+y+y+y+q+g = = = = <.y+y+y+y+y+y+y+y+y+y+y+y+y+Q.u = = = = = = = = = = = = = 2 #.m.%+q+y+y+o+3 = = = = ]+y+y+y+y+y+y+y+y+y+y+y+y+y+y+y+y+m , , , , , , , ,                                                                           , , , , , , , ,                                   ",
"                                          , , , , , , , , , , , m e+y+y+y+y+y+y+y+y+y+y+y+y+y+y+y+y+y+y+y+y+y+y+y+y+y+y+y+y+y+y+y+y+y+y+y+y+y+y+y+y+y+y+y+y+y+y+y+y+y+y+y+y+y+y+y+y+y+y+y+y+y+y+y+y+y+y+y+y+y+y+y+y+y+y+y+y+y+y+y+y+y+y+y+y+y+y+Y.= = = = = >+y+y+y+y+y+y+y+y+y+y+y+%+J = = = = = = = = = = = g <.M.4+y+y+y+y+y+y+y+A.= = = = R y+y+y+y+y+y+y+y+y+y+y+y+y+y+y+y+y+q+, , , , , , , , ,                                                                       , , , , , , , ,                                     ",
"                                        , , , , , , , , , , , , =+y+y+y+y+y+y+y+y+y+y+y+y+y+y+y+y+y+y+y+y+y+y+y+y+y+y+y+y+y+y+y+y+y+y+y+y+y+y+y+y+y+y+y+y+y+y+y+y+y+y+y+y+y+y+y+y+y+y+y+y+y+y+y+y+y+y+y+y+y+y+y+y+y+y+y+y+y+y+y+y+y+y+y+y+y+y+y+&.= = = = H y+y+y+y+y+y+y+y+y+y+(+#.= = = = = = = = = = h i.]+y+y+y+y+y+y+y+y+y+y+y+u = = = = Q.y+y+y+y+y+y+y+y+y+y+y+y+y+y+y+y+y+y+e+, , , , , , , , ,                                                                     , , , , , , ,                                       ",
"                                        , , , , , , , , , , , e.y+y+y+y+y+y+y+y+y+y+y+y+y+y+y+y+y+y+y+y+y+y+y+y+y+y+y+y+y+y+y+y+y+y+y+y+y+y+y+y+y+y+y+y+y+y+y+y+y+y+y+y+y+y+y+y+y+y+y+y+y+y+y+y+y+y+y+y+y+y+y+y+y+y+y+y+y+y+y+y+y+y+y+y+y+y+y+7+; = = = = C.y+y+y+y+y+y+y+y+g+8.> = = = = = = = = > '.%+y+y+y+y+y+y+y+y+y+y+y+y+y+`.= = = = g q+y+y+y+y+y+y+y+y+y+y+y+y+y+y+y+y+y+y+y+  , , , , , , , , ,                                                                 , , , , , , , ,                                       ",
"                                      , , , , , , , , , , , t q+y+y+y+y+y+y+y+y+y+y+y+y+y+y+y+y+y+y+y+y+y+y+y+y+y+y+y+y+y+y+y+y+y+y+y+y+y+y+y+y+y+y+y+y+y+y+y+y+y+y+y+y+y+y+y+y+y+y+y+y+y+y+y+y+y+y+y+y+y+y+y+y+y+y+y+y+y+y+y+y+y+y+y+y+y+y+y+i.= = = = | j+y+y+y+y+y+y+y+-+a = = = = = = = = _ 2.4+y+y+y+y+y+y+y+y+y+y+y+y+y+y+y+@.= = = = q.y+y+y+y+y+y+y+y+y+y+y+y+y+y+y+y+y+y+y+y+y+  , , , , , , , ,                                                               , , , , , , , ,                                         ",
"                                    , , , , , , , , , , , , ~+y+y+y+y+y+y+y+y+y+y+y+y+y+y+y+y+y+y+y+y+y+y+y+y+y+y+y+y+y+y+y+y+y+y+y+y+y+y+y+y+y+y+y+y+y+y+y+y+y+y+y+y+y+y+y+y+y+y+y+y+y+y+y+y+y+y+y+y+y+y+y+y+y+y+y+y+y+y+y+y+y+y+y+y+y+y+y+q+c = = = = 5.y+y+y+y+y+y+y+D.~ = = = = = = = y A.j+y+y+y+y+y+y+y+y+y+y+y+y+y+y+y+y+|+; = = = ~ d+y+y+y+y+y+y+y+y+y+y+y+y+y+y+y+y+y+y+y+y+y+y+o , , , , , , , ,                                                             , , , , , , , ,                                         ",
"                                  , , , , , , , , , , , , h.y+y+y+y+y+y+y+y+y+y+y+y+y+y+y+y+y+y+y+y+y+y+y+y+y+y+y+y+y+y+y+y+y+y+y+y+y+y+y+y+y+y+y+y+y+y+y+y+y+y+y+y+y+y+y+y+y+y+y+y+y+y+y+y+y+y+y+y+y+y+y+y+y+y+y+y+y+y+y+y+y+y+y+y+y+y+y+y+R.= = = = = (+y+y+y+y+y+y+|.= = = = = = 9 f.|+y+y+y+y+y+y+y+y+y+y+y+y+y+y+y+y+y+y+y+|.= = = = :.y+y+y+y+y+y+y+y+y+y+y+y+y+y+y+y+y+y+y+y+y+y+y+y+, , , , , , , , ,                                                         , , , , , , , ,                                           ",
"                                  , , , , , , , , , , , t q+y+y+y+y+y+y+y+y+y+y+y+y+y+y+y+y+y+y+y+y+y+y+y+y+y+y+y+y+y+y+y+y+y+y+y+y+y+y+y+y+y+y+y+y+y+y+y+y+y+y+y+y+y+y+y+y+y+y+y+y+y+y+y+y+y+y+y+y+y+y+y+y+y+y+y+y+y+y+y+y+y+y+y+y+y+y+y+y+ .= = = = U y+y+y+y+y+y+b.= = = = = 2 s.o+y+y+y+y+y+y+y+y+y+y+y+y+y+y+y+y+y+y+y+y+g+_ = = = = !+y+y+y+y+y+y+y+y+y+y+y+y+y+y+y+y+y+y+y+y+y+y+y+y+o+, , , , , , , , ,                                                       , , , , , , , ,                                           ",
"                                , , , , , , , , , , , , =+y+y+y+y+y+y+y+y+y+y+y+y+y+y+y+y+y+y+y+y+y+y+y+y+y+y+y+y+y+y+y+y+y+y+y+y+y+y+y+y+y+y+y+y+y+y+y+y+y+y+y+y+y+y+y+y+y+y+y+y+y+y+y+y+y+y+y+y+y+y+y+y+y+y+y+y+y+y+y+y+y+y+y+y+y+y+y+y+2+; = = = = P.y+y+y+y+y+R.= = = = ~ m.j+y+y+y+y+y+y+y+y+y+y+y+y+y+y+y+y+y+y+y+y+y+y+s.= = = = N y+y+y+y+y+y+y+y+y+y+y+y+y+y+y+y+y+y+y+y+y+y+y+y+y+y+  , , , , , , , ,                                                     , , , , , , , ,                                             ",
"                              , , , , , , , , , , , , }.y+y+y+y+y+y+y+y+y+y+y+y+y+y+y+y+y+y+y+y+y+y+y+y+y+y+y+y+y+y+y+y+y+y+y+y+y+y+y+y+y+y+y+y+y+y+y+y+y+y+y+y+y+y+y+y+y+y+y+y+y+y+y+y+y+y+y+y+y+y+y+y+y+y+y+y+y+y+y+y+y+y+y+y+y+y+y+y+y+f.= = = = 9 q+y+y+y+y+j+9 = = = h (+y+y+y+y+y+y+y+y+y+y+y+y+y+y+y+y+y+y+y+y+y+y+y+q+h = = = = Q.y+y+y+y+y+y+y+y+y+y+y+y+y+y+y+y+y+y+y+y+y+y+y+y+y+y+y+  , , , , , , , ,                                                 , , , , , , , , ,                                             ",
"                            , , , , , , , , , , , , d e+y+y+y+y+y+y+y+y+y+y+y+y+y+y+y+y+y+y+y+y+y+y+y+y+y+y+y+y+y+y+y+y+y+y+y+y+y+y+y+y+y+y+y+y+y+y+y+y+y+y+y+y+y+y+y+y+y+y+y+y+y+y+y+y+y+y+y+y+y+y+y+y+y+y+y+y+y+y+y+y+y+y+y+y+y+y+y+y+q+9 = = = = i.y+y+y+y+y+f.= = = | 6+y+y+y+y+y+y+y+y+y+y+y+y+y+y+y+y+y+y+y+y+y+y+y+y+Q.= = = = g q+y+y+y+y+y+y+y+y+y+y+y+y+y+y+y+y+y+y+y+y+y+y+y+y+y+y+y+y+m , , , , , , , ,                                               , , , , , , , ,                                               ",
"                            , , , , , , , , , , , , K.y+y+y+y+y+y+y+y+y+y+y+y+y+y+y+y+y+y+y+y+y+y+y+y+y+y+y+y+y+y+y+y+y+y+y+y+y+y+y+y+y+y+y+y+y+y+y+y+y+y+y+y+y+y+y+y+y+y+y+y+y+y+y+y+y+y+y+y+y+y+y+y+y+y+y+y+y+y+y+y+y+y+y+y+y+y+y+y+y+Q.= = = = > 7+y+y+y+y+j+| = = = 5.y+y+y+y+y+y+y+y+y+y+y+y+y+y+y+y+y+y+y+y+y+y+y+y+y+N = = = = q.y+y+y+y+y+y+y+y+y+y+y+y+y+y+y+y+y+y+y+y+y+y+y+y+y+y+y+y+y+q+, , , , , , , ,                                             , , , , , , , , ,                                               ",
"                          , , , , , , , , , , , , P y+y+y+y+y+y+y+y+y+y+y+y+y+y+y+y+y+y+y+y+y+y+y+y+y+y+y+y+y+y+y+y+y+y+y+y+y+y+y+y+y+y+y+y+y+y+y+y+y+y+y+y+y+y+y+y+y+y+y+y+y+y+y+y+y+y+y+y+y+y+y+y+y+y+y+y+y+y+y+y+y+y+y+y+y+y+y+y+y+y+W = = = = -.y+y+y+y+y+g+3 = = = C.y+y+y+y+y+y+y+y+y+y+y+y+y+y+y+y+y+y+y+y+y+y+y+y+!+= = = = ( d+y+y+y+y+y+y+y+y+y+y+y+y+y+y+y+y+y+y+y+y+y+y+y+y+y+y+y+y+y+y+9+, , , , , , , ,                                           , , , , , , , ,                                                 ",
"                        , , , , , , , , , , , , , ~+y+y+y+y+y+y+y+y+y+y+y+y+y+y+y+y+y+y+y+y+y+y+y+y+y+y+y+y+y+y+y+y+y+y+y+y+y+y+y+y+y+y+y+y+y+y+y+y+y+y+y+y+y+y+y+y+y+y+y+y+y+y+y+y+y+y+y+y+y+y+y+y+y+y+y+y+y+y+y+y+y+y+y+y+y+y+y+y+y+4+- = = = = .+y+y+y+y+y+y+-+J K Q.y+y+y+y+y+y+y+y+y+y+y+y+y+y+y+y+y+y+y+y+y+y+y+y+y+(.= = = = :.y+y+y+y+y+y+y+y+y+y+y+y+y+y+y+y+y+y+y+y+y+y+y+y+y+y+y+y+y+y+y+y+K., , , , , , , ,                                       , , , , , , , , ,                                                 ",
"                        , , , , , , , , , , , , _.y+y+y+y+y+y+y+y+y+y+y+y+y+y+y+y+y+y+y+y+y+y+y+y+y+y+y+y+y+y+y+y+y+y+y+y+y+y+y+y+y+y+y+y+y+y+y+y+y+y+y+y+y+y+y+y+y+y+y+y+y+y+y+y+y+y+y+y+y+y+y+y+y+y+y+y+y+y+y+y+y+y+y+y+y+y+y+y+y+y+a.= = = = s y+y+y+y+y+y+y+y+y+y+y+y+y+y+y+y+y+y+y+y+y+y+y+y+y+y+y+y+y+y+y+y+y+y+y+8+~ = = = = ]+y+y+y+y+y+y+y+y+y+y+y+y+y+y+y+y+y+y+y+y+y+y+y+y+y+y+y+y+y+y+y+y+y+Q , , , , , , , ,                                   , , , , , , , , ,                                                   ",
"                      , , , , , , , , , , , , ] b+y+y+y+y+y+y+y+y+y+y+y+y+y+y+y+y+y+y+y+y+y+y+y+y+y+y+y+y+y+y+y+y+y+y+y+y+y+y+y+y+y+y+y+y+y+y+y+y+y+y+y+y+y+y+y+y+y+y+y+y+y+y+y+y+y+y+y+y+y+y+y+y+y+y+y+y+y+y+y+y+y+y+y+y+y+y+y+y+y+q+7 = = = = v.y+y+y+y+y+y+y+y+y+y+y+y+y+y+y+y+y+y+y+y+y+y+y+y+y+y+y+y+y+y+y+y+y+y+y+i.= = = = U y+y+y+y+y+y+y+y+y+y+y+y+y+y+y+y+y+y+y+y+y+y+y+y+y+y+y+y+y+y+y+y+y+y+q+] , , , , , , ,                                   , , , , , , , , ,                                                   ",
"                    , , , , , , , , , , , , , t.y+y+y+y+y+y+y+y+y+y+y+y+y+y+y+y+y+y+y+y+y+y+y+y+y+y+y+y+y+y+y+y+y+y+y+y+y+y+y+y+y+y+y+y+y+y+y+y+y+y+y+y+y+y+y+y+y+y+y+y+y+y+y+y+y+y+y+y+y+y+y+y+y+y+y+y+y+y+y+y+y+y+y+y+y+y+y+y+y+y+M.= = = = _ d+y+y+y+y+y+y+y+y+y+y+y+y+y+y+y+y+y+y+y+y+y+y+y+y+y+y+y+y+y+y+y+y+y+y+s+9 = = = = V.y+y+y+y+y+y+y+y+y+y+y+y+y+y+y+y+y+y+y+y+y+y+y+y+y+y+y+y+y+y+y+y+y+y+y+e+, , , , , , , ,                               , , , , , , , , ,                                                     ",
"                    , , , , , , , , , , , , m q+y+y+y+y+y+y+y+y+y+y+y+y+y+y+y+y+y+y+y+y+y+y+y+y+y+y+y+y+y+y+y+y+y+y+y+y+y+y+y+y+y+y+y+y+y+y+y+y+y+y+y+y+y+y+y+y+y+y+y+y+y+y+y+y+y+y+y+y+y+y+y+y+y+y+y+y+y+y+y+y+y+y+y+y+y+y+y+y+y+y+R = = = = :.y+y+y+y+y+y+y+y+y+y+y+y+y+y+y+y+y+y+y+y+y+y+y+y+y+y+y+y+y+y+y+y+y+y+y+D.= = = = h q+y+y+y+y+y+y+y+y+y+y+y+y+y+y+y+y+y+y+y+y+y+y+y+y+y+y+y+y+y+y+y+y+y+y+y+y+O., , , , , , , ,                             , , , , , , , ,                                                       ",
"                  , , , , , , , , , , , , , W.y+y+y+y+y+y+y+y+y+y+y+y+y+y+y+y+y+y+y+y+y+y+y+y+y+y+y+y+y+y+y+y+y+y+y+y+y+y+y+y+y+y+y+y+y+y+y+y+y+y+y+y+y+y+y+y+y+y+y+y+y+y+y+y+y+y+y+y+y+y+y+y+y+y+y+y+y+y+y+y+y+y+y+y+y+y+y+y+y+y+<+- = = = = ,+y+y+y+y+y+y+y+y+y+y+y+y+y+y+y+y+y+y+y+y+y+y+y+y+y+y+y+y+y+y+y+y+y+y+y+H = = = = s.y+y+y+y+y+y+y+y+y+y+y+y+y+y+y+y+y+y+y+y+y+y+y+y+y+y+y+y+y+y+y+y+y+y+y+y+y+y+;., , , , , , ,                           , , , , , , , , ,                                                       ",
"                , , , , , , , , , , , , , P y+y+y+y+y+y+y+y+y+y+y+y+y+y+y+y+y+y+y+y+y+y+y+y+y+y+y+y+y+y+y+y+y+y+y+y+y+y+y+y+y+y+y+y+y+y+y+y+y+y+y+y+y+y+y+y+y+y+y+y+y+y+y+y+y+y+y+y+y+y+y+y+y+y+y+y+y+y+y+y+y+y+y+y+y+y+y+y+y+y+y+5.= = = = H y+y+y+y+y+y+y+y+y+y+y+y+y+y+y+y+y+y+y+y+y+y+y+y+y+y+y+y+y+y+y+y+y+y+y+-+= = = = _ d+y+y+y+y+y+y+y+y+y+y+y+y+y+y+y+y+y+y+y+y+y+y+y+y+y+y+y+y+y+y+y+y+y+y+y+y+y+y+q+d , , , , , , ,                       , , , , , , , , ,                                                         ",
"                , , , , , , , , , , , , , ~+y+y+y+y+y+y+y+y+y+y+y+y+y+y+y+y+y+y+y+y+y+y+y+y+y+y+y+y+y+y+y+y+y+y+y+y+y+y+y+y+y+y+y+y+y+y+y+y+y+y+y+y+y+y+y+y+y+y+y+y+y+y+y+y+y+y+y+y+y+y+y+y+y+y+y+y+y+y+y+y+y+y+y+y+y+y+y+y+y+y+q+3 = = = = D.y+y+y+y+y+y+y+y+y+y+y+y+y+y+y+y+y+y+y+y+y+y+y+y+y+y+y+y+y+y+y+y+y+y+y+-.= = = = |.y+y+y+y+y+y+y+y+y+y+y+y+y+y+y+y+y+y+y+y+y+y+y+y+y+y+y+y+y+y+y+y+y+y+y+y+y+y+y+y+0+, , , , , , , ,                     , , , , , , , , ,                                                         ",
"              , , , , , , , , , , , , , /.y+y+y+y+y+y+y+y+y+y+y+y+y+y+y+y+y+y+y+y+y+y+y+y+y+y+y+y+y+y+y+y+y+y+y+y+y+y+y+y+y+y+y+y+y+y+y+y+y+y+y+y+y+y+y+y+y+y+y+y+y+y+y+y+y+y+y+y+y+y+y+y+y+y+y+y+y+y+y+y+y+y+y+y+y+y+y+y+y+y+y+G.= = = = | o+y+y+y+y+y+y+y+y+y+y+y+y+y+y+y+y+y+y+y+y+y+y+y+y+y+y+y+y+y+y+y+y+y+y+6+> = = = = (+y+y+y+y+y+y+y+y+y+y+y+y+y+y+y+y+y+y+y+y+y+y+y+y+y+y+y+y+y+y+y+y+y+y+y+y+y+y+y+y+y+K., , , , , , ,                   , , , , , , , , ,                                                           ",
"              , , , , , , , , , , , , ] e+y+y+y+y+y+y+y+y+y+y+y+y+y+y+y+y+y+y+y+y+y+y+y+y+y+y+y+y+y+y+y+y+y+y+y+y+y+y+y+y+y+y+y+y+y+y+y+y+y+y+y+y+y+y+y+y+y+y+y+y+y+y+y+y+y+y+y+y+y+y+y+y+y+y+y+y+y+y+y+y+y+y+y+y+y+y+y+y+y+y+y+L = = = = 8.y+y+y+y+y+y+y+y+y+y+y+y+y+y+y+y+y+y+y+y+y+y+y+y+y+y+y+y+y+y+y+y+y+y+y+9.= = = = ` y+y+y+y+y+y+y+y+y+y+y+y+y+y+y+y+y+y+y+y+y+y+y+y+y+y+y+y+y+y+y+y+y+y+y+y+y+y+y+y+y+y+y+$., , , , , , ,               , , , , , , , , , ,                                                           ",
"            , , , , , , , , , , , , , k.y+y+y+y+y+y+y+y+y+y+y+y+y+y+y+y+y+y+y+y+y+y+y+y+y+y+y+y+y+y+y+y+y+y+y+y+y+y+y+y+y+y+y+y+y+y+y+y+y+y+y+y+y+y+y+y+y+y+y+y+y+y+y+y+y+y+y+y+y+y+y+y+y+y+y+y+y+y+y+y+y+y+y+y+y+y+y+y+y+y+y+(+= = = = = (+y+y+y+y+y+y+y+y+y+y+y+y+y+y+y+y+y+y+y+y+y+y+y+y+y+y+y+y+y+y+y+y+y+y+j+| = = = = Y.y+y+y+y+y+y+y+y+y+y+y+y+y+y+y+y+y+y+y+y+y+y+y+y+y+y+y+y+y+y+y+y+y+y+y+y+y+y+y+y+y+y+y+q+] , , , , , , ,             , , , , , , , , ,                                                             ",
"          , , , , , , , , , , , , , d q+y+y+y+y+y+y+y+y+y+y+y+y+y+y+y+y+y+y+y+y+y+y+y+y+y+y+y+y+y+y+y+y+y+y+y+y+y+y+y+y+y+y+y+y+y+y+y+y+y+y+y+y+y+y+y+y+y+y+y+y+y+y+y+y+y+y+y+y+y+y+y+y+y+y+y+y+y+y+y+y+y+y+y+y+y+y+y+y+y+y+y+2.= = = = W y+y+y+y+y+y+y+y+y+y+y+y+y+y+y+y+y+y+y+y+y+y+y+y+y+y+y+y+y+y+y+y+y+y+y+A.= = = = q y+y+y+y+y+y+y+y+y+y+y+y+y+y+y+y+y+y+y+y+y+y+y+y+y+y+y+y+y+y+y+y+y+y+y+y+y+y+y+y+y+y+y+y+y+~+, , , , , , ,           , , , , , , , , , ,                                                             ",
"          , , , , , , , , , , , , , W.y+y+y+y+y+y+y+y+y+y+y+y+y+y+y+y+y+y+y+y+y+y+y+y+y+y+y+y+y+y+y+y+y+y+y+y+y+y+y+y+y+y+y+y+y+y+y+y+y+y+y+y+y+y+y+y+y+y+y+y+y+y+y+y+y+y+y+y+y+y+y+y+y+y+y+y+y+y+y+y+y+y+y+y+y+y+y+y+y+y+y+o+| = = = = Q.y+y+y+y+y+y+y+y+y+y+y+y+y+y+y+y+y+y+y+y+y+y+y+y+y+y+y+y+y+y+y+y+y+y+y+u = = = = v.y+y+y+y+y+y+y+y+y+y+y+y+y+y+y+y+y+y+y+y+y+y+y+y+y+y+y+y+y+y+y+y+y+y+y+y+y+y+y+y+y+y+y+y+y+y+}., , , , , , ,         , , , , , , , , ,                                                               ",
"        , , , , , , , , , , , , , v y+y+y+y+y+y+y+y+y+y+y+y+y+y+y+y+y+y+y+y+y+y+y+y+y+y+y+y+y+y+y+y+y+y+y+y+y+y+y+y+y+y+y+y+y+y+y+y+y+y+y+y+y+y+y+y+y+y+y+y+y+y+y+y+y+y+y+y+y+y+y+y+y+y+y+y+y+y+y+y+y+y+y+y+y+y+y+y+y+y+y+y+D.= = = = a q+y+y+y+y+y+y+y+y+y+y+y+y+y+y+y+y+y+y+y+y+y+y+y+y+y+y+y+y+y+y+y+y+y+y+Y.= = = = _ j+y+y+y+y+y+y+y+y+y+y+y+y+y+y+y+y+y+y+y+y+y+y+y+y+y+y+y+y+y+y+y+y+y+y+y+y+y+y+y+y+y+y+y+y+y+y+q+: , , , , , ,       , , , , , , , , ,                                                                 ",
"        , , , , , , , , , , , , , 1+y+y+y+y+y+y+y+y+y+y+y+y+y+y+y+y+y+y+y+y+y+y+y+y+y+y+y+y+y+y+y+y+y+y+y+y+y+y+y+y+y+y+y+y+y+y+y+y+y+y+y+y+y+y+y+y+y+y+y+y+y+y+y+y+y+y+y+y+y+y+y+y+y+y+y+y+y+y+y+y+y+y+y+y+y+y+y+y+y+y+y+y+J = = = = j.y+y+y+y+y+y+y+y+y+y+y+y+y+y+y+y+y+y+y+y+y+y+y+y+y+y+y+y+y+y+y+y+y+y+y+` = = = = 5.y+y+y+y+y+y+y+y+y+y+y+y+y+y+y+y+y+y+y+y+y+y+y+y+y+y+y+y+y+y+y+y+y+y+y+y+y+y+y+y+y+y+y+y+y+y+y+y+=+, , , , , , ,   , , , , , , , , , ,                                                                 ",
"      , , , , , , , , , , , , , /.y+y+y+y+y+y+y+y+y+y+y+y+y+y+y+y+y+y+y+y+y+y+y+y+y+y+y+y+y+y+y+y+y+y+y+y+y+y+y+y+y+y+y+y+y+y+y+y+y+y+y+y+y+y+y+y+y+y+y+y+y+y+y+y+y+y+y+y+y+y+y+y+y+y+y+y+y+y+y+y+y+y+y+y+y+y+y+y+y+y+y+y+]+= = = = > 8+y+y+y+y+y+y+y+y+y+y+y+y+y+y+y+y+y+y+y+y+y+y+y+y+y+y+y+y+y+y+y+y+y+y+(+- = = = - |+y+y+y+y+y+y+y+y+y+y+y+y+y+y+y+y+y+y+y+y+y+y+y+y+y+y+y+y+y+y+y+y+y+y+y+y+y+y+y+y+y+y+y+y+y+y+y+y+y+)., , , , , , , , , , , , , , , ,                                                                   ",
"    , , , , , , , , , , , , , , q+y+y+y+y+y+y+y+y+y+y+y+y+y+y+y+y+y+y+y+y+y+y+y+y+y+y+y+y+y+y+y+y+y+y+y+y+y+y+j+-+A.j.5.{.(.v.4+y+y+y+y+y+y+y+y+y+y+y+y+y+y+y+y+y+y+y+y+y+y+y+y+y+y+y+y+y+y+y+y+y+y+o+]+.+Y..+]+q+y+y+y+y+[.= = = = ,.y+y+y+y+y+y+y+y+y+y+y+y+y+y+y+y+y+y+y+y+y+y+y+y+y+y+y+y+y+y+y+y+y+y+y+[.= = = = @.y+y+y+y+y+y+y+y+y+y+y+y+y+y+y+y+y+y+y+y+y+y+y+y+y+y+y+y+y+y+y+y+y+y+y+y+y+y+y+y+y+y+y+y+y+y+y+y+y+y+q+, , , , , , , , , , , , , , , ,                                                                   ",
"    , , , , , , , , , , , , , H.y+y+y+y+y+y+y+y+y+y+y+y+y+y+y+y+y+y+y+y+y+y+y+y+y+y+y+y+y+y+y+y+y+y+y+y+j+C.W > = = = = = = = - @.Y.y+y+y+y+y+y+y+y+y+y+y+y+y+y+y+y+y+y+y+y+y+y+y+y+y+y+y+y+q+Y.|.s ; = = = = = ( R v.d+j+_ = = = = @+y+y+y+y+y+y+y+y+y+y+y+y+y+y+y+y+y+y+y+y+y+y+y+y+y+y+y+y+y+y+y+y+y+y+d+_ = = = = `.y+y+y+y+y+y+y+y+y+y+y+y+y+y+y+y+y+y+y+y+y+y+y+y+y+y+y+y+y+y+y+y+y+y+y+y+y+y+y+y+y+y+y+y+y+y+y+y+y+y+y+O., , , , , , , , , , , , , ,                                                                     ",
"  , , , , , , , , , , , , , ] y+y+y+y+y+y+y+y+y+y+y+y+y+y+y+y+y+y+y+y+y+y+y+y+y+y+y+y+y+y+y+y+y+y+y+d+a._ = = = = = = = = = = = = = u Y.y+y+y+y+y+y+y+y+y+y+y+y+y+y+y+y+y+y+y+y+y+y+y+y+8+a.7 = = = = = = = = = = = = _ &.= = = = s y+y+y+y+y+y+y+y+y+y+y+y+y+y+y+y+y+y+y+y+y+y+y+y+y+y+y+y+y+y+y+y+y+y+y+p.= = = = s y+y+y+y+y+y+y+y+y+y+y+y+y+y+y+y+y+y+y+y+y+y+y+y+y+y+y+y+y+y+y+y+y+y+y+y+y+y+y+y+y+y+y+y+y+y+y+y+y+y+y+y+y+G , , , , , , , , , , , ,                                                                       ",
"  , , , , , , , , , , , , , 3+y+y+y+y+y+y+y+y+y+y+y+y+y+y+y+y+y+y+y+y+y+y+y+y+y+y+y+y+y+y+y+y+y+y+C.| = = = = = = = = = = = = = = = = = '.j+y+y+y+y+y+y+y+y+y+y+y+y+y+y+y+y+y+y+y+y+d+2.~ = = = = = = = = = = = = = = = = = = = = v.y+y+y+y+y+y+y+y+y+y+y+y+y+y+y+y+y+y+y+y+y+y+y+y+y+y+y+y+y+y+y+y+y+y+q+g = = = = A.y+y+y+y+y+y+y+y+y+y+y+y+y+y+y+y+y+y+y+y+y+y+y+y+y+y+y+y+y+y+y+y+y+y+y+y+y+y+y+y+y+y+y+y+y+y+y+y+y+y+y+y+y+e+, , , , , , , , , , , ,                                                                       ",
"  , , , , , , , , , , , , I y+y+y+y+y+y+y+y+y+y+y+y+y+y+y+y+y+y+y+y+y+y+y+y+y+y+y+y+y+y+y+y+y+d+#.= = = = = = = = ; c y _ = = = = = = = = w d+y+y+y+y+y+y+y+y+y+y+y+y+y+y+y+y+y+y+A.| = = = = = = = 3 y #.U j = = = = = = = = = _ j+y+y+y+y+y+y+y+y+y+y+y+y+y+y+y+y+y+y+y+y+y+y+y+y+y+y+y+y+y+y+y+y+y+y+P.= = = = | j+y+y+y+y+y+y+y+y+y+y+y+y+y+y+y+y+y+y+y+y+y+y+y+y+y+y+y+y+y+y+y+y+y+y+y+y+y+y+y+y+y+y+y+y+y+y+y+y+y+y+y+y+y+y+k., , , , , , , , , ,                                                                         ",
", , , , , , , , , , , , , q+y+y+y+y+y+y+y+y+y+y+y+y+y+y+y+y+y+y+y+y+y+y+y+y+y+y+y+y+y+y+y+y+(+h = = = = = = w i.-+o+y+y+q+Y.(.( = = = = = = L q+y+y+y+y+y+y+y+y+y+y+y+y+y+y+y+4+R = = = = = 3 <.Q.8+y+y+y+y+y+]+U = = = = = = = :.y+y+y+y+y+y+y+y+y+y+y+y+y+y+y+y+y+y+y+y+y+y+y+y+y+y+y+y+y+y+y+y+y+y+y+L = = = = 5.y+y+y+y+y+y+y+y+y+y+y+y+y+y+y+y+y+y+y+y+y+y+y+y+y+y+y+y+y+y+y+y+y+y+y+y+y+y+y+y+y+y+y+y+y+y+y+y+y+y+y+y+y+y+y+O., , , , , , , , , ,                                                                         ",
", , , , , , , , , , , ,   y+y+y+y+y+y+y+y+y+y+y+y+y+y+y+y+y+y+y+y+y+y+y+y+y+y+y+y+y+y+y+y+]+3 = = = = ; {.>+y+y+y+y+y+y+y+y+y+d+[.= = = = = = 4+y+y+y+y+y+y+y+y+y+y+y+y+y+y+V.| = = = = s I.q+y+y+y+y+y+y+y+y+y+q+N = = = = = = !+y+y+y+y+y+y+y+y+y+y+y+y+y+y+y+y+y+y+y+y+y+y+y+y+y+y+y+y+y+y+y+y+y+y+)+= = = = ; 4+y+y+y+y+y+y+y+y+y+y+y+y+y+y+y+y+y+y+y+y+y+y+y+y+y+y+y+y+y+y+y+y+y+y+y+y+y+y+y+y+y+y+y+y+y+y+y+y+y+y+y+y+y+y+i+, , , , , , , , , ,                                                                           ",
", , , , , , , , , , , , y+y+y+y+y+y+y+y+y+y+y+y+y+y+y+y+y+y+y+y+y+y+y+y+y+y+y+y+y+y+y+y+4+7 = = = = N ]+y+y+y+y+y+y+y+y+y+y+y+y+y+L = = = = L y+y+y+y+y+y+y+y+y+y+y+y+y+y+w.- = = = ~ r.q+y+y+y+y+y+y+y+y+y+y+y+y+p.= = = = = K y+y+y+y+y+y+y+y+y+y+y+y+y+y+y+y+y+y+y+y+y+y+y+y+y+y+y+y+y+y+y+y+y+y+y+].= = = = &.y+y+y+y+y+y+y+y+y+y+y+y+y+y+y+y+y+y+y+y+y+y+y+y+y+y+y+y+y+y+y+y+y+y+y+y+y+y+y+y+y+y+y+y+y+y+y+y+y+y+y+y+y+y+q+o , , , , , , , , , ,                                                                           ",
", , , , , , , , , , , c.y+y+y+y+y+y+y+y+y+y+y+y+y+y+y+y+y+y+y+y+y+y+y+y+y+y+y+y+y+y+y+j+w = = = = d.q+y+y+y+y+y+y+y+y+y+y+y+y+y+y+9.= = = = D.y+y+y+y+y+y+y+y+y+y+y+y+y+(+~ = = = u ]+y+y+y+y+y+y+y+y+y+y+y+y+y+y+i.= = = = = D.y+y+y+y+y+y+y+y+y+y+y+y+y+y+y+y+y+y+y+y+y+y+y+y+y+y+y+y+y+y+y+y+y+y+8+~ = = = = .+y+y+y+y+y+y+y+y+y+y+y+y+y+y+y+y+y+y+y+y+y+y+y+y+y+y+y+y+y+y+y+y+y+y+y+y+y+y+y+y+y+y+y+y+y+y+y+y+y+y+y+y+y+y+7., , , , , , , , , , ,                                                                           ",
", , , , , , , , , , , t.y+y+y+y+y+y+y+y+y+y+y+y+y+y+y+y+y+y+y+y+y+y+y+y+y+y+y+y+y+y+y+2.= = = = j.y+y+y+y+y+y+y+y+y+y+y+y+y+y+y+y+{.= = = _ j+y+y+y+y+y+y+y+y+y+y+y+y+q+K = = =  .j+y+y+y+y+y+y+y+y+y+y+y+y+y+y+y+:.= = = = 3 o+y+y+y+y+y+y+y+y+y+y+y+y+y+y+y+y+y+y+y+y+y+y+y+y+y+y+y+y+y+y+y+y+y+y+i.= = = = w y+y+y+y+y+y+y+y+y+y+y+y+y+y+y+y+y+y+y+y+y+y+y+y+y+y+y+y+y+y+y+y+y+y+y+y+y+y+y+y+y+y+y+y+y+y+y+y+y+y+y+y+y+y+^+, , , , , , , , , , , , ,                                                                         ",
", , , , , , , , , , , d q+y+y+y+y+y+y+y+y+y+y+y+y+y+y+y+y+y+y+y+y+y+y+y+y+y+y+y+y+y+,+- = = = {.y+y+y+y+y+y+y+y+y+y+y+y+y+y+y+y+y+g = = = :.y+y+y+y+y+y+y+y+y+y+y+y+y+G.= = = 9 d+y+y+y+y+y+y+y+y+y+y+y+y+y+y+y+y+N = = = = 9.y+y+y+y+y+y+y+y+y+y+y+y+y+y+y+y+y+y+y+y+y+y+y+y+y+y+y+y+y+y+y+y+y+y+q+7 = = = = C.y+y+y+y+y+y+y+y+y+y+y+y+y+y+y+y+y+y+y+y+y+y+y+y+y+y+y+y+y+y+y+y+y+y+y+y+y+y+y+y+y+y+y+y+y+y+y+y+y+y+y+y+y+q+, , , , , , , , , , , , , ,                                                                         ",
"  , , , , , , , , , , , X.y+y+y+y+y+y+y+y+y+y+y+y+y+y+y+y+y+y+y+y+y+y+y+y+y+y+y+y+y+#.= = = 7 d+y+y+y+y+y+y+y+y+y+y+y+y+y+y+y+y+>+= = = = -+y+y+y+y+y+y+y+y+y+y+y+y+q+h = = = Y.y+y+y+y+y+y+y+y+y+y+y+y+y+y+y+y+j+~ = = = ; 4+y+y+y+y+y+y+y+y+y+y+y+y+y+y+y+y+y+y+y+y+y+y+y+y+y+y+y+y+y+y+y+y+y+y+D.= = = = 2 o+y+y+y+y+y+y+y+y+y+y+y+y+y+y+y+y+y+y+y+y+y+y+y+y+y+y+y+y+y+y+y+y+y+y+y+y+y+y+y+y+y+y+y+y+y+y+y+y+y+y+y+y+y+v , , , , , , , , , , , , , , ,                                                                       ",
"  , , , , , , , , , , , o y+y+y+y+y+y+y+y+y+y+y+y+y+y+y+y+y+y+y+y+y+y+y+y+y+y+y+y+)+= = = = p.y+y+y+y+y+y+y+y+y+y+y+y+y+y+y+y+y+(.= = = s y+y+y+y+y+y+y+y+y+y+y+y+y+D.= = = ].y+y+y+y+y+y+y+y+y+y+y+y+y+y+y+y+y+Q.= = = =  .y+y+y+y+y+y+y+y+y+y+y+y+y+y+y+y+y+y+y+y+y+y+y+y+y+y+y+y+y+y+y+y+y+y+y+y = = = = i.y+y+y+y+y+y+y+y+y+y+y+y+y+y+y+y+y+y+y+y+y+y+y+y+y+y+y+y+y+y+y+y+y+y+y+y+y+y+y+y+y+y+y+y+y+y+y+y+y+y+y+y+y+t., , , , , , , , , , , , , , , , ,                                                                     ",
"  , , , , , , , , , , , , }+y+y+y+y+y+y+y+y+y+y+y+y+y+y+y+y+y+y+y+y+y+y+y+y+y+y+y+,.= = = ~ d+y+y+y+y+y+y+y+y+y+y+y+y+y+y+y+y+8+~ = = = p.y+y+y+y+y+y+y+y+y+y+y+y+y+J = = - (+y+y+y+y+y+y+y+y+y+y+y+y+y+y+y+y+y+U = = = = V.y+y+y+y+y+y+y+y+y+y+y+y+y+y+y+y+y+y+y+y+y+y+y+y+y+y+y+y+y+y+y+y+y+y+%+= = = = ~ d+y+y+y+y+y+y+y+y+y+y+y+y+y+y+y+y+y+y+y+y+y+y+y+y+y+y+y+y+y+y+y+y+y+y+y+y+y+y+y+y+y+y+y+y+y+y+y+y+y+y+y+y+5+, , , , , , , , , , , , , , , , , ,                                                                     ",
"    , , , , , , , , , , , Y y+y+y+y+y+y+y+y+y+y+y+y+y+y+y+y+y+y+y+y+y+y+y+y+y+y+o+_ = = =  .y+y+y+y+y+y+y+y+y+y+y+y+y+y+y+y+y+9.= = = > 8+y+y+y+y+y+y+y+y+y+y+y+y+!+= = =  .y+y+y+y+y+y+y+y+y+y+y+y+y+y+y+y+y+C.= = = = g q+y+y+y+y+y+y+y+y+y+y+y+y+y+y+y+y+y+y+y+y+y+y+y+y+y+y+y+y+y+y+y+y+y+y+-.= = = = <.y+y+y+y+y+y+y+y+y+y+y+y+y+y+y+y+y+y+y+y+y+y+y+y+y+y+y+y+y+y+y+y+y+y+y+y+y+y+y+y+y+y+y+y+y+y+y+y+y+y+y+y+q+] , , , , , , , , , ,     , , , , , , ,                                                                   ",
"    , , , , , , , , , , , , q+y+y+y+y+y+y+y+y+y+y+y+y+y+y+y+y+y+y+y+y+y+y+y+y+y+V.= = = = v.y+y+y+y+y+y+y+y+y+y+y+y+y+y+y+y+8+( = = = =.y+y+y+y+y+y+y+y+y+y+y+y+y+a.= = = %+y+y+y+y+y+y+y+y+y+y+y+y+y+y+y+y+6+_ = = = = m.y+y+y+y+y+y+y+y+y+y+y+y+y+y+y+y+y+y+y+y+y+y+y+y+y+y+y+y+y+y+y+y+y+y+4+; = = = - (+y+y+y+y+y+y+y+y+y+y+y+y+y+y+y+y+y+y+y+y+y+y+y+y+y+y+y+y+y+y+y+y+y+y+y+y+y+y+y+y+y+y+y+y+y+y+y+y+y+y+y+y+I , , , , , , , , , , ,     , , , , , , ,                                                                   ",
"      , , , , , , , , , , , 7.y+y+y+y+y+y+y+y+y+y+y+y+y+y+y+y+y+y+y+y+y+y+y+y+y+:.= = = = -+y+y+y+y+y+y+y+y+y+y+y+y+y+y+y+y+|.= = = = V.y+y+y+y+y+y+y+y+y+y+y+y+y+w = = H y+y+y+y+y+y+y+y+y+y+y+y+y+y+y+y+y+&.= = = = > 8+y+y+y+y+y+y+y+y+y+y+y+y+y+y+y+y+y+y+y+y+y+y+y+y+y+y+y+y+y+y+y+y+y+y+8.= = = = #.y+y+y+y+y+y+y+y+y+y+y+y+y+y+y+y+y+y+y+y+y+y+y+y+y+y+y+y+y+y+y+y+y+y+y+y+y+y+y+y+y+y+y+y+y+y+y+y+y+y+y+y+B., , , , , , , , , , ,         , , , , , , ,                                                                 ",
"      , , , , , , , , , , , , q+y+y+y+y+y+y+y+y+y+y+y+y+y+y+y+y+y+y+y+y+y+y+y+(+_ = = = = 7+y+y+y+y+y+y+y+y+y+y+y+y+y+y+y+)+> = = = 9 q+y+y+y+y+y+y+y+y+y+y+y+y+7+= = = =.y+y+y+y+y+y+y+y+y+y+y+y+y+y+y+y+Q.= = = = = '.y+y+y+y+y+y+y+y+y+y+y+y+y+y+y+y+y+y+y+y+y+y+y+y+y+y+y+y+y+y+y+y+y+y+j+| = = = = @+y+y+y+y+y+y+y+y+y+y+y+y+y+y+y+y+y+y+y+y+y+y+y+y+y+y+y+y+y+y+y+y+y+y+y+y+y+y+y+y+y+y+y+y+y+y+y+y+y+y+y+9+, , , , , , , , , , ,           , , , , , , ,                                                                 ",
"      , , , , , , , , , , , , N.y+y+y+y+y+y+y+y+y+y+y+y+y+y+y+y+y+y+y+y+y+y+j+u = = = = = d+y+y+y+y+y+y+y+y+y+y+y+y+y+y+d+s = = = = a.y+y+y+y+y+y+y+y+y+y+y+y+y+5.= = = K y+y+y+y+y+y+y+y+y+y+y+y+y+y+y+6+c = = = = = -+y+y+y+y+y+y+y+y+y+y+y+y+y+y+y+y+y+y+y+y+y+y+y+y+y+y+y+y+y+y+y+y+y+y+w.= = = = H y+y+y+y+y+y+y+y+y+y+y+y+y+y+y+y+y+y+y+y+y+y+y+y+y+y+y+y+y+y+y+y+y+y+y+y+y+y+y+y+y+y+y+y+y+y+y+y+y+y+y+q+] , , , , , , , , , , ,             , , , , , , ,                                                               ",
"        , , , , , , , , , , , ] y+y+y+y+y+y+y+y+y+y+y+y+y+y+y+y+y+y+y+y+y+j+L = = = = = = |+y+y+y+y+y+y+y+y+y+y+y+y+y+d+y = = = = = <+y+y+y+y+y+y+y+y+y+y+y+y+4+> = = = _ q+y+y+y+y+y+y+y+y+y+y+y+y+y+Y.3 = = = = = w y+y+y+y+y+y+y+y+y+y+y+y+y+y+y+y+y+y+y+y+y+y+y+y+y+y+y+y+y+y+y+y+y+y+y+s = = = = G.y+y+y+y+y+y+y+y+y+y+y+y+y+y+y+y+y+y+y+y+y+y+y+y+y+y+y+y+y+y+y+y+y+y+y+y+y+y+y+y+y+y+y+y+y+y+y+y+y+y+y+I , , , , , , , , , , ,               , , , , , , , ,                                                             ",
"        , , , , , , , , , , , , e+y+y+y+y+y+y+y+y+y+y+y+y+y+y+y+y+y+y+y+o+U = = = = = = = M.y+y+y+y+y+y+y+y+y+y+y+y+-+a = = = = = = d+y+y+y+y+y+y+y+y+y+y+y+j+y = = = = = V.y+y+y+y+y+y+y+y+y+y+y+q+b.- = = = = = = N y+y+y+y+y+y+y+y+y+y+y+y+y+y+y+y+y+y+y+y+y+y+y+y+y+y+y+y+y+y+y+y+y+y+Y.= = = = c q+y+y+y+y+y+y+y+y+y+y+y+y+y+y+y+y+y+y+y+y+y+y+y+y+y+y+y+y+y+y+y+y+y+y+y+y+y+y+y+y+y+y+y+y+y+y+y+y+y+y+k., , , , , , , , , , ,                   , , , , , , ,                                                             ",
"        , , , , , , , , , , , , 4.y+y+y+y+y+y+y+y+y+y+y+y+y+y+y+y+y+y+j+N = = = = ( = = = N y+y+y+y+y+y+y+y+y+y+7+^.- = = = = = = = m.y+y+y+y+y+y+y+y+y+y+d+R = = = = = = y q+y+y+y+y+y+y+y+y+y+M.h = = = = y  .= = ; -+y+y+y+y+y+y+y+y+y+y+y+y+y+y+y+y+y+y+y+y+y+y+y+y+y+y+y+y+y+y+y+y+y+W = = = = p.y+y+y+y+y+y+y+y+y+y+y+y+y+y+y+y+y+y+y+y+y+y+y+y+y+y+y+y+y+y+y+y+y+y+y+y+y+y+y+y+y+y+y+y+y+y+y+y+y+y+_+, , , , , , , , , , , ,                     , , , , , , ,                                                           ",
"          , , , , , , , , , , , , q+y+y+y+y+y+y+y+y+y+y+y+y+y+y+y+y+(+w = = = = K j.= = = = 8.q+y+y+y+y+y+q+%+].> = = = = = H ~ = = ; a.d+y+y+y+y+y+y+y+Q.9 = = = = = = = = &.d+y+y+y+y+y+d+C.H = = = = = H d+q.= = = g ]+y+y+y+y+y+y+y+y+y+y+y+y+y+y+y+y+y+y+y+y+y+y+y+y+y+y+y+y+y+y+y+(+= = = = _ j+y+y+y+y+y+y+y+y+y+y+y+y+y+y+y+y+y+y+y+y+y+y+y+y+y+y+y+y+y+y+y+y+y+y+y+y+y+y+y+y+y+y+y+y+y+y+y+y+y+o+, , , , , , , , , , , ,                       , , , , , , ,                                                           ",
"          , , , , , , , , , , , , =+y+y+y+y+y+y+y+y+y+y+y+y+y+y+>+:.~ = = = = j 6+d+3 = = = = j 2.v.v.f.&.7 = = = = = = = H 8+w = = = = ; y #.:.C.V.f.g = = = = = s.w = = = = 3 <.v.s.8.R > = = = = = = L j+y+>+= = = = ; #.j.V.y+y+y+y+y+y+y+y+y+y+y+y+y+y+y+y+y+y+y+y+y+y+y+y+y+y+y+y+<.= = = = 5.y+y+q+7+!+%+R.M.M.D.A.(+y+y+y+y+y+y+y+y+y+y+y+y+y+y+y+y+y+y+y+y+y+y+y+y+y+y+y+y+y+y+y+y+y+y+y+y+y+y+d , , , , , , , , , , , ,                         , , , , , , ,                                                         ",
"            , , , , , , , , , , , P y+y+y+y+y+y+y+y+y+y+y+y+y+y+N = = = = = c 4+y+y+Q.= = = = = = = = = = = = = = = = ; 5.o+y+C.= = = = = = = = = = = = = = = = j.y+.+= = = = = = = = = = = = = = = = W j+y+y+y+w = = = = = = = A.y+y+y+y+y+y+y+y+y+y+y+y+y+y+y+y+y+y+y+y+y+y+y+y+y+y+d+_ = = = = 5.#.h > = = = = = = = = a j+y+y+y+y+y+y+y+y+y+y+y+y+y+y+y+y+y+y+y+y+y+y+y+y+y+y+y+y+y+y+y+y+y+y+y+y+$., , , , , , , , , , , ,                           , , , , , , ,                                                         ",
"            , , , , , , , , , , , , 9+y+y+y+y+y+y+y+y+y+y+y+y+y+h = = = = s |+y+y+y+y+v.= = = = = = = = = = = = = = U ,+y+y+y+y+8.= = = = = = = = = = = = = - j.y+y+y+5.= = = = = = = = = = = = = - 5.q+y+y+y+y+(+s = = = = = = L y+y+y+y+y+y+y+y+y+y+y+y+y+y+y+y+y+y+y+y+y+y+y+y+y+y+q.= = = = = = = = = = = = = = = = = = -+y+y+y+y+y+y+y+y+y+y+y+y+y+y+y+y+y+y+y+y+y+y+y+y+y+y+y+y+y+y+y+y+y+y+y+E., , , , , , , , , , , ,                               , , , , , , ,                                                       ",
"              , , , , , , , , , , , 1.y+y+y+y+y+y+y+y+y+y+y+y+y+w = = > |.j+y+y+y+y+y+y+V.c = = = = = = = = = | ^.>+y+y+y+y+y+y+y+-+=._ = = = = = = = = = a Y.y+y+y+y+y+D.H = = = = = = = = = -  .>+y+y+y+y+y+y+y+j+f._ = = = = ^.y+y+y+y+y+y+y+y+y+y+y+y+y+y+y+y+y+y+y+y+y+y+y+y+y+q+c = = = = = = = = = = = = = = = = = ; 7+y+y+y+y+y+y+y+y+y+y+y+y+y+y+y+y+y+y+y+y+y+y+y+y+y+y+y+y+y+y+y+y+y+y+1+, , , , , , , , , , , , ,                                 , , , , , ,                                                       ",
"              , , , , , , , , , , , , q+y+y+y+y+y+y+y+y+y+y+y+y+i. .j.|+y+y+y+y+y+y+y+y+y+s+M.^.L y R #.2.v.-+q+y+y+y+y+y+y+y+y+y+y+y+s+.+i.^. .U H y W v.j+y+y+y+y+y+y+y+y+4+C.{.y R =.{.a.I.8+y+y+y+y+y+y+y+y+y+y+y+j+M.<.N 2.j+y+y+y+y+y+y+y+y+y+y+y+y+y+y+y+y+y+y+y+y+y+y+y+j+v.h = = = = = = = = = = = = = = ( 9 g s i.y+y+y+y+y+y+y+y+y+y+y+y+y+y+y+y+y+y+y+y+y+y+y+y+y+y+y+y+y+y+y+y+y+y+q+, , , , , , , , , , , , ,                                   , , , , , , ,                                                     ",
"              , , , , , , , , , , , , y.y+y+y+y+y+y+y+y+y+y+y+y+y+y+y+y+y+y+y+y+y+y+y+y+y+y+y+y+y+y+y+y+y+y+y+y+y+y+y+y+y+y+y+y+y+y+y+y+y+y+y+y+y+y+y+y+y+y+y+y+y+y+y+y+y+y+y+y+y+y+y+y+y+y+y+y+y+y+y+y+y+y+y+y+y+y+y+y+y+y+y+y+y+y+y+y+y+y+y+y+y+y+y+y+y+y+y+y+y+y+y+y+y+y+(+|._ = = = = = = = = = _ N [.w..+]+j+y+y+y+y+y+y+y+y+y+y+y+y+y+y+y+y+y+y+y+y+y+y+y+y+y+y+y+y+y+y+y+y+y+y+y+y+y+y+q+m , , , , , , , , , , , ,                                       , , , , , , ,                                                   ",
"                , , , , , , , , , , , m q+y+y+y+y+y+y+y+y+y+y+y+y+y+y+y+y+y+y+y+y+y+y+y+y+y+y+y+y+y+y+y+y+y+y+y+y+y+y+y+y+y+y+y+y+y+y+y+y+y+y+y+y+y+y+y+y+y+y+y+y+y+y+y+y+y+y+y+y+y+y+y+y+y+y+y+y+y+y+y+y+y+y+y+y+y+y+y+y+y+y+y+y+y+y+y+y+y+y+y+y+y+y+y+y+y+y+y+y+y+y+y+4+].; = = = = = = = = s v.!+q+y+y+y+y+y+y+y+y+y+y+y+y+y+y+y+y+z+z+z+z+z+y+y+y+y+y+y+y+y+y+y+y+y+y+y+y+y+y+y+y+y+y+y+y+Y , , , , , , , , , , , , ,                                       , , , , , , ,                                                   ",
"                , , , , , , , , , , , , N.y+y+y+y+y+y+y+y+y+y+y+y+y+y+y+y+y+y+y+y+y+y+y+y+y+y+y+y+y+y+y+y+y+y+y+y+y+y+y+y+y+y+y+y+y+y+y+y+y+y+y+y+y+y+y+y+y+y+y+y+y+y+y+y+y+y+y+y+y+y+y+y+y+y+y+y+y+y+y+y+y+y+y+y+y+y+y+y+y+y+y+y+y+y+y+y+y+y+y+y+y+y+y+y+y+y+y+y+y+8+8.~ = = = = = = = = = = V.y+y+y+y+y+y+y+y+y+F+F+F+F+F+F+F+F+F+F+F+F+F+F+F+F+F+F+F+y+y+y+y+y+y+y+y+y+y+y+y+y+y+y+y+y+y+c., , , , , , , , , , , , ,                                           , , , , , , ,                                                 ",
"                  , , , , , , , , , , , m q+y+y+y+y+y+y+y+y+y+y+y+y+y+y+y+y+y+y+y+y+y+y+y+y+y+y+y+y+y+y+y+y+y+y+y+y+y+y+y+y+y+y+y+y+y+y+y+y+y+y+y+y+y+y+y+y+y+y+y+y+y+y+y+y+y+y+y+y+y+y+y+y+y+y+y+y+y+y+y+y+y+y+y+y+y+y+y+y+y+y+y+y+y+y+y+y+y+y+y+y+y+y+y+y+y+y+q+q.( = = = = = = = = = = = s y+y+y+y+y+y+y+y+y+y+F+F+F+F+F+F+F+F+F+F+F+F+F+F+F+F+F+F+F+y+y+y+y+y+y+y+y+y+y+y+y+y+y+y+y+y+N., , , , , , , , , , , , ,                                             , , , , , , ,                                                 ",
"                  , , , , , , , , , , , , H.y+y+y+y+y+y+y+y+y+y+y+y+y+y+y+y+y+y+y+y+y+y+y+y+y+y+y+y+y+y+y+y+y+y+y+y+y+y+y+y+y+y+y+y+y+y+y+y+y+y+y+y+y+y+y+y+y+y+y+y+y+y+y+y+y+y+y+y+y+y+y+y+y+y+y+y+y+y+y+y+y+y+y+y+y+y+y+y+y+y+y+y+y+y+y+y+y+y+y+y+y+y+y+y+y+-+u = = = = = = q > = = = = = C.y+F+F+F+F+F+F+F+F+F+F+F+F+F+F+F+F+A+F+F+F+F+F+F+F+F+F+F+F+F+y+y+y+y+y+y+y+y+y+y+y+y+y+y+y+_+, , , , , , , , , , , , ,                                                 , , , , , , ,                                               ",
"                    , , , , , , , , , , , m q+y+y+y+y+y+y+y+y+y+y+y+y+y+y+y+y+y+y+y+y+y+y+y+y+y+y+y+y+y+y+y+y+y+y+y+y+y+y+y+y+y+y+y+y+y+y+y+y+y+y+y+y+y+y+y+y+y+y+y+y+y+y+y+y+y+y+y+y+y+y+y+y+y+y+y+y+y+y+y+y+y+y+y+y+y+y+y+y+y+y+y+y+y+y+y+y+y+y+y+y+y+y+j+:.- = = = = = 3 w.Q.= = = = = 7 q+y+F+F+F+F+F+F+F+F+F+F+F+F+F+F+F+F+B+F+F+F+F+F+F+F+F+F+F+F+F+A+y+y+y+y+y+y+y+y+y+y+y+y+y+c+, , , , , , , , , , , , , ,                                                 , , , , , , ,                                               ",
"                    , , , , , , , , , , , , E.y+y+y+y+y+y+y+y+y+y+y+y+y+y+y+y+y+y+y+y+y+y+y+y+y+y+y+y+y+y+y+y+y+y+y+y+y+y+y+y+y+y+y+y+y+y+y+y+y+y+y+y+y+y+y+y+y+y+y+y+y+y+y+y+y+y+y+y+y+y+y+y+y+y+y+y+y+y+y+y+y+y+y+y+y+y+y+y+y+y+y+y+y+y+y+y+y+y+y+y+y+>+h = = = = = - [.g+y+U = = = = = j.y+y+F+F+F+F+F+F+F+F+F+F+F+F+F+F+F+F+C+F+F+F+F+F+F+F+F+F+F+F+F+A+A+y+y+y+y+y+y+y+y+y+y+y+o+] , , , , , , , , , , , , ,                                                     , , , , , , ,                                             ",
"                      , , , , , , , , , , , : o+y+y+y+y+y+y+y+y+y+y+y+y+y+y+y+y+y+y+y+y+y+y+y+y+y+y+y+y+y+y+y+y+y+y+y+y+y+y+y+y+y+y+y+y+y+y+y+y+y+y+y+y+y+y+y+y+y+y+y+y+y+y+y+y+y+y+y+y+y+y+y+y+y+y+y+y+y+y+y+y+y+y+y+y+y+y+y+y+y+y+y+y+y+y+y+y+y+y+y+s.> = = = = = h .+y+y+(+= = = = = _ d+y+y+F+J.. . . . . . @ C F+F+F+F+F+F+D+F+m+h+n+n+p+p+l+v+m+F+F+B+A+z+y+y+y+y+y+y+y+y+y+q+m , , , , , , , , , , , , ,                                                         , , , , , ,                                             ",
"                      , , , , , , , , , , , , 7.y+y+y+y+y+y+y+y+y+y+y+y+y+y+y+y+y+y+y+y+y+y+y+y+y+y+y+y+y+y+y+y+y+y+y+y+y+y+y+y+y+y+y+y+y+y+y+y+y+y+y+y+y+y+y+y+y+y+y+y+y+y+y+y+y+y+y+y+y+y+y+y+y+y+y+y+y+y+y+y+y+y+y+y+y+y+y+y+y+y+y+y+y+y+y+y+y+j+W = = = = = = |.o+y+y+y+:.= = = = = 2.y+y+y+F+J.. . . . . . # u.F+F+F+F+F+F+D+F+a+z...* C 3.{+x+F+F+F+B+A+A+y+y+y+y+y+y+y+y+q+I , , , , , , , , , , , , , ,                                                         , , , , , , ,                                           ",
"                        , , , , , , , , , , , , }+y+y+y+y+y+y+y+y+y+y+y+y+y+y+y+y+y+y+y+y+y+y+y+y+y+y+y+y+y+y+y+y+y+y+y+y+y+y+y+y+y+y+y+y+y+y+y+y+y+y+y+y+y+y+y+y+y+y+y+y+y+y+y+y+y+y+y+y+y+y+y+y+y+y+y+y+y+y+y+y+y+y+y+y+y+y+y+y+y+y+y+y+y+y+y+d+H = = = = = |  +w+y+y+y+d+( = = = = ; 4+y+y+y+F+F+F+F+F+F+F+Z.$ [+F+F+F+F+F+F+E+n+S . . . . . . Z.F+F+F+C+B+A+z+y+y+y+y+y+y+y+!., , , , , , , , , , , , , ,                                                             , , , , , ,                                           ",
"                          , , , , , , , , , , , P y+y+y+y+y+y+y+y+y+y+y+y+y+y+y+y+y+y+y+y+y+y+y+y+y+y+y+y+y+y+y+y+y+y+y+y+y+y+y+y+y+y+y+y+y+y+y+y+y+y+y+y+y+y+y+y+y+y+y+y+y+y+y+y+y+y+y+y+y+y+y+y+y+y+y+y+y+y+y+y+y+y+y+y+y+y+y+y+y+y+y+y+y+y+|+h = = = = = w 2+t+y+y+y+y+j.= = = = = ,.y+y+y+y+F+F+F+F+F+F+F+*...F+F+F+F+F+F+F+F+;+. 3.2+u+k+T.. *.F+F+F+C+B+A+z+y+y+y+y+y+y+c., , , , , , , , , , , , , ,                                                               , , , , , , ,                                         ",
"                          , , , , , , , , , , , , S.y+y+y+y+y+y+y+y+y+y+y+y+y+y+y+y+y+y+y+y+y+y+y+y+y+y+y+y+y+y+y+y+y+y+y+y+y+y+y+y+y+y+y+y+y+y+y+y+y+y+y+y+y+y+y+y+y+y+y+y+y+y+y+y+y+y+y+y+y+y+y+y+y+y+y+y+y+y+y+y+y+y+y+y+y+y+y+y+y+y+y+y+(+7 = = = = = #.j+y+y+y+y+y+s+9 = = = = = ,+y+y+y+y+F+F+F+F+F+F+:++ U.F+F+F+F+F+F+F+F+Z.. ;+F+F+F+F+C S F+F+F+C+B+A+A+y+y+y+y+y+o., , , , , , , , , , , , , ,                                                                   , , , , , ,                                         ",
"                            , , , , , , , , , , , : e+y+y+y+y+y+y+y+y+y+y+y+y+y+y+y+y+y+y+y+y+y+y+y+y+y+y+y+y+y+y+y+y+y+y+y+y+y+y+y+y+y+y+y+y+y+y+y+y+y+y+y+y+y+y+y+y+y+y+y+y+y+y+y+y+y+y+y+y+y+y+y+y+y+y+y+y+y+y+y+y+y+y+y+y+y+y+y+y+y+y+7+c = = = = = |.q+y+y+y+y+y+y+G.= = = = = N y+y+y+y+y+F+F+F+F+F+F+l.& k+F+F+F+F+F+F+F+F+a+* 3.6+u+l+T.. J.F+F+F+C+B+A+A+y+y+y+y+B., , , , , , , , , , , , , , ,                                                                   , , , , , , ,                                       ",
"                            , , , , , , , , , , , , ).y+y+y+y+y+y+y+y+y+y+y+y+y+y+y+y+y+y+y+y+y+y+y+y+y+y+y+y+y+y+y+y+y+y+y+y+y+y+y+y+y+y+y+y+y+y+y+y+y+y+y+y+y+y+y+y+y+y+y+y+y+y+y+y+y+y+y+y+y+y+y+y+y+y+y+y+y+y+y+y+y+y+y+y+y+y+y+y+y+q+J = = = = = 5.y+y+y+y+y+y+y+y+H = = = = = Y.y+y+y+y+y+F+F+F+F+F+l+* g.F+F+F+F+F+F+F+F+F+F+[+3.. . . C L.v+F+F+F+C+B+A+A+y+y+y+S., , , , , , , , , , , , , , ,                                                                       , , , , , , ,                                     ",
"                              , , , , , , , , , , , , O.y+y+y+y+y+y+y+y+y+y+y+y+y+y+y+y+y+y+y+y+y+y+y+y+y+y+y+y+y+y+y+y+y+y+y+y+y+y+y+y+y+y+y+y+y+y+y+y+y+y+y+y+y+y+y+y+y+y+y+y+y+y+y+y+y+y+y+y+y+y+y+y+y+y+y+y+y+y+y+y+y+y+y+y+y+y+y+y+8.= = = = = 5.y+y+y+y+y+y+y+y+-+= = = = = u y+y+y+y+y+y+F+F+F+F+F+T.. {+F+F+F+F+F+F+F+F+E+F+;+F . . . & l.m+F+F+F+C+B+A+z+y+y+#+) , , , , , , , , , , , , , ,                                                                         , , , , , , ,                                     ",
"                              , , , , , , , , , , , , ] b+y+y+y+y+y+y+y+y+y+y+y+y+y+y+y+y+y+y+y+y+y+y+y+y+y+y+y+y+y+y+y+y+y+y+y+y+y+y+y+y+y+y+y+y+y+y+y+y+y+y+y+y+y+y+y+y+y+y+y+y+y+y+y+y+y+y+y+y+y+y+y+y+y+y+y+y+y+y+y+y+y+y+y+y+y+y+)+> = = = = =.q+y+y+y+y+y+y+y+y+-.= = = = = D.y+y+y+y+y+y+F+F+F+F+F+S F x+F+F+F+F+F+F+F+F+D+{+. 3.2+r+h+T.$ 3.F+F+F+C+B+A+z+y+&+5 ' , , , , , , , , , , , , ,                                                                             , , , , , , ,                                   ",
"                                , , , , , , , , , , , , $.q+y+y+y+y+y+y+y+y+y+y+y+y+y+y+y+y+y+y+y+y+y+y+y+y+y+y+y+y+y+y+y+y+y+y+y+y+y+y+y+y+y+y+y+y+y+y+y+y+y+y+y+y+y+y+y+y+y+y+y+y+y+y+y+y+y+y+y+y+y+y+y+y+y+y+y+y+y+y+y+y+y+y+y+y+y+N = = = = y j+y+y+y+y+y+y+y+y+6+> = = = = 9 q+y+y+y+y+y+y+F+F+F+F+/+. J.F+F+F+F+F+F+F+F+F+D+g.. f+F+F+F+F+l.. f+F+F+B+A+A+y+*+l } , , , , , , , , , , , , , ,                                                                             , , , , , , ,                                   ",
"                                  , , , , , , , , , , , , k.y+y+y+y+y+y+y+y+y+y+y+y+y+y+y+y+y+y+y+y+y+y+y+y+y+y+y+y+y+y+y+y+y+y+y+y+y+y+y+y+y+y+y+y+y+y+y+y+y+y+y+y+y+y+y+y+y+y+y+y+y+y+y+y+y+y+y+y+y+y+y+y+y+y+y+y+y+y+y+y+y+y+y+y+>+= = = = ~ (+y+y+y+y+y+y+y+y+y+9.= = = = = m.y+y+y+y+y+y+y+F+F+F+F+g.# a+F+F+F+F+F+F+F+F+F+C+3.. f+F+F+F+F+g.. 6+F+F+A+A+z+y+D e { , , , , , , , , , , , , ,                                                                                 , , , , , , ,                                 ",
"                                  , , , , , , , , , , , , , ++y+y+y+y+y+y+y+y+y+y+y+y+y+y+y+y+y+y+y+y+y+y+y+y+y+y+y+y+y+y+y+y+y+y+y+y+y+y+y+y+y+y+y+y+y+y+y+y+y+y+y+y+y+y+y+y+y+y+y+y+y+y+y+y+y+y+y+y+y+y+y+y+y+y+y+y+y+y+y+y+y+y+y+[.= = = = q.y+y+y+y+y+y+y+y+y+j+| = = = = _ d+y+y+y+y+y+y+y+F+F+F+f+% 3.F+F+F+F+F+F+m+%.z.F+B+z.. 3.2+r+f+T.$ * r+F+F+A+A+y+O r 6 ' , , , , , , , , , , , ,                                                                                   , , , , , , ,                                 ",
"                                    , , , , , , , , , , , , ] 9+y+y+y+y+y+y+y+y+y+y+y+y+y+y+y+y+y+y+y+y+y+y+y+y+y+y+y+y+y+y+y+y+y+y+y+y+y+y+y+y+y+y+y+y+y+y+y+y+y+y+y+y+y+y+y+y+y+y+y+y+y+y+y+y+y+y+y+y+y+y+y+y+y+y+y+y+y+y+y+y+y+y+j = = = a s+y+y+y+y+y+y+y+y+y+r.= = = = = 5.y+y+y+y+y+y+y+y+F+F+F+L.. ;+F+F+F+F+F+F+l+C n.F+A+a+C . . . . . . T.F+F+F+A+y+V A b / , , , , , , , , , , , ,                                                                                       , , , , , , ,                               ",
"                                      , , , , , , , , , , , , I q+y+y+y+y+y+y+y+y+y+y+y+y+y+y+y+y+y+y+y+y+y+y+y+y+y+y+y+y+y+y+y+y+y+y+y+y+y+y+y+y+y+y+y+y+y+y+y+y+y+y+y+y+y+y+y+y+y+y+y+y+y+y+y+y+y+y+y+y+y+y+y+y+y+y+y+y+y+y+y+y+d+= = = = q.y+y+y+y+y+y+y+y+y+q+a = = = = > 6+y+y+y+y+y+y+y+y+F+F+F+F+F+F+F+F+F+F+F+F+F+F+F+F+A+F+f+z...* * 3.;+F+F+F+F+y+Z E k } ' , , , , , , , , , , ,                                                                                         , , , , , , ,                               ",
"                                      , , , , , , , , , , , , , >.y+y+y+y+y+y+y+y+y+y+y+y+y+y+y+y+y+y+y+y+y+y+y+y+y+y+y+y+y+y+y+y+y+y+y+y+y+y+y+y+y+y+y+y+y+y+y+y+y+y+y+y+y+y+y+y+y+y+y+y+y+y+y+y+y+y+y+y+y+y+y+y+y+y+y+y+y+y+y+y+D.= = = = 7+y+y+y+y+y+y+y+y+y+C.= = = = = '.y+y+y+y+y+y+y+y+y+F+F+F+F+F+F+F+F+F+F+F+F+F+F+F+F+z+F+F+F+F+F+F+F+F+F+F+F+F+X D n 4 ! , , , , , , , , , , , ,                                                                                           , , , , , , ,                             ",
"                                        , , , , , , , , , , , , , c.y+y+y+y+y+y+y+y+y+y+y+y+y+y+y+y+y+y+y+y+y+y+y+y+y+y+y+y+y+y+y+y+y+y+y+y+y+y+y+y+y+y+y+y+y+y+y+y+y+y+y+y+y+y+y+y+y+y+y+y+y+y+y+y+y+y+y+y+y+y+y+y+y+y+y+y+y+y+y+,.= = = q y+y+y+y+y+y+y+y+y+q+q = = = = = )+y+y+y+y+y+y+y+y+y+y+y+y+y+y+y+y+y+y+F+F+F+F+F+F+F+F+F+F+F+F+F+F+F+F+F+F+F+M x f 4 ! , , , , , , , , , , , ,                                                                                               , , , , , ,                             ",
"                                          , , , , , , , , , , , , , x.y+y+y+y+y+y+y+y+y+y+y+y+y+y+y+y+y+y+y+y+y+y+y+y+y+y+y+y+y+y+y+y+y+y+y+y+y+y+y+y+y+y+y+y+y+y+y+y+y+y+y+y+y+y+y+y+y+y+y+y+y+y+y+y+y+y+y+y+y+y+y+y+y+y+y+y+y+y+j = = = ^.y+y+y+y+y+y+y+y+y+M.= = = = = U y+y+y+y+y+y+y+y+y+y+y+y+y+y+y+y+y+y+y+y+y+y+y+y+y+y+y+y+y+y+y+y+y+y+y+q+0.B p 0 [ ! , , , , , , , , , , , ,                                                                                                 , , , , , , ,                           ",
"                                          , , , , , , , , , , , , , , W.y+y+y+y+y+y+y+y+y+y+y+y+y+y+y+y+y+y+y+y+y+y+y+y+y+y+y+y+y+y+y+y+y+y+y+y+y+y+y+y+y+y+y+y+y+y+y+y+y+y+y+y+y+y+y+y+y+y+y+y+y+y+y+y+y+y+y+y+y+y+y+y+y+y+y+y+j+= = = = v.y+y+y+y+y+y+y+y+y+H = = = = = -+y+y+y+y+y+y+y+y+y+y+y+y+y+y+y+y+y+y+y+y+y+y+y+y+y+y+y+y+y+y+y+y+y+y+q+~.i 8 1 ^ ' , , , , , , , , , , , ,                                                                                                     , , , , , ,                           ",
"                                            , , , , , , , , , , , , , , $+y+y+y+y+y+y+y+y+y+y+y+y+y+y+y+y+y+y+y+y+y+y+y+y+y+y+y+y+y+y+y+y+y+y+y+y+y+y+y+y+y+y+y+y+y+y+y+y+y+y+y+y+y+y+y+y+y+y+y+y+y+y+y+y+y+y+y+y+y+y+y+y+y+y+y+]+= = = = -+y+y+y+y+y+y+y+y+`.= = = = = W y+y+y+y+y+y+y+y+y+y+y+y+y+y+y+y+y+y+y+y+y+y+y+y+y+y+y+y+y+y+y+y+y+y+q+T } < ! ' , , , , , , , , , , , , ,                                                                                                       , , , , , , ,                         ",
"                                              , , , , , , , , , , , , , , $+y+y+y+y+y+y+y+y+y+y+y+y+y+y+y+y+y+y+y+y+y+y+y+y+y+y+y+y+y+y+y+y+y+y+y+y+y+y+y+y+y+y+y+y+y+y+y+y+y+y+y+y+y+y+y+y+y+y+y+y+y+y+y+y+y+y+y+y+y+y+y+y+y+y+`.= = = = 8+y+y+y+y+y+y+y+y+R = = = = = -+y+y+y+y+y+y+y+y+y+y+y+y+y+y+y+y+y+y+y+y+y+y+y+y+y+y+y+y+y+y+y+y+y+c+v ' , , , , , , , , , , , , , , , ,                                                                                                           , , , , , ,                         ",
"                                              , , , , , , , , , , , , , , , $+y+y+y+y+y+y+y+y+y+y+y+y+y+y+y+y+y+y+y+y+y+y+y+y+y+y+y+y+y+y+y+y+y+y+y+y+y+y+y+y+y+y+y+y+y+y+y+y+y+y+y+y+y+y+y+y+y+y+y+y+y+y+y+y+y+y+y+y+y+y+y+y+y+G.= = = ~ y+y+y+y+y+y+y+y+>+= = = = = ` y+y+y+y+y+y+y+y+y+y+y+y+y+y+y+y+y+y+y+y+y+y+y+y+y+y+y+y+y+y+y+y+y+}+d , , , , , , , , , , , , , , , , , ,                                                                                                           , , , , , , ,                       ",
"                                                , , , , , , , , , , , , , , , $+y+y+y+y+y+y+y+y+y+y+y+y+y+y+y+y+y+y+y+y+y+y+y+y+y+y+y+y+y+y+y+y+y+y+y+y+y+y+y+y+y+y+y+y+y+y+y+y+y+y+y+y+y+y+y+y+y+y+y+y+y+y+y+y+y+y+y+y+y+y+y+y+D.= = = j y+y+y+y+y+y+y+y+&.= = = = - )+y+y+y+y+y+y+y+y+y+y+y+y+y+y+y+y+y+y+y+y+y+y+y+y+y+y+y+y+y+y+y+y+W., , , , , , , , , , , , , , , , , , ,                                                                                                               , , , , , ,                       ",
"                                                  , , , , , , , , , , , , , , , S.y+y+y+y+y+y+y+y+y+y+y+y+y+y+y+y+y+y+y+y+y+y+y+y+y+y+y+y+y+y+y+y+y+y+y+y+y+y+y+y+y+y+y+y+y+y+y+y+y+y+y+y+y+y+y+y+y+y+y+y+y+y+y+y+y+y+y+y+y+y+y+A.= = = w y+y+y+y+y+y+y+>+= = = = = ].y+y+y+y+y+y+y+y+y+y+y+y+y+y+y+y+y+y+y+y+y+y+y+y+y+y+y+y+y+y+y+y+k., , , , , , , , , , , , , , , , , , ,                                                                                                                 , , , , , , ,                     ",
"                                                    , , , , , , , , , , , , , , , x.y+y+y+y+y+y+y+y+y+y+y+y+y+y+y+y+y+y+y+y+y+y+y+y+y+y+y+y+y+y+y+y+y+y+y+y+y+y+y+y+y+y+y+y+y+y+y+y+y+y+y+y+y+y+y+y+y+y+y+y+y+y+y+y+y+y+y+y+y+y+A.= = = H y+y+y+y+y+y+y+W = = = = ~ 2+y+y+y+y+y+y+y+y+y+y+y+y+y+y+y+y+y+y+y+y+y+y+y+y+y+y+y+y+y+y+o+;., , , , , , , , , , , , , , , , , , ,                                                                                                                     , , , , , ,                     ",
"                                                      , , , , , , , , , , , , , , , 4.q+y+y+y+y+y+y+y+y+y+y+y+y+y+y+y+y+y+y+y+y+y+y+y+y+y+y+y+y+y+y+y+y+y+y+y+y+y+y+y+y+y+y+y+y+y+y+y+y+y+y+y+y+y+y+y+y+y+y+y+y+y+y+y+y+y+y+y+y+G.= = = q y+y+y+y+y+y+%+= = = = = 9.y+y+y+y+y+y+y+y+y+y+y+y+y+y+y+y+y+y+y+y+y+y+y+y+y+y+y+y+y+y+9+v , , , , , , , , , , , , , , , , , , ,                                                                                                                       , , , , , , ,                   ",
"                                                      , , , , , , , , , , , , , , , , ).q+y+y+y+y+y+y+y+y+y+y+y+y+y+y+y+y+y+y+y+y+y+y+y+y+y+y+y+y+y+y+y+y+y+y+y+y+y+y+y+y+y+y+y+y+y+y+y+y+y+y+y+y+y+y+y+y+y+y+y+y+y+y+y+y+y+y+y+V.= = = | y+y+y+y+y+q+H = = = = 3 d+y+y+y+y+y+y+y+y+y+y+y+y+y+y+y+y+y+y+y+y+y+y+y+y+y+y+y+y+y+X.] , , , , , , , , , , , , , , , , , , ,                                                                                                                           , , , , , ,                   ",
"                                                        , , , , , , , , , , , , , , , , v 9+y+y+y+y+y+y+y+y+y+y+y+y+y+y+y+y+y+y+y+y+y+y+y+y+y+y+y+y+y+y+y+y+y+y+y+y+y+y+y+y+y+y+y+y+y+y+y+y+y+y+y+y+y+y+y+y+y+y+y+y+y+y+y+y+y+y+(+= = = - d+y+y+y+y+C.= = = = = A.y+y+y+y+y+y+y+y+y+y+y+y+y+y+y+y+y+y+y+y+y+y+y+y+y+y+y+y+q+e., , , , , , , , , , , , , , , , , , , ,                                                                                                                             , , , , , , ,                 ",
"                                                          , , , , , , , , , , , , , , , , ] ++y+y+y+y+y+y+y+y+y+y+y+y+y+y+y+y+y+y+y+y+y+y+y+y+y+y+y+y+y+y+y+y+y+y+y+y+y+y+y+y+y+y+y+y+y+y+y+y+y+y+y+y+y+y+y+y+y+y+y+y+y+y+y+y+y+q+~ = = = C.y+y+y+8+3 = = = = K q+y+y+y+y+y+y+y+y+y+y+y+y+y+y+y+y+y+y+y+y+y+y+y+y+y+y+y+9+I , , , , , , , , , , , , , , , , , , , ,                                                                                                                                 , , , , , ,                 ",
"                                                            , , , , , , , , , , , , , , , , , k.y+y+y+y+y+y+y+y+y+y+y+y+y+y+y+y+y+y+y+y+y+y+y+y+y+y+y+y+y+y+y+y+y+y+y+y+y+y+y+y+y+y+y+y+y+y+y+y+y+y+y+y+y+y+y+y+y+y+y+y+y+y+y+y+y+ .= = = a 8+y+q+W = = = = ( (+y+y+y+y+y+y+y+y+y+y+y+y+y+y+y+y+y+y+y+y+y+y+y+y+y+y+y+S.] , , , , , , , , , , , , , , , , , , , ,                                                                                                                                   , , , , , , ,               ",
"                                                              , , , , , , , , , , , , , , , , , P b+y+y+y+y+y+y+y+y+y+y+y+y+y+y+y+y+y+y+y+y+y+y+y+y+y+y+y+y+y+y+y+y+y+y+y+y+y+y+y+y+y+y+y+y+y+y+y+y+y+y+y+y+y+y+y+y+y+y+y+y+y+y+y+D.= = = = 3 <.` = = = = = G.y+y+y+y+y+y+y+y+y+y+y+y+y+y+y+y+y+y+y+y+y+y+y+y+y+y+o+}., , , , , , , , , , , , , , , , , , , , ,                                                                                                                                       , , , , , ,               ",
"                                                                , , , , , , , , , , , , , , , , , ] K.y+y+y+y+y+y+y+y+y+y+y+y+y+y+y+y+y+y+y+y+y+y+y+y+y+y+y+y+y+y+y+y+y+y+y+y+y+y+y+y+y+y+y+y+y+y+y+y+y+y+y+y+y+y+y+y+y+y+y+y+y+y+q+q = = = = = = = = = = i.y+y+y+y+y+y+y+y+y+y+y+y+y+y+y+y+y+y+y+y+y+y+y+y+y+y+=+m , , , , , , , , , , , , , , , , , , , , ,                                                                                                                                         , , , , , , ,             ",
"                                                                  , , , , , , , , , , , , , , , , , , >.j+y+y+y+y+y+y+y+y+y+y+y+y+y+y+y+y+y+y+y+y+y+y+y+y+y+y+y+y+y+y+y+y+y+y+y+y+y+y+y+y+y+y+y+y+y+y+y+y+y+y+y+y+y+y+y+y+y+y+y+y+y+)+_ = = = = = = = - m.y+y+y+y+y+y+y+y+y+y+y+y+y+y+y+y+y+y+y+y+y+y+y+y+y+j+6., , , , , , , , , , , , , , , , , , , , , ,                                                                                                                                             , , , , , ,             ",
"                                                                    , , , , , , , , , , , , , , , , , , : K.y+y+y+y+y+y+y+y+y+y+y+y+y+y+y+y+y+y+y+y+y+y+y+y+y+y+y+y+y+y+y+y+y+y+y+y+y+y+y+y+y+y+y+y+y+y+y+y+y+y+y+y+y+y+y+y+y+y+y+y+y+,+w = = = = = q Y.y+y+y+y+y+y+y+y+y+y+y+y+y+y+y+y+y+y+y+y+y+y+y+y+y+W.m , , , , , , , , , , , , , , , , , , , , , ,                                                                                                                                               , , , , , , ,           ",
"                                                                    , , , , , , , , , , , , , , , , , , , , I }+y+y+y+y+y+y+y+y+y+y+y+y+y+y+y+y+y+y+y+y+y+y+y+y+y+y+y+y+y+y+y+y+y+y+y+y+y+y+y+y+y+y+y+y+y+y+y+y+y+y+y+y+y+y+y+y+y+y+y+y+y+-+q.2.f.Y.q+y+y+y+y+y+y+y+y+y+y+y+y+y+y+y+y+y+y+y+y+y+y+y+y+9+!., , , , , , , , , , , , , , , , , , , , , , ,                                                                                                                                                   , , , , , , ,         ",
"                                                                      , , , , , , , , , , , , , , , , , , , , , 7.o+y+y+y+y+y+y+y+y+y+y+y+y+y+y+y+y+y+y+y+y+y+y+y+y+y+y+y+y+y+y+y+y+y+y+y+y+y+y+y+y+y+y+y+y+y+y+y+y+y+y+y+y+y+y+y+y+y+y+y+y+y+y+y+y+y+y+y+y+y+y+y+y+y+y+y+y+y+y+y+y+y+y+y+y+y+y+y+o+k.] , , , , , , , , , , , , , , , , , , , , , , ,                                                                                                                                                     , , , , , , ,         ",
"                                                                        , , , , , , , , , , , , , , , , , , , , , ] k.q+y+y+y+y+y+y+y+y+y+y+y+y+y+y+y+y+y+y+y+y+y+y+y+y+y+y+y+y+y+y+y+y+y+y+y+y+y+y+y+y+y+y+y+y+y+y+y+y+y+y+y+y+y+y+y+y+y+y+y+y+y+y+y+y+y+y+y+y+y+y+y+y+y+y+y+y+y+y+y+y+y+y+y+y+S.m , , , , , , , , , , , , , , , , , , , , , , , ,                                                                                                                                                         , , , , , , ,       ",
"                                                                          , , , , , , , , , , , , , , , , , , , , , , m H.q+y+y+y+y+y+y+y+y+y+y+y+y+y+y+y+y+y+y+y+y+y+y+y+y+y+y+y+y+y+y+y+y+y+y+y+y+y+y+y+y+y+y+y+y+y+y+y+y+y+y+y+y+y+y+y+y+y+y+y+y+y+y+y+y+y+y+y+y+y+y+y+y+y+y+y+y+y+y+y+y+X.z , , , , , , , , , , , , , , , , , , , , , , , , ,                                                                                                                                                           , , , , , , ,       ",
"                                                                            , , , , , , , , , , , , , , , , , , , , , , , t O.q+y+y+y+y+y+y+y+y+y+y+y+y+y+y+y+y+y+y+y+y+y+y+y+y+y+y+y+y+y+y+y+y+y+y+y+y+y+y+y+y+y+y+y+y+y+y+y+y+y+y+y+y+y+y+y+y+y+y+y+y+y+y+y+y+y+y+y+y+y+y+y+y+y+y+y+y+W.z , , , , , , , , , , , , , , , , , , , , , , , , , ,                                                                                                                                                               , , , , , , ,     ",
"                                                                                , , , , , , , , , , , , , , , , , , , , , , , m x.o+y+y+y+y+y+y+y+y+y+y+y+y+y+y+y+y+y+y+y+y+y+y+y+y+y+y+y+y+y+y+y+y+y+y+y+y+y+y+y+y+y+y+y+y+y+y+y+y+y+y+y+y+y+y+y+y+y+y+y+y+y+y+y+y+y+y+y+y+y+y+y+o+F.v , , , , , , , , , , , , , , , , , , , , , , , , , , ,                                                                                                                                                                 , , , , , , ,     ",
"                                                                                  , , , , , , , , , , , , , , , , , , , , , , , , ] c.9+y+y+y+y+y+y+y+y+y+y+y+y+y+y+y+y+y+y+y+y+y+y+y+y+y+y+y+y+y+y+y+y+y+y+y+y+y+y+y+y+y+y+y+y+y+y+y+y+y+y+y+y+y+y+y+y+y+y+y+y+y+y+y+y+y+y+y+1+7.] , , , , , , , , , , , , , , , , , , , , , , , , , , , ,                                                                                                                                                                     , , , , , , ,   ",
"                                                                                    , , , , , , , , , , , , , , , , , , , , , , , , , , +.O.q+y+y+y+y+y+y+y+y+y+y+y+y+y+y+y+y+y+y+y+y+y+y+y+y+y+y+y+y+y+y+y+y+y+y+y+y+y+y+y+y+y+y+y+y+y+y+y+y+y+y+y+y+y+y+y+y+y+y+y+y+y+9+x.I , , , , , , , , , , , , , , , , , , , , , , , , , , , , ,                                                                                                                                                                         , , , , , , ,   ",
"                                                                                      , , , , , , , , , , , , , , , , , , , , , , , , , , , : 6.~+y+y+y+y+y+y+y+y+y+y+y+y+y+y+y+y+y+y+y+y+y+y+y+y+y+y+y+y+y+y+y+y+y+y+y+y+y+y+y+y+y+y+y+y+y+y+y+y+y+y+y+y+y+y+y+q+'+h.z , , , , , , , , , , , , , , , , , , , , , , , , , , , , , , ,                                                                                                                                                                             , , , , , , , ",
"                                                                                        , , , , , , , , , , , , , , , , , , , , , , , , , , , , , m }.X.q+y+y+y+y+y+y+y+y+y+y+y+y+y+y+y+y+y+y+y+y+y+y+y+y+y+y+y+y+y+y+y+y+y+y+y+y+y+y+y+y+y+y+y+y+y+y+y+i+X.e.+.] , , , , , , , , , , , , , , , , , , , , , , , , , , , , , , , , ,                                                                                                                                                                                 , , , , , , ",
"                                                                                          , , , , , , , , , , , , , , , , , , , , , , , , , , , , , , , : /.H.1+y+y+y+y+y+y+y+y+y+y+y+y+y+y+y+y+y+y+y+y+y+y+y+y+y+y+y+y+y+y+y+y+y+y+y+y+y+y+q+5+X.o.!.m , , , , , , , , , , , , , , , , , , , , , , , , , , , , , , , , , , , , ,                                                                                                                                                                                   , , , , , , ",
"                                                                                              , , , , , , , , , , , , , , , , , , , , , , , , , , , , , , , , , d +.7.H.=+9+y+y+y+y+y+y+y+y+y+y+y+y+y+y+y+y+y+y+y+y+y+y+y+y+q+e+}+=+F.6.+.m , , , , , , , , , , , , , , , , , , , , , , , , , , , , , , , , , , , , , , , , ,                                                                                                                                                                                         , , , , , ",
"                                                                                                , , , , , , , , , , , , , , , , , , , , , , , , , , , , , , , , , , , , , , , m I $./.}.7.7.k.k.x.y.y.x.k.k.7.6././.;.I o ] , , , , , , , , , , , , , , , , , , , , , , , , , , , , , , , , , , , , , , , , , , , , , , , ,                                                                                                                                                                                           , , , , , ",
"                                                                                                  , , , , , , , , , , , , , , , , , , , , , , , , , , , , , , , , , , , , , , , , , , , , , , , , , , , , , , , , , , , , , , , , , , , , , , , , , , , , , , , , , , , , , , , , , , , , , , , , , , , , , , , , , , , ,                                                                                                                                                                                               , , ,   ",
"                                                                                                      , , , , , , , , , , , , , , , , , , , , , , , , , , , , , , , , , , , , , , , , , , , , , , , , , , , , , , , , , , , , , , , , , , , , , , , , , , , , , , , , , , , , , , , , , , , , , , , , , , , , , , , ,                                                                                                                                                                                                   , , ,   ",
"                                                                                                        , , , , , , , , , , , , , , , , , , , , , , , , , , , , , , , , , , , , , , , , , , , , , , , , , , , , , , , , , , , , , , , , , , , , , , , , , , , , , , , , , , , , , , , , , , , , , , , , , , , , , ,                                                                                                                                                                                                             ",
"                                                                                                            , , , , , , , , , , , , , , , , , , , , , , , , , , , , , , , , , , , , , , , , , , , , , , , , , , , , , , , , , , , , , , , , , , , , , , , , , , , , , , , , , , , , , , , , , , , , , , , , , ,                                                                                                                                                                                                                 ",
"                                                                                                              , , , , , , , , , , , , , , , , , , , , , , , , , , , , , , , , , , , , , , , , , , , , , , , , , , , , , , , , , , , , , , , , , , , , , , , , , , , , , , , , , , , , , , , , , , , , , , , ,                                                                                                                                                                                                                   ",
"                                                                                                                  , , , , , , , , , , , , , , , , , , , , , , , , , , , , , , , , , , , , , , , , , , , , , , , , , , , , , , , , , , , , , , , , , , , , , , , , , , , , , , , , , , , , , , , , , , , ,                                                                                                                                                                                                                       ",
"                                                                                                                    , , , , , , , , , , , , , , , , , , , , , , , , , , , , , , , , , , , , , , , , , , , , , , , , , , , , , , , , , , , , , , , , , , , , , , , , , , , , , , , , , , , , , , , , , ,                                                                                                                                                                                                                         ",
"                                                                                                                        , , , , , , , , , , , , , , , , , , , , , , , , , , , , , , , , , , , , , , , , , , , , , , , , , , , , , , , , , , , , , , , , , , , , , , , , , , , , , , , , , , , , , ,                                                                                                                                                                                                                             ",
"                                                                                                                            , , , , , , , , , , , , , , , , , , , , , , , , , , , , , , , , , , , , , , , , , , , , , , , , , , , , , , , , , , , , , , , , , , , , , , , , , , , , , , , , , ,                                                                                                                                                                                                                                 ",
"                                                                                                                                , , , , , , , , , , , , , , , , , , , , , , , , , , , , , , , , , , , , , , , , , , , , , , , , , , , , , , , , , , , , , , , , , , , , , , , , , , , , , ,                                                                                                                                                                                                                                     ",
"                                                                                                                                    , , , , , , , , , , , , , , , , , , , , , , , , , , , , , , , , , , , , , , , , , , , , , , , , , , , , , , , , , , , , , , , , , , , , , , , , , ,                                                                                                                                                                                                                                         ",
"                                                                                                                                        , , , , , , , , , , , , , , , , , , , , , , , , , , , , , , , , , , , , , , , , , , , , , , , , , , , , , , , , , , , , , , , , , , , , , ,                                                                                                                                                                                                                                             ",
"                                                                                                                                              , , , , , , , , , , , , , , , , , , , , , , , , , , , , , , , , , , , , , , , , , , , , , , , , , , , , , , , , , , , , , , , , ,                                                                                                                                                                                                                                                 ",
"                                                                                                                                                  , , , , , , , , , , , , , , , , , , , , , , , , , , , , , , , , , , , , , , , , , , , , , , , , , , , , , , , , , , , ,                                                                                                                                                                                                                                                       ",
"                                                                                                                                                        , , , , , , , , , , , , , , , , , , , , , , , , , , , , , , , , , , , , , , , , , , , , , , , , , , , , , , ,                                                                                                                                                                                                                                                           ",
"                                                                                                                                                              , , , , , , , , , , , , , , , , , , , , , , , , , , , , , , , , , , , , , , , , , , , , , , , , ,                                                                                                                                                                                                                                                                 ",
"                                                                                                                                                                      , , , , , , , , , , , , , , , , , , , , , , , , , , , , , , , , , , , , , , , , ,                                                                                                                                                                                                                                                                         ",
"                                                                                                                                                                                , , , , , , , , , , , , , , , , , , , , , , , , , , , , , , , ,                                                                                                                                                                                                                                                                                 ",
"                                                                                                                                                                                              , , , , , , , , , , , , , , , , , ,                                                                                                                                                                                                                                                                                               "};
