/* XPM */
static char * adJ_4bpp_xpm[] = {
"256 185 16 1",
" 	c None",
".	c #000000",
"+	c #741F04",
"@	c #DD0302",
"#	c #82341A",
"$	c #646564",
"%	c #9B5743",
"&	c #E64240",
"*	c #AE7F6F",
"=	c #EE7979",
"-	c #C2A296",
";	c #F09FA0",
">	c #F5B5B6",
",	c #C7C9C8",
"'	c #E0C9C2",
")	c #FFFFFF",
"                                                                                                  @@@@@@@@@@@@@@@@                                                                                                                                              ",
"                                                                                             @@@@@@@@@@@@@@@@@@@@@@@@@@@                                                                                                                                        ",
"                                                                                         @@@@@@@@@@@@@@@@@@@@@@@@@@@@@@@@@@@                                                                                                                                    ",
"                                                                                      @@@@@@@@@@@@@@@@@@@@@@@@@@@@@@@@@@@@@@@@@@                                                                                                                                ",
"                                                                                   @@@@@@@@@@@@@@@@@@@@@@@@@@@@@@@@@@@@@@@@@@@@@@@@                                                                                                                             ",
"                                                                                 @@@@@@@@@@@@@@@@@@@@@@@@@@@@@@@@@@@@@@@@@@@@@@@@@@@@                                                                                                                           ",
"                                                                              @@@@@@@@@@@@@@@@@@@@@@@@@@@@@@@@@@@@@@@@@@@@@@@@@@@@@@@@@@                                                                                                                        ",
"                                                                            @@@@@@@@@@@@@@@@@@@@@@@@@@@@@@@@@@@@@@@@@@@@@@@@@@@@@@@@@@@@@@                                                                                                                      ",
"                                                                          @@@@@@@@@@@@@@@@@@@@@@@@@@@@@@@@@@@@@@@@@@@@@@@@@@@@@@@@@@@@@@@@@@                                                                                                                    ",
"                                                                        @@@@@@@@@@@@@@@@@@@@@@@@@@@@@@@@@@@@@@@@@@@@@@@@@@@@@@@@@@@@@@@@@@@@@@                                                                                                                  ",
"                                                                       @@@@@@@@@@@@@@@@@@@@@@@@@@@@@@@@@@@@@@@@@@@@@@@@@@@@@@@@@@@@@@@@@@@@@@@@@                                                                                                                ",
"                                                                     @@@@@@@@@@@@@@@@@@@@@@@@@@@@@@@@@@@@@@@@@@@@@@@@@@@@@@@@@@@@@@@@@@@@@@@@@@@@@                                                                                                              ",
"                                                                   @@@@@@@@@@@@@@@@@@@@@@@@@@@@@@@@@@@@@@@@@@@@@@@@@@@@@@@@@@@@@@@@@@@@@@@@@@@@@@@@@                                                                                                            ",
"                                                                  @@@@@@@@@@@@@@@@@@@@@@@@@@@@@@@@@@@@@@@@@@@@@@@@@@@@@@@@@@@@@@@@@@@@@@@@@@@@@@@@@@@                                                                                                           ",
"                                                                @@@@@@@@@@@@@@@@@@@@@@@@@@@@@@@@@@@@@@@@@@@@@@@@@@@@@@@@@@@@@@@@@@@@@@@@@@@@@@@@@@@@@@@                                                                                                         ",
"                                                               @@@@@@@@@@@@@@@@@@@@@@@@@@@@@@@@@&&=;>'))))))))))))))))))'>;=&&@@@@@@@@@@@@@@@@@@@@@@@@@@                                                                                                        ",
"                                                             @@@@@@@@@@@@@@@@@@@@@@@@@@@@@@&=>))))))))))))))))))))))))))))))))))';=&@@@@@@@@@@@@@@@@@@@@@@                                                                                                      ",
"                                                            @@@@@@@@@@@@@@@@@@@@@@@@@@@@=>)))))))))))))))))))))))))))))))))))))))))));&@@@@@@@@@@@@@@@@@@@@                                                                                                 @@@ ",
"                                                           @@@@@@@@@@@@@@@@@@@@@@@@@@=>)))))))))))))))))))))))))))))))))))))))))))))))))>&@@@@@@@@@@@@@@@@@@@                                                                                               @@@ ",
"                                                         @@@@@@@@@@@@@@@@@@@@@@@@@@;)))))))))))))))))))))))))))))))))))))))))))))))))))))))=@@@@@@@@@@@@@@@@@@                                                                                             @@@@@",
"                                                        @@@@@@@@@@@@@@@@@@@@@@@@&')))))))))))))))))))))))))))))))))))))))))))))))))))))))))))>&@@@@@@@@@@@@@@@@                                                                                            @@@@@",
"                                                       @@@@@@@@@@@@@@@@@@@@@@@=))))))))))))))))))))))))))))))))))))))))))))))))))))))))))))))))>&@@@@@@@@@@@@@@@@                                                                                         @@@@@@",
"                                                      @@@@@@@@@@@@@@@@@@@@@@ ))))))))))))))))))))))))))))))))))))))))))))))))))))))))))))))))))));@@@@@@@@@@@@@@@@                                                                                       @@@@@@@",
"                                                    @@@@@@@@@@@@@@@@@@@@@@ ))))))))))))))))))))))))))))))))))))))))))))))))))))))))))))))))))))))))=@@@@@@@@@@@@@@@                                                                                      @@@@@@@",
"                                                   @@@@@@@@@@@@@@@@@@@@@ ))))))))))))))))))))))))))))))))))))))))))))))))))))))))))))))))))))))))))))&@@@@@@@@@@@@@@                                                                                    @@@@@@@ ",
"                                                  @@@@@@@@@@@@@@@@@@@@ )))))))))))))))))))))))))))))))))))))))))))))))))))))))))))))))))))))))))))))))>@@@@@@@@@@@@@@@                                                                                  @@@@@@@ ",
"                                                 @@@@@@@@@@@@@@@@@@@ )))))))))))))))))))))))))))))))))))))))))))))))))))))))))))))))))))))))))))))))))))=@@@@@@@@@@@@@@                                                                                @@@@@@@  ",
"                                                @@@@@@@@@@@@@@@@@@=))))))))))))))))))))))))))))))))))))))))))))))))))))))))))))))))))))))))))))))))))))))>@@@@@@@@@@@@@@                                                                               @@@@@@@  ",
"                                               @@@@@@@@@@@@@@@@@&))))))))))))))))))))))))))))))))))))))))))))))))))))))))))))))))))))))))))))))))))))))))))&@@@@@@@@@@@@@                                                                             @@@@@@@   ",
"                                              @@@@@@@@@@@@@@@@@'))))))))))))))))))))))))))))))))))))))))))))))))))))))))))))))))))))))))))))))))))))))))))))>@@@@@@@@@@@@@                                                                            @@@@@@@   ",
"                                             @@@@@@@@@@@@@@@@=))))))))))))))))))))))))))))))))))))))))))))))))))))))))))))))))))))))))))))))))))))))))))))))))&@@@@@@@@@@@@                                                                          @@@@@@@    ",
"                                            @@@@@@@@@@@@@@@&)))))))))))))))))))))))))))))))))))))))))))))))))))))))))))))))))))))))))))))))))))))))))))))))))))=@@@@@@@@@@@@                                                                         @@@@@@@    ",
"                                           @@@@@@@@@@@@@@@;)))))))))))))))))))))))))))))))))))))))))))))))))))))))))))))))))))))))))))))))))))))))))))))))))))))>@@@@@@@@@@@@                                                                       @@@@@@@     ",
"                                          @@@@@@@@@@@@@@&)))))))))))))))))))))))))))))))))))))))))))))))))))))))))))))))))))))))))))))))))))))))))))))))))))))))))&@@@@@@@@@@@                                                                      @@@@@@      ",
"                                         @@@@@@@@@@@@@@=)))))))))))))))))))))))))))))))))))))))))))))))))))))))))))))))))))))))))))))))))))))))))))))))))))))))))))&@@@@@@@@@@@                                                                    @@@@@@@      ",
"                                        @@@@@@@@@@@@@@>)))))))))))))))))))))))))))))))))))))))))))))))))))))))))))))))))))))))))))))))))))))))))))))))))))))))))))))=@@@@@@@@@@@                                                                  @@@@@@@       ",
"                                       @@@@@@@@@@@@@&))))))))))))))))))))))))))))))))))))))))))))))))))))))))))))))))))))))))))))))))))))))))))))))))))))))))))))))));@@@@@@@@@@@                                                                 @@@@@@@       ",
"                                      @@@@@@@@@@@@@=))))))))))))))))))))))))))))))))))))))))))))))))))))))))))))))))))))))))))))))))))))))))))))))))))))))))))))))))))'@@@@@@@@@@@                                                               @@@@@@@        ",
"                                     @@@@@@@@@@@@@;)))))))))))))))))))))))))))))))))))))))))))))))))))))))))))))))))))))))))))))))))))))))))))))))))))))))))))))))))))))@@@@@@@@@@@                                                              @@@@@@@        ",
"                                    @@@@@@@@@@@@@')))))))))))))))))))))))))))))))))))))))))))))))))))))))))))))))))))))))))))))))))))))))))))))))))))))))))))))))))))))))&@@@@@@@@@@                                                            @@@@@@@         ",
"                                   @@@@@@@@@@@@@')))))))))))))))))))))))))))))))))))))))))))))))))))))))))))))))))))))))))))))))))))))))))))))))))))))))))))))))))))))))))&@@@@@@@@@@                                                           @@@@@@@         ",
"                                  @@@@@@@@@@@@&))))))))))))))))))))))))))))))))))))))))))))))))))))))))))))))))))))))))))))))))))))))))))))))))))))))))))))))))))))))))))))=@@@@@@@@@@                                                         @@@@@@@          ",
"                                 @@@@@@@@@@@@&))))))))))))))))))))))))))))))))))))))))))))))))))))))))))))))))))))))))))))))))))))))))))))))))))))))))))))))))))))))))))))));@@@@@@@@@@                                                        @@@@@@@          ",
"                                @@@@@@@@@@@@&))))))))))))))))))))))))))))))))))))))))))))))))))))))))))))))))))))))))))))))))))))))))))))))))))))))))))))))))))))))))))))))))>@@@@@@@@@@                                                      @@@@@@@           ",
"                                @@@@@@@@@@@&)))))))))))))))))))))))))))))))))))))))))))))))))))))))))))))))))))))))))))))))))))-*))))))))))))))))))))))))))))))))))))))'*****)'@@@@@@@@@@                                                     @@@@@@@           ",
"                               @@@@@@@@@@@&)))))))))))))))))))))))))))))))))))))))))))))))))))))))))))))))))))))))))))))))))))%++-)))))))))))))))))))))))))))))))))))))#++++%))'@@@@@@@@@                                                    @@@@@@@            ",
"                              @@@@@@@@@@@&)))))))))))))))))))))))))))))))))))))))))))))))))))))))))))))))))))))))))))))))))))*+++%))))))))))))))))))))))))))))))))))))%+++++')));@@@@@@@@@                                                  @@@@@@@@            ",
"                             @@@@@@@@@@@@))))))))))))))))))))))))))))))))))))))))))))))))))))))))))))))))))))))))))))))))))))#+++*)))))))))))))))))))))))))))))))))))#+++++#)))))=@@@@@@@@@                                                 @@@@@@@             ",
"                            @@@@@@@@@@@@')))))))))))))))))))))))))))))))))))))))))))))))))))))))))))))))))))))))))))))))))))-++++')))))))))))))))))))))))))))))))))'#++++++-))))))&@@@@@@@@@                                               @@@@@@@@             ",
"                           @@@@@@@@@@@@>))))))))))))))))))))))))))))))))))))))))))))))))))))))))))))))))))))))))))))))))))))#+++#)))))))))))))))))))))))))))))))))*++++++++))))))))&@@@@@@@@@                                              @@@@@@@              ",
"                          @@@@@@@@@@@@;))))))))))))))))))))))))))))))))))))))))))))))))))))))))))))))))))))))))))))))))))))-++++*))))))))))))))))))))))))))))))'*+++++++++%)))))))))@@@@@@@@@@                                            @@@@@@@@              ",
"                          @@@@@@@@@@@=)))))))))))))))))))))))))))))))))))))))))))))))))))))))))))))))))))))))))))))))))))))%++++'))))))))))))))))))))))))))))-#+++++++++++'))))))))))@@@@@@@@@                                            @@@@@@@               ",
"                         @@@@@@@@@@@&)))))))))))))))))))))))))))))))))))))))))))))))))))))))))))))))))))))))))))))))))))))'++++#)))))))))))))))))))))))))'-%+++++++++++++#)))))))))))'@@@@@@@@@                                          @@@@@@@@               ",
"                        @@@@@@@@@@@@))))))))))))))))))))))))))))))))))))))))))))))))))))))))))))))))))))))))))))))))))))))*++++*)))))))))))))))))))))'-*#++++++++++++++++-))))))))))))>@@@@@@@@@                                        @@@@@@@@                ",
"                       @@@@@@@@@@@@'))))))))))))))))))))))))))))))))))))))))))))))))))))))))))))))))))))))))))))))))))))))+++++')))))))))))))))))'-%#+++++++++++++%-++++#))))))))))))));@@@@@@@@@                                       @@@@@@@@                ",
"                       @@@@@@@@@@@;))))))))))))))))))))))))))))))))))))))))))))))))))))))))))))))))))))))))))))))))))))))-++++#)))))))))))))))'*#++++++++++++++#*')*++++*)))))))))))))))&@@@@@@@@@                                     @@@@@@@@                 ",
"                      @@@@@@@@@@@&)))))))))))))))))))))))))))))))))))))))))))))))))))))))))))))))))))))))))))))))))))))))#++++*)))))))))))))'#+++++++++++++#%-'))))#++++'))))))))))))))))@@@@@@@@@                                     @@@@@@@@                 ",
"                     @@@@@@@@@@@@)))))))))))))))))))))))))))))))))))))))))))))))))))))))))))))))))))))))))))))))))))))))'+++++')))))))))))'%+++++++++++#*'))))))))-++++%))))))))))))))))))@@@@@@@@@                                   @@@@@@@@                  ",
"                    @@@@@@@@@@@@>)))))))))))))))))))))))))))))))))))))))))))))))))))))))))))))))))))))))))))))))))))))))%++++%))))))))))'%++++++++++#-')))))))))))#++++')))))))))))))))))))@@@@@@@@@                                  @@@@@@@                   ",
"                    @@@@@@@@@@@=))))))))))))))))))))))))))))))))))))))))))))))))))))))))))))))))))))))))))))))))))))))))+++++-)))))))))*++++++++++*')))))))))))))'++++#)))))))))))))))))))) @@@@@@@@@                                @@@@@@@@                   ",
"                   @@@@@@@@@@@&))))))))))))))))))))))))))))))))))))))))))))))))))))))))))))))))))))))))))))))))))))))))-++++#))))))))'#++++++++#*))))))))))))))))%++++-))))))))))))))))))))) @@@@@@@@                               @@@@@@@@                    ",
"                  @@@@@@@@@@@@'))))))))))))))))))))))))))))))))))))))))))))))))))))))))))))))))))))))))))))))))))))))))#++++*)))))))-++++++++%-)))))))))))))))))'+++++)))))))))))))))))))))))&@@@@@@@@                              @@@@@@@@                    ",
"                 @@@@@@@@@@@@=))))))))))))))))))))))))))))))))))))))))))))))))))))))))))))))))))))))))))))))))))))))))'+++++'))))))*++++++#*')))))))))))))))))))*++++*))))))))))))))))))))))))@@@@@@@@@                            @@@@@@@@                     ",
"                 @@@@@@@@@@@&)))))))))))))))))))))))))))))))))))))))))))))))))))))))))))))))))))))))))))))))))))))))))%++++%))))))*+++++#-))))))))))))))))))))))#++++')))))))))))))))))))))))))@@@@@@@@@                           @@@@@@@@                     ",
"                @@@@@@@@@@@@>)))))))))))))))))))))))))))))))))))))))))))))))))))))))))))))))))))))))))))))))))))))))))+++++')))))'+++++-)))))))))))))))))))))))-++++%)))))))))))))))))))))))))) @@@@@@@@                          @@@@@@@@                      ",
"               @@@@@@@@@@@@=)))))))))))))))))))))))))))))))))))))))))))))))))))))))))))))))))))))))))))))))))))))))))*++++#))))))#+++#'))))))))))))))))))))))))#++++'))))))))))))))))))))))))))) @@@@@@@@                        @@@@@@@@@                      ",
"              @@@@@@@@@@@@@))))))))))))))))))))))))))))))))))))))))))))))))))))))))))))))))))))))))))))))))))))))))))#++++-)))))*+++#)))))))))))))))))))))))))'++++#)))))))))))))))))))))))))))))@@@@@@@@@                       @@@@@@@@                       ",
"              @@@@@@@@@@@@;)))))))))))))))))))))))))))))))))))))))))))))))))))))))))))))))))))))))))))))))))))))))))'+++++))))))#+++*)))))))))))))))))))))))))%++++-))))))))))))))))))))))))))))))@@@@@@@@                      @@@@@@@@@                       ",
"             @@@@@@@@@@@@&))))))))))))))))))))))))))))))))))))))))))))))))))))))))))))))))))))))))))))))))))))))))))%++++%))))))#+++-))))))))))))))))))))))))'+++++))))))))))))))))))))))))))))))))@@@@@@@@                     @@@@@@@@                        ",
"            @@@@@@@@@@@@@'))))))))))))))))))))))))))))))))))))))))))))))))))))))))))))))))))))))))))))))))))))))))))+++++'))))))'%%')))))))))))))))))))))))))*++++*))))))))))))))))))))))))))))))));@@@@@@@@                   @@@@@@@@@                        ",
"            @@@@@@@@@@@@=))))))))))))))))))))))))))))))))))))))))))))))))))))))))))))))))))))))))))))))))))))))))))*++++#))))))))))))))))))))))))))))))))))))+++++')))))))))))))))))))))))))))))))))&@@@@@@@@                 @@@@@@@@@                         ",
"           @@@@@@@@@@@@@)))))))))))))))))))))))))))))))))))))))))))))))))))))))))))))))))))))))))))))))))))))))))))#++++-)))))))))))))))))))))))))))))))))))-++++%)))))))))))))))))))))))))))))))))))@@@@@@@@                 @@@@@@@@@                         ",
"          @@@@@@@@@@@@@;))))))))))))))))))))))))))))))))))))))))))))))))))))))))))))))))))))))))))))))))))))))))))'++++#))))))))))))))))))))))))))))))))))))#++++'))))))))))))))))))))))))))))))))))))@@@@@@@@               @@@@@@@@@                          ",
"          @@@@@@@@@@@@@)))))))))))))))))))))))))))))))))))))))))))))))))))))))))))))))))))))))))))))))))))))))))))%++++*)))))))))))))))))))))))))))))))))))-++++#)))))))))))))))))))))))))))))))))))))>@@@@@@@@              @@@@@@@@                           ",
"         @@@@@@@@@@@@@>))))))))))))))))))))))))))))))))))))))))))))))))))))))))))))))))))))))))))))))))))))))))))'+++++')))))))))))))))))))))))))))))))))))%++++-))))))))))))))))))))))))))))))))))))))&@@@@@@@             @@@@@@@@@                           ",
"        @@@@@@@@@@@@@&)))))))))))))))))))))))))))))))))))))))))))))))))))))))))))))))))))))))))))))))))))))))))))*++++%)))))))))))))))))))))))))))))))))))'++++#))))))))))))))))))))))))))))))))))))))))@@@@@@@@           @@@@@@@@@                            ",
"        @@@@@@@@@@@@@')))))))))))))))))))))))))))))))))))))))))))))))))))))))))))))))))))))))))))))))))))))))))))#++++-)))))))))))))))))))))))))))))))))))%++++*)))))))))))))))))))))))))))))))))))))))))@@@@@@@@          @@@@@@@@@                            ",
"       @@@@@@@@@@@@@=)))))))))))))))))))))))))))))))))))))))))))))))))))))))))))))))))))))))))))))))))))))))))))-++++#))))))))))))))))))))))))))))))))))))+++++')))))))))))))))))))))))))))))))))))))))));@@@@@@@         @@@@@@@@@                             ",
"       @@@@@@@@@@@@@))))))))))))))))))))))))))))))))))))))))))))))))))))))))))))))))))))))))))))))))))))))))))))%++++*)))))))))))))))))))))))))))))))))))*++++%)))))))))))))))))))))))))))))))))))))))))))&@@@@@@@       @@@@@@@@@@                             ",
"      @@@@@@@@@@@@@=)))))))))))))))))))))))))))))))))))))))))))))))))))))))))))))))))))))))))))))))))))))))))))'+++++')))))))))))))))))))))))))))))))))))#++++'))))))))))))))))))))))))))))))))))))))))))))@@@@@@@@      @@@@@@@@@                              ",
"     @@@@@@@@@@@@@@))))))))))))))))))))))))))))))))))))))))))))))))))))))))))))))))))))))))))))))))))))))))))))*++++%)))))))))))))))))))))))))))))))))))-++++#)))))))))))))))))))))))))))))))))))))))))))))'@@@@@@@     @@@@@@@@@@                              ",
"     @@@@@@@@@@@@@>))))))))))))))))))))))))))))))))))))))))))))))))))))))))))))))))))))))))))))))))))))))))))))#++++')))))))))))))))))))))))))))))))))))#++++-))))))))))))))))))))))))))))))))))))))))))))))=@@@@@@@    @@@@@@@@@                               ",
"    @@@@@@@@@@@@@&))))))))))))))))))))))))))))))))))))))))))))))))))))))))))))))))))))))))))))))))))))))))))))-++++#)))))))))))))))))))))))))))))))))))'++++#))))))))))))))))))))))))))))))))))))))))))))))))@@@@@@@   @@@@@@@@@                                ",
"    @@@@@@@@@@@@@'))))))))))))))))))))))))))))))))))))))))))))))))))))))))))))))))))))))))))))))))))))))))))))%++++-)))))))))))))))))))))))))))))))))))%++++*))))))))))))))))))))))))))))))))))))))))))))))))>@@@@@@@ @@@@@@@@@@                                ",
"   @@@@@@@@@@@@@=))))))))))))))))))))))))))))))))))))))))))))))))))))))))))))))))))))))))))))))))))))))))))))'+++++)))))))))))))))))))))))))))))))))))'+++++')))))))))))))))))))))))))))))))))))))))))))))))))&@@@@@@@@@@@@@@@@                                 ",
"  @@@@@@@@@@@@@@))))))))))))))))))))))))))))))))))))))))'--***-))))))))))))))))))))))))))))))))))))''''')))))*++++*)))))))))))))))))))))))))))))))))))*++++%)))))))))))))))))))))))))))))))))))))))))))))))))))@@@@@@@@@@@@@@@@                                 ",
"  @@@@@@@@@@@@@;)))))))))))))))))))))))))))))))))))))-%+++++++++%')))))))))))))))))))))))))))))'*#+++++++%-))#++++')))))))))))))))))))))))))))))))))))#++++')))))))))))))))))))))))))))))))))))))))))))))))))))>@@@@@@@@@@@@@@                                  ",
" @@@@@@@@@@@@@@))))))))))))))))))))))))))))))))))))*#+++++++++++++#')))))))))))))))))))))))))*#++++++++++++#%++++#)))))))))))))))))))))))))))))))))))-++++#)))))))))))))))))))))))))))))))))))))))))))))))))))))&@@@@@@@@@@@@                                   ",
" @@@@@@@@@@@@@'))))))))))))))))))))))))))))))))))-#+++++++++++++++++*))))))))))))))))))))))*+++++++++++++++++++++-)))))))))))))))))))))))))))))))))))#++++-))))))))))))))))))))))))))))))))))))))))))))))))))))))@@@@@@@@@@@@                                   ",
" @@@@@@@@@@@@&))))))))))))))))))))))))))))))))))%+++++++++#%#++++++++%)))))))))))))))))))-#+++++++#%%%#+++++++++#)))))))))))))))))))))))))))))))))))'++++#)))))))))))))))))))))))))))))))))))))))))))))))))))))))=@@@@@@@@@@                                    ",
"@@@@@@@@@@@@@)))))))))))))))))))))))))))))))))'#++++++%-'))))'*+++++++%)))))))))))))))))%+++++#*'))))))'%+++++++*)))))))))))))))))))))))))))))))))))%++++*)))))))))))))))))))))))))))))))))))))))))))))))))))))))>@@@@@@@@@@                                    ",
"@@@@@@@@@@@@ ))))))))))))))))))))))))))))))))'#+++++*'))))))))))*++++++)))))))))))))))'#++++#-)))))))))))%++++++'))))))))))))))))))))))))))))))))))'+++++))))))))))))))))))))))))))))))))))))))))))))))))))))))))@@@@@@@@@@                                     ",
"@@@@@@@@@@@@)))))))))))))))))))))))))))))))))#++++%')))))))))))))%++++%))))))))))))))-+++++-)))))))))))))-+++++%)))))))))))))))))))))))))))))))))))*++++%)))))))))))))))))))))))))))))))))))))))))))))))))))))))&@@@@@@@@@@                                     ",
"@@@@@@@@@@@=))))))))))))))))))))))))))))))))%++++*)))))))))))))))*++++-)))))))))))))'++++#'))))))))))))))-+++++-)))))))))))))))))))))))))))))))))))+++++'))))))))))))))))))))))))))))))))))))))))))))))))))))))=@@@@@@@@@@@                                     ",
"@@@@@@@@@@@;)))))))))))))))))))))))))))))))*++++-))))))))))))))))*+++#))))))))))))))%+++%))))))))))))))))*++++#)))))))))))))))))))))))))))))))))))-++++%))))))))))))))))))))))))))))))))))))))))))))))))))))))'@@@@@@@@@@@@@                                    ",
"@@@@@@@@@@@@))))))))))))))))))))))))))))))'++++*)))))))))))))))))#+++*)))))))))))))-+++#)))))))))))))))))%++++*)))))))))))))))))))))))))))))))))))#++++-))))))))))))))))))))))))))))))))))))))))))))))))))))))@@@@@@@@@@@@@@                                    ",
" @@@@@@@@@@@>)))))))))))))))))))))))))))))%+++#)))))))))))))))))'++++')))))))))))))#+++')))))))))))))))))+++++)))))))))))))))))))))))))))))))))))-++++#))))))))))))))))))))))))))))))))))))))))))))))))))))))&@@@@@@@@@@@@@@@                                   ",
" @@@@@@@@@@@&))))))))))))))))))))))))))))'++++-)))))))))))))))))*+++#)))))))))))))-+++*)))))))))))))))))'++++%)))))))))))))))))))))))))))))))))))%++++-)))))))))))))))))))))))))))))))))))))))))))))))))))));@@@@@@@@@@@@@@@@@                                  ",
" @@@@@@@@@@@@')))))))))))))))))))))))))))*++++))))))))))))))))))++++-)))))))))))))%+++')))))))))))))))))%++++'))))))))))))))))))))))))))))))))))'+++++)))))))))))))))))))))))))))))))))))))))))))))))))))))'@@@@@@@@@@@@@@@@@@                                  ",
"  @@@@@@@@@@@&)))))))))))))))))))))))))))#+++%)))))))))))))))))*++++)))))))))))))'+++%)))))))))))))))))-++++#)))))))))))))))))))))))))))))))))))%++++*)))))))))))))))))))))))))))))))))))))))))))))))))))))@@@@@@@@@@@  @@@@@@@                                 ",
"  @@@@@@@@@@@@))))))))))))))))))))))))))'++++-)))))))))))))))))++++%)))))))))))))*+++')))))))))))))))))#++++-)))))))))))))))))))))))))))))))))))+++++'))))))))))))))))))))))))))))))))))))))))))))))))))))&@@@@@@@@@@@  @@@@@@@                                 ",
"   @@@@@@@@@@@=)))))))))))))))))))))))))*++++'))))))))))))))))*++++')))))))))))))%++%)))))))))))))))))%+++++)))))))))))))))))))))))))))))))))))*++++%))))))))))))))))))))))))))))))))))))))))))))))))))));@@@@@@@@@@@    @@@@@@@                                ",
"   @@@@@@@@@@@@))))))))))))))))))))))))'#++++))))))))))))))))'++++#))))))))))))))+++%))))))))))))))))'+++++*)))))))))))))))))))))))))))))))))))#++++'))))))))))))))))))))))))))))))))))))))))))))))))))))@@@@@@@@@@@     @@@@@@@                                ",
"   @@@@@@@@@@@@>)))))))))))))))))))))))#+++++))))))))))))))))#++++*)))))))))))))*+++%))))))))))))))))#+++++'))))))))))))))))))))))))))))))))))-++++%))))))))))))))))))))))))))))))))))))))))))))))))))))@@@@@@@@@@@@      @@@@@@@                               ",
"    @@@@@@@@@@@@))))))))))))))))))))))%++++++'))))))))))))))%+++++')))))))))))))++++#))))))))))))))'#+++++%)))))))))))))))))))))))))))))))))))#++++-)))))))))))))))))))))))))))))))))))))))))))))))))))&@@@@@@@@@@@       @@@@@@@@                              ",
"    @@@@@@@@@@@@)))))))))))))))))))))%+++++++'))))))))))))'#++++++)))))))))))))%+++++'))))))))))))*+++++++%))))))))))))))))))))))))))))))))))'++++#)))))))))))))))))))))))))))))))))))))))))))))))))))=@@@@@@@@@@@         @@@@@@@                              ",
"    @@@@@@@@@@@@=)))))))))))))))))))%++++++++%)))))))))))*++++++++-)))))))))))%++++++%))))))))))'#++++%%+++')))))))))))))))))))))))))))))))))%++++-))))))))))))))))))))))))))))))))))))))))))))))))))'@@@@@@@@@@@@          @@@@@@@                             ",
"     @@@@@@@@@@@@)))))))))))))))))'%++++%-++++*)))))))'*++++++%++++*))))))))'#++++++++%)))))))-%+++++%)-+++#')))))))))))))))))))))))))))))))'++++#)))))))))))))))))))))))))))))))))))))))))))))))))))@@@@@@@@@@@@           @@@@@@@                             ",
"     @@@@@@@@@@@@>))))))))))))))'*+++++#))#++++#*--*%#+++++++%)%+++++%%*-'*#+++++-%++++#*--*%+++++++%))'+++++%-'))))))))))))))))))))))))))))*++++*))))'''''--'))))))))))))))))))))))))))))))))))))))@@@@@@@@@@@@@            @@@@@@@                            ",
"      @@@@@@@@@@@&))))))))))))))%+++++#)))'+++++++++++++++++*))-++++++++++++++++-)'++++++++++++++++%))))%+++++++-)))))))))))))))))))))))))))#++++*%#+++++++++#)))))))))))))))))))))))))))))))))))))&@@@@@@@@@@@@             @@@@@@@                            ",
"      @@@@@@@@@@@@))))))))))))))#++++#'))))-++++++++++++++%'))))*++++++++++++++-)))*++++++++++++++*)))))'#++++++%))))))))))))))))))))))))))-++++++++++++++++++')))))))))))))))))))))))))))))))))));@@@@@@@@@@@@               @@@@@@@                           ",
"       @@@@@@@@@@@=)))))))))))))%+++*)))))))'#+++++++++#*')))))))'%#+++++++++#')))))-%++++++++++%'))))))))*#++++*))))))))))))))))))))))))))#++++++++++++++++++)))))))))))))))))))))))))))))))))))'@@@@@@@@@@@@@                @@@@@@                           ",
"       @@@@@@@@@@@@)))))))))))))-%-'))))))))))'*%%%%*-')))))))))))))'-*%%%%%-))))))))))-*%%%**-)))))))))))))'*%*)))))))))))))))))))))))))-#+++++++++++++++###-)))))))))))))))))))))))))))))))))))@@@@@@@@@@@@@                 @@@@@@@                          ",
"       @@@@@@@@@@@@;))))))))))))))))))))))))))))))))))))))))))))))))))))))))))))))))))))))))))))))))))))))))))))))))))))))))))))))))))'*#+++++++++#%*-''))))))))))))))))))))))))))))))))))))))))@@@@@@@@@@@@@                   @@@@@@@                         ",
"        @@@@@@@@@@@@)))))))))))))))))))))))))))))))))))))))))))))))))))))))))))))))))))))))))))))))))))))))))))))))))))))))))))))))))*+++++++++#-')))))))))))))))))))))))))))))))))))))))))))))&@@@@@@@@@@@@@                   @@@@@@@                         ",
"        @@@@@@@@@@@@>))))))))))))))))))))))))))))))))))))))))))))))))))))))))))))))))))))))))))))))))))))))))))))))))))))))))))))))*+++++++++++'))))))))))))))))))))))))))))))))))))))))))))))=@@@@@@@@@@@@@                     @@@@@@@                        ",
"         @@@@@@@@@@@@))))))))))))))))))))))))))))))))))))))))))))))))))))))))))))))))))))))))))))))))))))))))))))))))))))))))))))-++++++++++++#))))))))))))))))))))))))))))))))))))))))))))))>@@@@@@@@@@@@@                      @@@@@@@                        ",
"         @@@@@@@@@@@@;)))))))))))))))))))))))))))))))))))))))))))))))))))))))))))))))))))))))))))))))))))))))))))))))))))))))))'#++++++#++++++-)))))))))))))))))))))))))))))))))))))))))))))'@@@@@@@@@@@@@                        @@@@@@@                       ",
"          @@@@@@@@@@@@))))))))))))))))))))))))))))))))))))))))))))))))))))))))))))))))))))))))))))))))))))))))))))))))))))))))*++++++#-'+++++#))))))))))))))))))))))))))))))))))))))))))))))@@@@@@@@@@@@@@                        @@@@@@@                       ",
"          @@@@@@@@@@@@;)))))))))))))))))))))))))))))))))))))))))))))))))))))))))))))))))))))))))))))))))))))))))))))))))))))'#++++++*))%+++++-)))))))))))))))))))))))))))))))))))))))))))))@@@@@@@@@@@@@@                          @@@@@@@                      ",
"           @@@@@@@@@@@@))))))))))))))))))))))))))))))))))))))))))))))))))))))))))))))))))))))))))))))))))))))))))))))))))))-++++++#'))'+++++#)))),.......$)))))))),.......$)))))))))))))))@@@@@@@@@@@@@@                            @@@@@@                      ",
"           @@@@@@@@@@@@=))))))))))))))))))))))))))))))))))))))))))))))))))))))))))))))))))))))))))))))))))))))))))))))))))%++++++*))))*+++++*)))),.......,)))))))),.......,))))))))))))))&@@@@@@@@@@@@@@                            @@@@@@@                     ",
"            @@@@@@@@@@@@'))))))))))))))))))))))))))))))))))))))))))))))))))))))))))))))))))))))))))))))))))))))))))))))))%+++++#,)))))++++++))))))))))),.,)))))))))))))),.,)))))))))))))&@@@@@@@@@@@@@@                              @@@@@@                     ",
"             @@@@@@@@@@@&))))))))))))))))))))))))))))))))))))))))))))))))))))))))))))))))))))))))))))))))))))))))))))))'#+++++%))))))-+++++*)))))))))))$$)))))))))))))))$$)))))))))))))=@@@@@@@@@@@@@@                               @@@@@@@                    ",
"             @@@@@@@@@@@@>))))))))))))))))))))))))))))))))))))))))))))))))))))))))))))))))))))))))))))))))))))))))))))'#+++++%)))))))#+++++')))))))))),.,)))))))))))))),.,))))))))))))=@@@@@@@@@@@@@@                                 @@@@@@                    ",
"              @@@@@@@@@@@@))))))))))))))))))))))))))))))))))))))))))))))))))))))))))))))))))))))))))))))))))))))))))))#+++++*)))))))-+++++%))))))))))),.))))))))))))))),.))))))))))));@@@@@@@@@@@@@@@                                 @@@@@@@                   ",
"              @@@@@@@@@@@@&))))))))))))))))))))))))))))))))))))))))))))))))))))))))))))))))))))))))))))))))))))))))))%+++++*))))))))%+++++'))))))))))).-))))))))))))))).-)))))))))))>@@@@@@@@@@@@@@@                                   @@@@@@@                  ",
"               @@@@@@@@@@@@>))))))))))))))))))))))))))))))))))))))))))))))))))))))))))))))))))))))))))))))))))))))))*+++++*))))))))'+++++#))))))))))),.,)))))))))))))),.,))))))))))>@@@@@@@@@@@@@@@                                    @@@@@@@                  ",
"               @@@@@@@@@@@@@)))))))))))))))))))))))))))))))))))))))))))))))))))))))))))))))))))))))))))))))))))))))'+++++%)))))))))%+++++-)))))))))))$$)))))))))))))))$$))))))))))>@@@@@@@@@@@@@@@                                      @@@@@@@                 ",
"                @@@@@@@@@@@@&))))))))))))))))))))))))))))))))))))))))))))))))))))))))))))))))))))))))))))))))))))))%++++%))))))))))+++++#))))))))))),.,)))))))))))))),.,)))))))))>@@@@@@@@@@@@@@@@                                      @@@@@@@                 ",
"                 @@@@@@@@@@@@=))))))))))))))))))))))))))))))))))))))))))))))))))))))))))))))))))))))))))))))))))))'+++++')))))))))*+++++-)))))))))))-.)))))))))))))))-.))))))))))@@@@@@@@@@@@@@@@                                        @@@@@@@                ",
"                 @@@@@@@@@@@@@>)))))))))))))))))))))))))))))))))))))))))))))))))))))))))))))))))))))))))))))))))))*++++-))))))))))#++++#)))))))))))).$))))))).$)))))).$)))))))))@@@@@@@@@@@@@@@@                                         @@@@@@@                ",
"                  @@@@@@@@@@@@@)))))))))))))))))))))))))))))))))))))))))))))))))))))))))))))))))))))))))))))))))))#+++#))))))))))-+++++*))))))))))),.,))))))).$))))),.,))))))))@@@@@@@@@@@@@@@@                                           @@@@@@@               ",
"                   @@@@@@@@@@@@&))))))))))))))))))))))))))))))))))))))))))))))))))))))))))))))))))))))))))))))))))++++-))))))))))#+++++)))))))))))))))))))))))))))))))))))))))@@@@@@@@@@@@@@@@                                            @@@@@@@               ",
"                   @@@@@@@@@@@@@&))))))))))))))))))))))))))))))))))))))))))))))))))))))))))))))))))))))))))))))))-++++))))))))))-+++++*))))))))))))))))))))))))))))))))))))))@@@@@@@@@@@@@@@@@                                             @@@@@@@              ",
"                    @@@@@@@@@@@@@=)))))))))))))))))))))))))))))))))))))))))))))))))))))))))))))))))))))))))))))))*+++#))))))))))#+++++')))))))))))))))))))))))))))))))))))))@@@@@@@@@@@@@@@@@                                               @@@@@@              ",
"                     @@@@@@@@@@@@@;))))))))))))))))))))))))))))))))))))))))))))))))))))))))))))))))))))))))))))))#+++*)))))))))'+++++%))))))))))))))))))))))))))))))))))))=@@@@@@@@@@@@@@@@@                                                @@@@@@@             ",
"                     @@@@@@@@@@@@@@>)))))))))))))))))))))))))))))))))))))))))))))))))))))))))))))))))))))))))))))++++-)))))))))%+++++')))))))))))))))))))))))))))))))))))&@@@@@@@@@@@@@@@@@                                                  @@@@@@             ",
"                      @@@@@@@@@@@@@@>)))))))))))))))))))))))))))))))))))))))))))))))))))))))))))))))))))))))))))'++++'))))))))'+++++%)))))))))))))))))))))))))))))))))))&@@@@@@@@@@@@@@@@@                                                   @@@@@@@            ",
"                       @@@@@@@@@@@@@@>))))))))))))))))))))))))))))))))))))))))))))))))))))))))))))))))))))))))))'++++)))))))))%+++++'))))))))))))))))))))))))))))))))))&@@@@@@@@@@@@@@@@@                                                     @@@@@@            ",
"                       @@@@@@@@@@@@@@@>)))))))))))))))))))))))))))))))))))))))))))))))))))))))))))))))))))))))))-++++))))))))'+++++%)))))))))))))))))))))))))))))))))'@@@@@@@@@@@@@@@@@@@                                                     @@@@@@@           ",
"                        @@@@@@@@@@@@@@@>))))))))))))))))))))))))))))))))))))))))))))))))))))))))))))))))))))))))-+++#))))))))%+++++'))))))))))))))))))))))))))))))))>@@@@@@@@@@@@@@@@@@@                                                       @@@@@@           ",
"                         @@@@@@@@@@@@@@@>)))))))))))))))))))))))))))))))))))))))))))))))))))))))))))))))))))))))-+++%)))))))'+++++*))))))))))))))))))))))))))))))))=@@@@@@@@@@@@@@@@@@@                                                        @@@@@@@          ",
"                          @@@@@@@@@@@@@@@;))))))))))))))))))))))))))))))))))))))))))))))))))))))))))))))))))))))-+++%)))))))%+++++))))))))))))))))))))))))))))))))&@@@@@@@@@@@@@@@@@@@                                                          @@@@@@          ",
"                           @@@@@@@@@@@@@@@=)))))))))))))))))))))))))))))))))))))))))))))))))))))))))))))))))))))-+++#))))))'+++++*)))))))))))))))))))))))))))))))&@@@@@@@@@@@@@@@@@@@                                                           @@@@@@@         ",
"                           @@@@@@@@@@@@@@@@&))))))))))))))))))))))))))))))))))))))))))))))))))))))))))))))))))))'+++#))))))%++++#))))))))))))))))))))))))))))))>@@@@@@@@@@@@@@@@@@@@                                                             @@@@@@         ",
"                            @@@@@@@@@@@@@@@@&)))))))))))))))))))))))))))))))))))))))))))))))))))))))))))))))))))'++++)))))-+++++-)))))))))))))))))))))))))))))=@@@@@@@@@@@@@@@@@@@@                                                              @@@@@@@        ",
"                             @@@@@@@@@@@@@@@@@>))))))))))))))))))))))))))))))))))))))))))))))))))))))))))))))))))++++-))))#++++%)))))))))))))))))))))))))))))&@@@@@@@@@@@@@@@@@@@@                                                                @@@@@@        ",
"                              @@@@@@@@@@@@@@@@@=)))))))))))))))))))))))))))))))))))))))))))))))))))))))))))))))))%+++#)))%+++++')))))))))))))))))))))))))))>@@@@@@@@@@@@@@@@@@@@@                                                                 @@@@@@@       ",
"                               @@@@@@@@@@@@@@@@@&))))))))))))))))))))))))))))))))))))))))))))))))))))))))))))))))-++++#*%+++++-)))))))))))))))))))))))))))=@@@@@@@@@@@@@@@@@@@@@                                                                   @@@@@@       ",
"                                @@@@@@@@@@@@@@@@@@;)))))))))))))))))))))))))))))))))))))))))))))))))))))))))))))))#++++++++++-))))))))))))))))))))))))))>@@@@@@@@@@@@@@@@@@@@@@                                                                    @@@@@@@      ",
"                                 @@@@@@@@@@@@@@@@@@&))))))))))))))))))))))))))))))))))))))))))))))))))))))))))))))'#++++++++-))))))))))))))))))))))))))=@@@@@@@@@@@@@@@@@@@@@@                                                                      @@@@@@      ",
"                                  @@@@@@@@@@@@@@@@@@@;)))))))))))))))))))))))))))))))))))))))))))))))))))))))))))))'%+++++#')))))))))))))))))))))))))>@@@@@@@@@@@@@@@@@@@@@@@                                                                       @@@@@@@     ",
"                                  @@@@@@@@@@@@@@@@@@@@&')))))))))))))))))))))))))))))))))))))))))))))))))))))))))))))'-**'))))))))))))))))))))))))))&@@@@@@@@@@@@@@@@@@@@@@@                                                                         @@@@@@@    ",
"                                   @@@@@@@@@@@@@@@@@@@@@=)))))))))))))))))))))))))))))))))))))))))))))))))))))))))))))))))))))))))))))))))))))))))=@@@@@@@@@@@@@@@@@@@@@@@@                                                                          @@@@@@@    ",
"                                    @@@@@@@@@@@@@@@@@@@@@@=)))))))))))))))))))))))))))))))))))))))))))))))))))))))))))))))))))))))))))))))))))))>@@@@@@@@@@@@@@@@@@@@@@@@@                                                                            @@@@@@@   ",
"                                     @@@@@@@@@@@@@@@@@@@@@@@;)))))))))))))))))))))))))))))))))))))))))))))))))))))))))))))))))))))))))))))))))>&@@@@@@@@@@@@@@@@@@@@@@@@@                                                                             @@@@@@@   ",
"                                      @@@@@@@@@@@@@@@@@@@@@@@&>)))))))))))))))))))))))))))))))))))))))))))))))))))))))))))))))))))))))))))))>&@@@@@@@@@@@@@@@@@@@@@@@@@@                                                                               @@@@@@@  ",
"                                        @@@@@@@@@@@@@@@@@@@@@@@@;)))))))))))))))))))))))))))))))))))))))))))))))))))))))))))))))))))))))));&@@@@@@@@@@@@@@@@@@@@@@@@@@@                                                                                @@@@@@@  ",
"                                         @@@@@@@@@@@@@@@@@@@@@@@@@=))))))))))))))))))))))))))))))))))))))))))))))))))))))))))))))))))))'=@@@@@@@@@@@@@@@@@@@@@@@@@@@@@                                                                                  @@@@@@@ ",
"                                          @@@@@@@@@@@@@@@@@@@@@@@@@@&>)))))))))))))))))))))))))))))))))))))))))))))))))))))))))))))));&@@@@@@@@@@@@@@@@@@@@@@@@@@@@@                                                                                    @@@@@@@ ",
"                                           @@@@@@@@@@@@@@@@@@@@@@@@@@@@='))))))))))))))))))))))))))))))))))))))))))))))))))))))))'=&@@@@@@@@@@@@@@@@@@@@@@@@@@@@@@@                                                                                      @@@@@@@",
"                                            @@@@@@@@@@@@@@@@@@@@@@@@@@@@@@=>)))))))))))))))))))))))))))))))))))))))))))))))))>=&@@@@@@@@@@@@@@@@@@@@@@@@@@@@@@@@@@                                                                                        @@@@@@",
"                                             @@@@@@@@@@@@@@@@@@@@@@@@@@@@@@@@=;')))))))))))))))))))))))))))))))))))))))'>=&@@@@@@@@@@@@@@@@@@@@@@@@@@@@@@@@@@@@@@                                                                                         @@@@@@",
"                                               @@@@@@@@@@@@@@@@@@@@@@@@@@@@@@@@@@&=;>)))))))))))))))))))))))))))'>;=&@@@@@@@@@@@@@@@@@@@@@@@@@@@@@@@@@@@@@@@@@@                                                                                            @@@@@",
"                                                @@@@@@@@@@@@@@@@@@@@@@@@@@@@@@@@@@@@@@@@&&======;;;;======&&&@@@@@@@@@@@@@@@@@@@@@@@@@@@@@@@@@@@@@@@@@@@@@@@@@                                                                                             @@@@@",
"                                                 @@@@@@@@@@@@@@@@@@@@@@@@@@@@@@@@@@@@@@@@@@@@@@@@@@@@@@@@@@@@@@@@@@@@@@@@@@@@@@@@@@@@@@@@@@@@@@@@@@@@@@@@@@@@                                                                                               @@@ ",
"                                                   @@@@@@@@@@@@@@@@@@@@@@@@@@@@@@@@@@@@@@@@@@@@@@@@@@@@@@@@@@@@@@@@@@@@@@@@@@@@@@@@@@@@@@@@@@@@@@@@@@@@@@@@                                                                                                 @@@ ",
"                                                    @@@@@@@@@@@@@@@@@@@@@@@@@@@@@@@@@@@@@@@@@@@@@@@@@@@@@@@@@@@@@@@@@@@@@@@@@@@@@@@@@@@@@@@@@@@@@@@@@@@@@@                                                                                                      ",
"                                                      @@@@@@@@@@@@@@@@@@@@@@@@@@@@@@@@@@@@@@@@@@@@@@@@@@@@@@@@@@@@@@@@@@@@@@@@@@@@@@@@@@@@@@@@@@@@@@@@@@                                                                                                        ",
"                                                       @@@@@@@@@@@@@@@@@@@@@@@@@@@@@@@@@@@@@@@@@@@@@@@@@@@@@@@@@@@@@@@@@@@@@@@@@@@@@@@@@@@@@@@@@@@@@@@@                                                                                                         ",
"                                                         @@@@@@@@@@@@@@@@@@@@@@@@@@@@@@@@@@@@@@@@@@@@@@@@@@@@@@@@@@@@@@@@@@@@@@@@@@@@@@@@@@@@@@@@@@@@                                                                                                           ",
"                                                          @@@@@@@@@@@@@@@@@@@@@@@@@@@@@@@@@@@@@@@@@@@@@@@@@@@@@@@@@@@@@@@@@@@@@@@@@@@@@@@@@@@@@@@@@@                                                                                                            ",
"                                                            @@@@@@@@@@@@@@@@@@@@@@@@@@@@@@@@@@@@@@@@@@@@@@@@@@@@@@@@@@@@@@@@@@@@@@@@@@@@@@@@@@@@@@                                                                                                              ",
"                                                              @@@@@@@@@@@@@@@@@@@@@@@@@@@@@@@@@@@@@@@@@@@@@@@@@@@@@@@@@@@@@@@@@@@@@@@@@@@@@@@@@@                                                                                                                ",
"                                                                @@@@@@@@@@@@@@@@@@@@@@@@@@@@@@@@@@@@@@@@@@@@@@@@@@@@@@@@@@@@@@@@@@@@@@@@@@@@@@                                                                                                                  ",
"                                                                  @@@@@@@@@@@@@@@@@@@@@@@@@@@@@@@@@@@@@@@@@@@@@@@@@@@@@@@@@@@@@@@@@@@@@@@@@@                                                                                                                    ",
"                                                                    @@@@@@@@@@@@@@@@@@@@@@@@@@@@@@@@@@@@@@@@@@@@@@@@@@@@@@@@@@@@@@@@@@@@@@                                                                                                                      ",
"                                                                       @@@@@@@@@@@@@@@@@@@@@@@@@@@@@@@@@@@@@@@@@@@@@@@@@@@@@@@@@@@@@@@@@                                                                                                                        ",
"                                                                         @@@@@@@@@@@@@@@@@@@@@@@@@@@@@@@@@@@@@@@@@@@@@@@@@@@@@@@@@@@@                                                                                                                           ",
"                                                                            @@@@@@@@@@@@@@@@@@@@@@@@@@@@@@@@@@@@@@@@@@@@@@@@@@@@@@@                                                                                                                             ",
"                                                                               @@@@@@@@@@@@@@@@@@@@@@@@@@@@@@@@@@@@@@@@@@@@@@@@@                                                                                                                                ",
"                                                                                   @@@@@@@@@@@@@@@@@@@@@@@@@@@@@@@@@@@@@@@@@                                                                                                                                    ",
"                                                                                        @@@@@@@@@@@@@@@@@@@@@@@@@@@@@@@@                                                                                                                                        ",
"                                                                                               @@@@@@@@@@@@@@@@@@                                                                                                                                               "};
